soundwave-77/time-series-mts-hse/models/STORE_2_587/train_data.csv
index,timestamp,segment,target,holiday,target_change_points,target_diff_1,target_diff_2,target_lag_1,target_lag_14,target_lag_180,target_lag_30,target_lag_365,target_lag_7,target_lag_90,target_mad,target_max,target_mean,target_median,target_min,target_minmax_diff,target_q_0.25,target_q_0.50,target_q_0.75,target_q_0.90,target_q_0.95,target_std,target_sum,target_trend
0,2011-01-29,STORE_2_587,0.0,0,0,,,,,,,,,,0.0,0.0,0.0,0.0,0.0,0.0,0.0,0.0,0.0,0.0,0.0,0.0,0.0,81.8685997743288
1,2011-01-30,STORE_2_587,0.0,0,0,0.0,,0.0,,,,,,,0.0,0.0,0.0,0.0,0.0,0.0,0.0,0.0,0.0,0.0,0.0,0.0,0.0,81.83566735107917
2,2011-01-31,STORE_2_587,0.0,0,0,0.0,0.0,0.0,,,,,,,0.0,0.0,0.0,0.0,0.0,0.0,0.0,0.0,0.0,0.0,0.0,0.0,0.0,81.80273492782953
3,2011-02-01,STORE_2_587,84.0,0,0,0.18905623622004886,0.18905623622004886,0.0,,,,,,,31.5,84.0,21.0,0.0,0.0,84.0,0.0,0.0,0.047264059055012214,0.13233936535403423,0.16069780078704146,42.0,84.0,81.7698025045799
4,2011-02-02,STORE_2_587,73.0,0,0,-0.02055109986338921,-0.20960733608343807,0.18905623622004886,,,,,,,37.68,84.0,31.4,0.0,0.0,84.0,0.0,0.0,0.16850513635665965,0.18083579627469318,0.184946016247371,43.17175002243945,157.0,81.73687008133027
5,2011-02-03,STORE_2_587,64.0,0,0,-0.017569363588517933,0.0029817362748712772,0.16850513635665965,,,,,,,36.833333333333336,84.0,36.833333333333336,32.0,0.0,84.0,0.0,0.07546788638407086,0.16411279545953017,0.17878068628835425,0.18391846125420155,40.84319608780227,221.0,81.70393765808058
6,2011-02-04,STORE_2_587,115.99999999999999,0,0,0.09290727055438247,0.1104766341429004,0.1509357727681417,,,,,,,41.26530612244898,116.0,48.142857142857146,64.0,0.0,116.0,0.0,0.1509357727681417,0.17878068628835425,0.21097095906103902,0.22740700119178153,47.80665424892429,337.0,81.67100523483094
7,2011-02-05,STORE_2_587,134.00000000000003,0,0,0.028028723600243582,-0.06487854695413889,0.24384304332252418,,,,,0.0,,44.15625,134.0,58.875,68.5,0.0,134.0,0.0,0.1597204545624007,0.20275293799566768,0.2522516604025973,0.2620617136626825,53.66945792800328,471.0,81.63807281158131
8,2011-02-06,STORE_2_587,118.0,0,0,-0.024823583725032156,-0.05285230732527574,0.27187176692276777,,,,,0.0,,43.95061728395062,134.0,65.44444444444444,73.0,0.0,134.0,0.0,0.16850513635665965,0.24384304332252418,0.25201289994274206,0.2619423334327549,53.9330861139781,589.0,81.60514038833168
9,2011-02-07,STORE_2_587,76.0,0,0,-0.07284106801660584,-0.04801748429157368,0.2470481831977356,,,,,0.0,,40.4,134.0,66.5,74.5,0.0,134.0,0.03773394319203543,0.1713561257688947,0.23014634154690536,0.24953054157023882,0.26070115424650325,50.958043744066764,665.0,81.57220796508204
10,2011-02-08,STORE_2_587,94.0,0,0,0.03272384480862339,0.10556491282522923,0.17420711518112977,,,,,0.18905623622004886,,38.54545454545455,134.0,69.0,76.0,0.0,134.0,0.07546788638407086,0.17420711518112977,0.22538700165613867,0.2470481831977356,0.2594599750602517,49.04895513667952,759.0,81.53927554183235
11,2011-02-09,STORE_2_587,72.0,0,0,-0.04034324167881534,-0.07306708648743873,0.20693095998975317,,,,,0.16850513635665965,,35.5,134.0,69.25,74.5,0.0,134.0,0.11320182957610628,0.1713561257688947,0.21615898082294593,0.24672766921021447,0.25821879587400004,46.77436166417356,831.0,81.50634311858272
12,2011-02-10,STORE_2_587,100.99999999999999,0,0,0.05243174128655423,0.09277498296536957,0.16658771831093783,,,,,0.1509357727681417,,34.27218934911242,134.0,71.6923076923077,76.0,0.0,134.0,0.1509357727681417,0.17420711518112977,0.21901945959749206,0.24640715522269332,0.25697761668774843,45.64059708816376,932.0,81.47341069533309
13,2011-02-11,STORE_2_587,75.0,0,0,-0.04670469809406716,-0.09913643938062139,0.21901945959749206,,,,,0.24384304332252418,,31.95918367346939,134.0,71.92857142857143,75.5,0.0,134.0,0.15484875915384075,0.17326093834227735,0.21599733469555732,0.24608664123517218,0.2557364375014969,43.85897730351097,1007.0,81.44047827208345
14,2011-02-12,STORE_2_587,93.00000000000001,0,0,0.03286147091977776,0.07956616901384492,0.1723147615034249,0.0,,,,0.27187176692276777,,30.799999999999997,134.0,73.33333333333333,76.0,0.0,134.0,0.15876174553953976,0.17420711518112977,0.2129752097936226,0.24576612724765104,0.2544952583152452,42.61231657407895,1100.0,81.40754584883382
15,2011-02-13,STORE_2_587,98.0,0,0,0.008703587521878331,-0.024157883397899427,0.20517623242320265,0.0,,,,0.2470481831977356,,30.03125,134.0,74.875,80.0,0.0,134.0,0.1626747319252388,0.1816316757005893,0.21516472985818375,0.2454456132601299,0.25325407912899367,41.62671417891801,1198.0,81.37461342558419
16,2011-02-14,STORE_2_587,79.0,0,0,-0.03404461975552511,-0.042748207277403444,0.21387981994508098,0.0,,,,0.17420711518112977,,28.449826989619375,134.0,75.11764705882354,79.0,0.0,134.0,0.16658771831093783,0.17983520018955587,0.21387981994508098,0.24512509927260875,0.252012899942742,40.31730762486065,1277.0,81.3416810023345
17,2011-02-15,STORE_2_587,67.0,0,0,-0.02296364734090825,0.011080972414616863,0.17983520018955587,0.18905623622004886,,,,0.20693095998975317,,27.40740740740741,134.0,74.66666666666667,77.5,0.0,134.0,0.15930059421422016,0.17702115768534282,0.21214260495624904,0.2448045852850876,0.2507717207564904,39.160304030544836,1344.0,81.30874857908486
18,2011-02-16,STORE_2_587,57.0,0,0,-0.020109818387418044,0.002853828953490206,0.15687155284864762,0.16850513635665965,,,,0.16658771831093783,,27.041551246537395,134.0,73.73684210526316,76.0,0.0,134.0,0.15390366280839468,0.17420711518112977,0.2104053899674171,0.24448407129756647,0.24953054157023877,38.272186165910725,1401.0,81.27581615583523
19,2011-02-17,STORE_2_587,59.0,0,0,0.004097148141045059,0.024206966528463103,0.13676173446122958,0.1509357727681417,,,,0.21901945959749206,,26.5,134.0,73.0,75.5,0.0,134.0,0.14841655022667494,0.17326093834227735,0.2086681749785851,0.24416355731004533,0.24828936238398724,37.39687574904452,1460.0,81.2428837325856
20,2011-02-18,STORE_2_587,67.0,0,0,0.016012670246372984,0.011915522105327925,0.14085888260227464,0.24384304332252418,,,,0.1723147615034249,,25.564625850340132,134.0,72.71428571428571,75.0,0.0,134.0,0.1509357727681417,0.1723147615034249,0.20693095998975317,0.24384304332252418,0.2470481831977356,36.47347372700174,1527.0,81.20995130933596
21,2011-02-19,STORE_2_587,76.0,0,0,0.01733556233248215,0.0013228920861091675,0.15687155284864762,0.27187176692276777,,,,0.20517623242320265,,24.52479338842975,134.0,72.86363636363636,75.5,0.0,134.0,0.15241971778826818,0.17326093834227735,0.20649227809811554,0.24136068495002103,0.24688792620397504,35.601358259997745,1603.0,81.17701888608627
22,2011-02-20,STORE_2_587,92.0,0,0,0.029207271085786246,0.011871708753304094,0.17420711518112977,0.2470481831977356,,,,0.21387981994508098,,24.170132325141775,134.0,73.69565217391305,76.0,0.0,134.0,0.15390366280839468,0.17420711518112977,0.2060535962064779,0.23887832657751779,0.24672766921021447,35.01095254943762,1695.0,81.14408646283664
23,2011-02-21,STORE_2_587,89.99999999999999,1,0,-0.0035452807646497164,-0.03275255185043596,0.20341438626691602,0.17420711518112977,,,,0.17983520018955587,,23.729166666666668,134.0,74.375,76.0,0.0,134.0,0.15538760782852115,0.17420711518112977,0.20561491431484027,0.23639596820501452,0.2465674122164539,34.40274571954219,1785.0,81.111154039587
24,2011-02-22,STORE_2_587,87.0,0,0,-0.005372783763861022,-0.0018275029992113057,0.1998691055022663,0.20693095998975317,,,,0.15687155284864762,,23.184,134.0,74.88,76.0,0.0,134.0,0.15687155284864762,0.17420711518112977,0.20517623242320265,0.23391360983251136,0.24640715522269332,33.772918144572586,1872.0,81.07822161633737
25,2011-02-23,STORE_2_587,59.0,0,0,-0.053637439136130644,-0.04826465537226962,0.19449632173840528,0.16658771831093783,,,,0.13676173446122958,,22.997041420118343,134.0,74.26923076923077,76.0,0.0,134.0,0.15241971778826818,0.17420711518112977,0.204735770884131,0.23143125146000812,0.24624689822893275,33.23679610589166,1931.0,81.04528919308774
26,2011-02-24,STORE_2_587,43.000000000000014,0,0,-0.03391337727714479,0.019724061858985856,0.14085888260227464,0.21901945959749206,,,,0.14085888260227464,,23.432098765432098,134.0,73.11111111111111,76.0,0.0,134.0,0.1458973276852082,0.17420711518112977,0.20429530934505935,0.22894889308750496,0.24608664123517218,33.14227295177952,1974.0,81.0123567698381
27,2011-02-25,STORE_2_587,67.0,0,0,0.04992604752351777,0.08383942480066256,0.10694550532512985,0.1723147615034249,,,,0.15687155284864762,,22.836734693877553,134.0,72.89285714285714,75.5,0.0,134.0,0.14841655022667494,0.17326093834227735,0.20385484780598767,0.22646653471500172,0.2459263842414116,32.543235384825664,2041.0,80.97942434658842
28,2011-02-26,STORE_2_587,108.00000000000001,0,0,0.07390901763463475,0.023982970111116983,0.15687155284864762,0.20517623242320265,,,,0.17420711518112977,,23.127229488703925,134.0,74.10344827586206,76.0,0.0,134.0,0.1509357727681417,0.17420711518112977,0.20517623242320265,0.23339306505113072,0.24576612724765104,32.61501059721057,2149.0,80.94649192333878
29,2011-02-27,STORE_2_587,89.99999999999999,0,0,-0.030911464981016074,-0.10482048261565083,0.23078057048328238,0.21387981994508098,,,,0.20341438626691602,,22.815555555555555,134.0,74.63333333333334,76.0,0.0,134.0,0.15241971778826818,0.17420711518112977,0.204735770884131,0.23208681776720658,0.24560587025389047,32.17890006192571,2239.0,80.91355950008915
30,2011-02-28,STORE_2_587,88.0,0,0,-0.003574460358298115,0.02733700462271796,0.1998691055022663,0.17983520018955587,,0.0,,0.1998691055022663,,22.445369406867844,134.0,75.06451612903226,76.0,0.0,134.0,0.15390366280839468,0.17420711518112977,0.20429530934505935,0.23078057048328238,0.2454456132601299,31.72899355885819,2327.0,80.88062707683952
31,2011-03-01,STORE_2_587,76.0,0,0,-0.022087529962838415,-0.0185130696045403,0.1962946451439682,0.15687155284864762,,0.0,,0.19449632173840528,,21.76953125,134.0,75.09375,76.0,0.0,134.0,0.15538760782852115,0.17420711518112977,0.20385484780598767,0.22960445939470336,0.24528535626636933,31.213478659066503,2403.0,80.84769465358988
32,2011-03-02,STORE_2_587,79.0,0,0,0.005628085008426098,0.027715614971264513,0.17420711518112977,0.13676173446122958,,0.0,,0.14085888260227464,,21.210284664830116,134.0,75.21212121212122,76.0,0.0,134.0,0.15687155284864762,0.17420711518112977,0.20341438626691602,0.22842834830612432,0.24512509927260875,30.729421544911133,2482.0,80.8147622303402
33,2011-03-03,STORE_2_587,66.0,0,0,-0.02493324020381274,-0.030561325212238838,0.17983520018955587,0.14085888260227464,,0.18905623622004886,,0.10694550532512985,,20.892733564013845,134.0,74.94117647058823,76.0,0.0,134.0,0.15539435820146924,0.17420711518112977,0.20252806607575358,0.22725223721754528,0.24496484227884818,30.30145628710656,2548.0,80.78182980709056
34,2011-03-04,STORE_2_587,98.0,0,0,0.05897785995933785,0.08391110016315059,0.15490195998574313,0.15687155284864762,,0.16850513635665965,,0.15687155284864762,,20.857142857142858,134.0,75.6,76.0,0.0,134.0,0.15588675641719538,0.17420711518112977,0.20429530934505935,0.22607612612896627,0.2448045852850876,30.105891547707948,2646.0,80.74889738384093
35,2011-03-05,STORE_2_587,92.0,0,0,-0.010465433678164965,-0.06944329363750282,0.21387981994508098,0.17420711518112977,,0.1509357727681417,,0.23078057048328238,,20.666666666666668,134.0,76.05555555555556,77.5,0.0,134.0,0.1563791546329215,0.17702115768534282,0.20385484780598767,0.2249000150403872,0.24464432829132704,29.798316773597843,2738.0,80.7159649605913
36,2011-03-06,STORE_2_587,121.00000000000003,0,0,0.048397586726883574,0.05886302040504854,0.20341438626691602,0.20341438626691602,,0.24384304332252418,,0.1998691055022663,,21.289992695398105,134.0,77.27027027027027,79.0,0.0,134.0,0.15687155284864762,0.17983520018955587,0.20517623242320265,0.2360055596189791,0.24800094115694837,30.29635901175865,2859.0,80.68303253734166
37,2011-03-07,STORE_2_587,91.0,0,0,-0.05016660946573023,-0.0985641961926138,0.2518119729937996,0.1998691055022663,,0.27187176692276777,,0.1962946451439682,,21.072022160664822,134.0,77.63157894736842,79.0,0.0,134.0,0.15687155284864762,0.17983520018955587,0.204735770884131,0.23469931233505498,0.2477627516671452,29.967027874010242,2950.0,80.65010011409203
38,2011-03-08,STORE_2_587,89.0,0,0,-0.0035598107662202783,0.046606798699509955,0.20164536352806936,0.19449632173840528,,0.2470481831977356,,0.17420711518112977,,20.800788954635106,134.0,77.92307692307692,79.0,0.0,134.0,0.15687155284864762,0.17983520018955587,0.20429530934505935,0.23339306505113078,0.247524562177342,29.626077253684727,3039.0,80.61716769084234
39,2011-03-09,STORE_2_587,71.0,0,0,-0.0334237554869497,-0.029863944720729424,0.19808555276184908,0.14085888260227464,,0.17420711518112977,,0.17983520018955587,,20.4625,134.0,77.75,79.0,0.0,134.0,0.15687155284864762,0.17983520018955587,0.20385484780598767,0.23208681776720658,0.2472863726875388,29.264268928121815,3110.0,80.5842352675927
40,2011-03-10,STORE_2_587,67.0,0,0,-0.007790244426251758,0.025633511060697944,0.16466179727489938,0.10694550532512985,,0.20693095998975317,,0.15490195998574313,,20.232004759071984,134.0,77.48780487804878,79.0,0.0,134.0,0.15687155284864762,0.17983520018955587,0.20341438626691602,0.23078057048328238,0.2470481831977356,28.944880334196853,3177.0,80.55130284434307
41,2011-03-11,STORE_2_587,53.0,0,0,-0.02842192822819295,-0.020631683801941192,0.15687155284864762,0.15687155284864762,,0.16658771831093783,,0.21387981994508098,,20.333333333333332,134.0,76.9047619047619,77.5,0.0,134.0,0.15687155284864762,0.17702115768534282,0.20341438626691602,0.22960445939470334,0.24688792620397504,28.838329443015233,3230.0,80.51837042109344
42,2011-03-12,STORE_2_587,67.0,0,0,0.02842192822819295,0.0568438564563859,0.12844962462045467,0.23078057048328238,,0.21901945959749206,,0.20341438626691602,,20.085451595457002,134.0,76.67441860465117,76.0,0.0,134.0,0.15687155284864762,0.17420711518112977,0.20341438626691602,0.22842834830612435,0.24672766921021447,28.532955824910818,3297.0,80.4854379978438
43,2011-03-13,STORE_2_587,78.0,0,0,0.02109571120578896,-0.007326217022403991,0.15687155284864762,0.1998691055022663,,0.1723147615034249,,0.2518119729937996,,19.65909090909091,134.0,76.70454545454545,77.0,0.0,134.0,0.15687155284864762,0.1760871896177832,0.20341438626691602,0.2272522372175453,0.2465674122164539,28.199933651129726,3375.0,80.45250557459411
44,2011-03-14,STORE_2_587,82.99999999999999,0,0,0.009260361119204169,-0.01183535008658479,0.17796726405443658,0.1962946451439682,,0.20517623242320265,,0.20164536352806936,,19.35901234567901,134.0,76.84444444444445,78.0,0.0,134.0,0.15687155284864762,0.17796726405443658,0.20341438626691602,0.22607612612896627,0.24640715522269332,27.89342994942419,3458.0,80.41957315134448
45,2011-03-15,STORE_2_587,61.0,0,0,-0.04230988609449851,-0.05157024721370268,0.18722762517364075,0.17420711518112977,,0.21387981994508098,,0.19808555276184908,,19.282608695652176,134.0,76.5,77.0,0.0,134.0,0.15687155284864762,0.1760871896177832,0.20297213058220437,0.2249000150403872,0.24624689822893275,27.680518620703463,3519.0,80.38664072809485
46,2011-03-16,STORE_2_587,61.0,0,0,0.0,0.04230988609449851,0.14491773907914224,0.17983520018955587,,0.17983520018955587,,0.16466179727489938,,19.19511090991399,134.0,76.17021276595744,76.0,0.0,134.0,0.15588675641719538,0.17420711518112977,0.2025298748974927,0.22372390395180816,0.24608664123517218,27.47118581266099,3580.0,80.35370830484521
47,2011-03-17,STORE_2_587,61.99999999999999,0,0,0.002015291235325567,0.002015291235325567,0.14491773907914224,0.15490195998574313,,0.15687155284864762,,0.15687155284864762,,19.09375,134.0,75.875,76.0,0.0,134.0,0.15391041318134277,0.17420711518112977,0.202087619212781,0.2225477928632292,0.2459263842414116,27.254220832588285,3642.0,80.32077588159558
48,2011-03-18,STORE_2_587,71.0,0,0,0.017728766960431575,0.015713475725106008,0.1469330303144678,0.21387981994508098,,0.13676173446122958,,0.12844962462045467,,18.809662640566433,134.0,75.77551020408163,76.0,0.0,134.0,0.15490195998574313,0.17420711518112977,0.20164536352806936,0.22137168177465016,0.245766127247651,26.9778190573003,3713.0,80.28784345834595
49,2011-03-19,STORE_2_587,82.99999999999999,0,0,0.02256582789874137,0.004837060938309795,0.16466179727489938,0.20341438626691602,,0.14085888260227464,,0.15687155284864762,,18.566399999999998,134.0,75.92,76.0,0.0,134.0,0.15539435820146924,0.17420711518112977,0.2012012990216186,0.2201955706860711,0.24560587025389047,26.720656230484966,3796.0,80.25491103509626
50,2011-03-20,STORE_2_587,96.00000000000003,0,0,0.023191662661933787,0.0006258347631924177,0.18722762517364075,0.2518119729937996,,0.15687155284864762,,0.17796726405443658,,18.59438677431757,134.0,76.31372549019608,76.0,0.0,134.0,0.15588675641719538,0.17420711518112977,0.2025298748974927,0.21901945959749206,0.2454456132601299,26.601120424582447,3892.0,80.22197861184662
51,2011-03-21,STORE_2_587,66.0,0,0,-0.055517327849831405,-0.07870899051176519,0.21041928783557454,0.20164536352806936,,0.17420711518112977,,0.18722762517364075,,18.42751479289941,134.0,76.11538461538461,76.0,0.0,134.0,0.15490195998574313,0.17420711518112977,0.202087619212781,0.21850549563225094,0.24528535626636933,26.377838177303193,3958.0,80.18904618859699
52,2011-03-22,STORE_2_587,59.0,0,0,-0.014043077383468494,0.04147425046636291,0.15490195998574313,0.19808555276184908,,0.20341438626691602,,0.14491773907914224,,18.407974368102526,134.0,75.79245283018868,76.0,0.0,134.0,0.15490195998574313,0.17420711518112977,0.20164536352806936,0.21799153166700985,0.24512509927260875,26.228550570356926,4017.0,80.15611376534736
53,2011-03-23,STORE_2_587,51.0,0,0,-0.016625742382983436,-0.0025826649995149414,0.14085888260227464,0.16466179727489938,,0.1998691055022663,,0.14491773907914224,,18.54320987654321,134.0,75.33333333333333,76.0,0.0,134.0,0.15192731957254207,0.17420711518112977,0.2012012990216186,0.21747756770176874,0.24496484227884815,26.198084331521446,4068.0,80.12318134209772
54,2011-03-24,STORE_2_587,33.0,0,0,-0.03991225451925533,-0.023286512136271892,0.1242331402192912,0.15687155284864762,,0.19449632173840528,,0.1469330303144678,,19.005619834710746,134.0,74.56363636363636,76.0,0.0,134.0,0.14893440154130477,0.17420711518112977,0.20075723451516783,0.21696360373652762,0.2448045852850876,26.574677194906208,4101.0,80.09024891884803
55,2011-03-25,STORE_2_587,68.0,0,0,0.07451136791413965,0.11442362243339498,0.08432088570003587,0.12844962462045467,,0.14085888260227464,,0.16466179727489938,,18.78762755102041,134.0,74.44642857142857,75.5,0.0,134.0,0.14993508715472323,0.17326093834227735,0.20031317000871707,0.2164496397712865,0.24464432829132704,26.346584834993937,4169.0,80.0573164955984
56,2011-03-26,STORE_2_587,101.99999999999999,0,0,0.06188699086121091,-0.012624377052928737,0.15883225361417552,0.15687155284864762,,0.10694550532512985,,0.18722762517364075,,18.915974145891045,134.0,74.9298245614035,76.0,0.0,134.0,0.1509357727681417,0.17420711518112977,0.20164536352806936,0.2196993735486498,0.24448407129756647,26.3641122748349,4271.0,80.02438407234877
57,2011-03-27,STORE_2_587,94.0,0,0,-0.013788284485633268,-0.07567527534684418,0.22071924447538643,0.17796726405443658,,0.15687155284864762,,0.21041928783557454,,18.90487514863258,134.0,75.25862068965517,76.0,0.0,134.0,0.15192731957254207,0.17420711518112977,0.20297213058220437,0.2195293950608604,0.2443238143038059,26.251523160372322,4365.0,79.99145164909913
58,2011-03-28,STORE_2_587,76.0,0,0,-0.03272384480862339,-0.018935560322990125,0.20693095998975317,0.18722762517364075,,0.23078057048328238,,0.15490195998574313,,18.596380350474,134.0,75.27118644067797,76.0,0.0,134.0,0.1529188663769424,0.17420711518112977,0.2025298748974927,0.21935941657307093,0.2441635573100453,26.024411953656244,4441.0,79.9585192258495
59,2011-03-29,STORE_2_587,63.00000000000001,0,0,-0.02526810216906336,0.007455742639560031,0.17420711518112977,0.14491773907914224,,0.1998691055022663,,0.14085888260227464,,18.49777777777778,134.0,75.06666666666666,76.0,0.0,134.0,0.1504365828291229,0.17420711518112977,0.202087619212781,0.2191894380852815,0.24400330031628475,25.85150991667124,4504.0,79.92558680259981
60,2011-03-30,STORE_2_587,73.99999999999999,0,0,0.02147511315192427,0.04674321532098763,0.1489390130120664,0.14491773907914224,,0.1962946451439682,,0.1242331402192912,,18.21230851921527,134.0,75.04918032786885,76.0,0.0,134.0,0.1509357727681417,0.17420711518112977,0.20164536352806936,0.21901945959749206,0.24384304332252418,25.635539282740666,4578.0,79.89265437935018
61,2011-03-31,STORE_2_587,80.0,0,0,0.011281010409689068,-0.0101941027422352,0.17041412616399068,0.1469330303144678,,0.17420711518112977,,0.08432088570003587,,17.99583766909469,134.0,75.12903225806451,76.0,0.0,134.0,0.15192731957254207,0.17420711518112977,0.2012012990216186,0.21850549563225094,0.24318991968056203,25.432317036947197,4658.0,79.85972195610054
62,2011-04-01,STORE_2_587,123.99999999999999,0,0,0.07482893850793337,0.0635479280982443,0.18169513657367975,0.16466179727489938,,0.17983520018955587,,0.15883225361417552,,18.44897959183673,134.0,75.9047619047619,76.0,0.0,134.0,0.1529188663769424,0.17420711518112977,0.2025298748974927,0.22037928749980756,0.24672766921021447,25.966923306213683,4782.0,79.82678953285091
63,2011-04-02,STORE_2_587,152.0,0,0,0.041676630563503736,-0.03315230794442964,0.2565240750816131,0.18722762517364075,,0.15490195998574313,,0.22071924447538643,,19.412109375,152.0,77.09375,76.0,0.0,152.0,0.15391041318134277,0.17420711518112977,0.20341438626691602,0.22776217268091362,0.25109740452438994,27.46005396010837,4934.0,79.79385710960128
64,2011-04-03,STORE_2_587,150.99999999999997,0,0,-0.0014215871347941778,-0.043098217698297914,0.29820070564511686,0.21041928783557454,,0.21387981994508098,,0.20693095998975317,,20.31005917159763,152.0,78.23076923076923,76.0,0.0,152.0,0.15490195998574313,0.17420711518112977,0.20341438626691602,0.23861805418682747,0.2555816546640504,28.74552640780019,5085.0,79.76092468635164
65,2011-04-04,STORE_2_587,94.0,0,0,-0.08984815852056952,-0.08842657138577534,0.2967791185103227,0.15490195998574313,,0.20341438626691602,,0.17420711518112977,,20.25573921028467,152.0,78.46969696969697,76.0,0.0,152.0,0.15490195998574313,0.17420711518112977,0.204735770884131,0.23731180690290327,0.2553460495596597,28.589519164557597,5179.0,79.72799226310195
66,2011-04-05,STORE_2_587,75.0,0,0,-0.03461619848632827,0.055231960034241245,0.20693095998975317,0.14085888260227464,,0.2518119729937996,,0.1489390130120664,,20.001336600579194,152.0,78.41791044776119,76.0,0.0,152.0,0.15490195998574313,0.17420711518112977,0.20429530934505935,0.2360055596189791,0.25511044445526904,28.375271593270412,5254.0,79.69505983985232
67,2011-04-06,STORE_2_587,73.99999999999999,0,0,-0.0019006353394342146,0.032715563146894056,0.1723147615034249,0.1242331402192912,,0.20164536352806936,,0.17041412616399068,,19.766435986159166,152.0,78.3529411764706,76.0,0.0,152.0,0.15490195998574313,0.17420711518112977,0.20385484780598767,0.23469931233505498,0.2548748393508784,28.167815181797316,5328.0,79.66212741660269
68,2011-04-07,STORE_2_587,73.0,0,0,-0.0019089898073310352,-8.354467896820594e-06,0.17041412616399068,0.08432088570003587,,0.19808555276184908,,0.18169513657367975,,19.54967443814324,152.0,78.27536231884058,76.0,0.0,152.0,0.15490195998574313,0.17420711518112977,0.20341438626691602,0.23339306505113078,0.2546392342464877,27.96735705297444,5401.0,79.62919499335305
69,2011-04-08,STORE_2_587,69.0,0,0,-0.007720994144962051,-0.005812004337631016,0.16850513635665965,0.15883225361417552,,0.16466179727489938,,0.2565240750816131,,19.387755102040813,152.0,78.14285714285714,76.0,0.0,152.0,0.15539435820146924,0.17420711518112977,0.20341438626691602,0.23208681776720658,0.254403629142097,27.786080194730445,5470.0,79.59626257010342
70,2011-04-09,STORE_2_587,80.0,0,0,0.020910994361982155,0.028631988506944206,0.1607841422116976,0.22071924447538643,,0.15687155284864762,,0.29820070564511686,,19.14342392382464,152.0,78.16901408450704,76.0,0.0,152.0,0.15588675641719538,0.17420711518112977,0.20341438626691602,0.23078057048328238,0.25416802403770633,27.58777468139153,5550.0,79.56333014685373
71,2011-04-10,STORE_2_587,107.00000000000001,0,0,0.04742464992813811,0.026513655566155953,0.18169513657367975,0.20693095998975317,,0.12844962462045467,,0.2967791185103227,,19.31134259259259,152.0,78.56944444444444,76.0,0.0,152.0,0.1563791546329215,0.17420711518112977,0.20385484780598767,0.23061449208513593,0.2539324189333157,27.602728171394805,5657.0,79.5303977236041
72,2011-04-11,STORE_2_587,116.99999999999997,0,0,0.01632878353612474,-0.031095866392013366,0.22911978650181786,0.17420711518112977,,0.15687155284864762,,0.20693095998975317,,19.61456183148808,152.0,79.0958904109589,76.0,0.0,152.0,0.15687155284864762,0.17420711518112977,0.20517623242320265,0.24123054875467578,0.25369681382892495,27.776971068955685,5774.0,79.49746530035446
73,2011-04-12,STORE_2_587,87.0,0,0,-0.05095224829953732,-0.06728103183566206,0.2454485700379426,0.1489390130120664,,0.17796726405443658,,0.1723147615034249,,19.467859751643537,152.0,79.20270270270271,76.0,0.0,152.0,0.15687155284864762,0.17420711518112977,0.204735770884131,0.23992430147075167,0.2534612087245343,27.60135976883178,5861.0,79.46453287710483
74,2011-04-13,STORE_2_587,94.0,0,0,0.012434638251347885,0.0633868865508852,0.19449632173840528,0.17041412616399068,,0.18722762517364075,,0.17041412616399068,,19.424,152.0,79.4,76.0,0.0,152.0,0.15687155284864762,0.17420711518112977,0.2060535962064779,0.23861805418682758,0.2532256036201436,27.467425424663656,5955.0,79.4316004538552
75,2011-04-14,STORE_2_587,111.0,0,0,0.028794193110591587,0.016359554859243702,0.20693095998975317,0.18169513657367975,,0.14491773907914224,,0.16850513635665965,,19.617036011080327,152.0,79.8157894736842,77.0,0.0,152.0,0.15687155284864762,0.1760871896177832,0.20693095998975317,0.23978409821143448,0.252989998515753,27.52342542941232,6066.0,79.39866803060556
76,2011-04-15,STORE_2_587,80.0,0,0,-0.054030016526665,-0.08282420963725659,0.23572515310034475,0.2565240750816131,,0.14491773907914224,,0.1607841422116976,,19.36481700118063,152.0,79.81818181818181,78.0,0.0,152.0,0.15687155284864762,0.17796726405443658,0.20693095998975317,0.23897230918921658,0.2527543934113623,27.341758727904256,6146.0,79.36573560735587
77,2011-04-16,STORE_2_587,104.00000000000001,0,0,0.04240384855308732,0.09643386507975232,0.18169513657367975,0.29820070564511686,,0.1469330303144678,,0.18169513657367975,,19.452333990795527,152.0,80.12820512820512,78.5,0.0,152.0,0.15687155284864762,0.1789012321219962,0.20693095998975317,0.23816052016699857,0.2525187883069716,27.30128153329021,6250.0,79.33280318410624
78,2011-04-17,STORE_2_587,136.0,0,0,0.05077829193572592,0.008374443382638597,0.22409898512676707,0.2967791185103227,,0.16466179727489938,,0.22911978650181786,,19.993911232174334,152.0,80.83544303797468,79.0,0.0,152.0,0.15687155284864762,0.17983520018955587,0.20693095998975317,0.24416414866560787,0.2580588442657285,27.84454574393011,6386.0,79.2998707608566
79,2011-04-18,STORE_2_587,118.0,0,0,-0.027829093864757376,-0.07860738580048329,0.274877277062493,0.20693095998975317,,0.18722762517364075,,0.2454485700379426,,20.254999999999995,152.0,81.3,79.0,0.0,152.0,0.15687155284864762,0.17983520018955587,0.20693095998975317,0.2456085313539219,0.2572914596736708,27.978020306182575,6504.0,79.26693833760697
80,2011-04-19,STORE_2_587,85.00000000000001,0,0,-0.05617100308606102,-0.02834190922130364,0.2470481831977356,0.1723147615034249,,0.21041928783557454,,0.19449632173840528,,20.05456485291877,152.0,81.34567901234568,79.0,0.0,152.0,0.15687155284864762,0.17983520018955587,0.20693095998975317,0.2454485700379426,0.2565240750816131,27.80564713049633,6589.0,79.23400591435734
81,2011-04-20,STORE_2_587,107.00000000000001,0,0,0.03824260639014326,0.09441360947620428,0.1908771801116746,0.17041412616399068,,0.15490195998574313,,0.20693095998975317,,20.145746579417015,152.0,81.65853658536585,79.5,0.0,152.0,0.15687155284864762,0.18076516838161782,0.20693095998975317,0.24528801736640077,0.25628846997722243,27.77831977791008,6696.0,79.20107349110765
82,2011-04-21,STORE_2_587,95.0,0,0,-0.02044116024254461,-0.05868376663268787,0.22911978650181786,0.16850513635665965,,0.14085888260227464,,0.23572515310034475,,20.073450428218898,152.0,81.81927710843374,80.0,0.0,152.0,0.15687155284864762,0.18169513657367975,0.20780479312451322,0.2451274646948589,0.25605286487283174,27.64723096367627,6791.0,79.16814106785802
83,2011-04-22,STORE_2_587,130.0,0,0,0.057118992951301295,0.0775601531938459,0.20867862625927325,0.1607841422116976,,0.1242331402192912,,0.18169513657367975,,20.435374149659857,152.0,82.39285714285714,80.0,0.0,152.0,0.15687155284864762,0.18169513657367975,0.20911379165334856,0.2465682992497977,0.26440658759123026,27.978484787698747,6921.0,79.13520864460838
84,2011-04-23,STORE_2_587,109.00000000000001,0,0,-0.03336259155727975,-0.09048158450858104,0.26579761921057454,0.18169513657367975,,0.08432088570003587,,0.22409898512676707,,20.51903114186852,152.0,82.70588235294117,80.0,0.0,152.0,0.15687155284864762,0.18169513657367975,0.21041928783557454,0.24640833793381842,0.26394291038478224,27.960781858325273,7030.0,79.10227622135875
85,2011-04-24,STORE_2_587,104.00000000000001,0,0,-0.008336042526527726,0.02502654903075202,0.2324350276532948,0.22911978650181786,,0.15883225361417552,,0.274877277062493,,20.53380205516496,152.0,82.95348837209302,80.0,0.0,152.0,0.15687155284864762,0.18169513657367975,0.21301468691770437,0.2462483766178391,0.2634792331783342,27.89050311770454,7134.0,79.06934379810912
86,2011-04-25,STORE_2_587,95.0,0,0,-0.015420358867493822,-0.007084316340966096,0.22409898512676707,0.2454485700379426,,0.22071924447538643,,0.2470481831977356,,20.44206632316026,152.0,83.0919540229885,80.0,0.0,152.0,0.15687155284864762,0.18169513657367975,0.21214955389032775,0.24608841530185982,0.26301555597188614,27.75793713596839,7229.0,79.03641137485948
87,2011-04-26,STORE_2_587,64.0,0,0,-0.057742853491131535,-0.04232249462363771,0.20867862625927325,0.19449632173840528,,0.20693095998975317,,0.1908771801116746,,20.417613636363637,152.0,82.875,80.0,0.0,152.0,0.15687155284864762,0.18169513657367975,0.21128442086295116,0.2459284539858805,0.26255187876543795,27.672889135459787,7293.0,79.0034789516098
88,2011-04-27,STORE_2_587,45.000000000000014,0,0,-0.03960341719489814,0.018139436296233394,0.1509357727681417,0.20693095998975317,,0.17420711518112977,,0.22911978650181786,,20.599419265244283,152.0,82.4494382022472,80.0,0.0,152.0,0.15687155284864762,0.18169513657367975,0.21041928783557454,0.2457684926699012,0.26208820155898993,27.806560391698223,7338.0,78.97054652836016
89,2011-04-28,STORE_2_587,51.0,0,0,0.01290078464604763,0.05250420184094577,0.11133235557324357,0.23572515310034475,,0.1489390130120664,,0.20867862625927325,,20.704444444444444,152.0,82.1,80.0,0.0,152.0,0.15687155284864762,0.18169513657367975,0.20998412244149922,0.2456085313539219,0.26162452435254185,27.847921674211772,7389.0,78.93761410511053
90,2011-04-29,STORE_2_587,56.000000000000014,0,0,0.010465433678164979,-0.002435350967882652,0.1242331402192912,0.18169513657367975,,0.17041412616399068,,0.26579761921057454,0.0,20.10987654320987,152.0,82.72222222222223,80.0,0.0,152.0,0.15687155284864762,0.18169513657367975,0.20998412244149922,0.2456085313539219,0.26162452435254185,26.59011718825049,7445.0,78.9046816818609
91,2011-04-30,STORE_2_587,89.99999999999999,0,0,0.06517053160481012,0.054705097926645144,0.13469857389745618,0.22409898512676707,,0.18169513657367975,,0.2324350276532948,0.0,19.32592592592592,152.0,83.72222222222223,80.0,0.0,152.0,0.15687155284864762,0.18169513657367975,0.20998412244149922,0.2456085313539219,0.26162452435254185,25.09444084450532,7535.0,78.87174925861126
92,2011-05-01,STORE_2_587,91.0,0,0,0.001776258025803057,-0.06339427357900707,0.1998691055022663,0.274877277062493,,0.2565240750816131,,0.22409898512676707,0.0,18.53777777777778,152.0,84.73333333333333,81.5,33.0,119.0,0.15687155284864762,0.18446138087366026,0.20998412244149922,0.2456085313539219,0.26162452435254185,23.463478673476242,7626.0,78.83881683536157
93,2011-05-02,STORE_2_587,100.0,0,0,0.0156676322554056,0.013891374229602543,0.20164536352806936,0.2470481831977356,,0.29820070564511686,,0.20867862625927325,0.18905623622004886,18.707160493827164,152.0,84.91111111111111,81.5,33.0,119.0,0.15687155284864762,0.18446138087366026,0.21301468691770437,0.2456085313539219,0.26162452435254185,23.518409926972826,7642.0,78.80588441211194
94,2011-05-03,STORE_2_587,100.99999999999999,0,0,0.0017064638140170951,-0.013961168441388505,0.21731299578347496,0.1908771801116746,,0.2967791185103227,,0.1509357727681417,0.16850513635665965,18.765432098765423,152.0,85.22222222222223,83.0,33.0,119.0,0.15687155284864762,0.18722762517364075,0.21387981994508098,0.2456085313539219,0.26162452435254185,23.544258002618864,7670.0,78.7729519888623
95,2011-05-04,STORE_2_587,100.99999999999999,0,0,0.0,-0.0017064638140170951,0.21901945959749206,0.22911978650181786,,0.20693095998975317,,0.11133235557324357,0.1509357727681417,18.71407407407408,152.0,85.63333333333334,84.0,33.0,119.0,0.1573617280400296,0.18905240264265766,0.21645470182387647,0.2456085313539219,0.26162452435254185,23.49250418344091,7707.0,78.74001956561267
96,2011-05-05,STORE_2_587,87.0,0,0,-0.024523137859086774,-0.024523137859086774,0.21901945959749206,0.20867862625927325,,0.1723147615034249,,0.1242331402192912,0.24384304332252418,18.384691358024693,152.0,85.31111111111112,84.0,33.0,119.0,0.1573617280400296,0.18905240264265766,0.21387981994508098,0.2456085313539219,0.26162452435254185,23.269135870178314,7678.0,78.70708714236304
97,2011-05-06,STORE_2_587,80.0,0,0,-0.012801185164725531,0.011721952694361243,0.19449632173840528,0.26579761921057454,,0.17041412616399068,,0.13469857389745618,0.27187176692276777,17.882469135802477,152.0,84.71111111111111,83.0,33.0,119.0,0.1573617280400296,0.18722762517364075,0.21301468691770437,0.23669749479410462,0.254403629142097,22.688533184791904,7624.0,78.6741547191134
98,2011-05-07,STORE_2_587,115.99999999999999,0,0,0.062147906748844434,0.07494909191356997,0.18169513657367975,0.2324350276532948,,0.16850513635665965,,0.1998691055022663,0.2470481831977356,17.85975308641975,152.0,84.68888888888888,83.0,33.0,119.0,0.1573617280400296,0.18722762517364075,0.21301468691770437,0.23653694212256277,0.254403629142097,22.656518988673987,7622.0,78.64122229586371
99,2011-05-08,STORE_2_587,123.99999999999999,0,0,0.01268103175908894,-0.049466874989755494,0.24384304332252418,0.22409898512676707,,0.1607841422116976,,0.20164536352806936,0.17420711518112977,18.20493827160493,152.0,85.22222222222223,84.0,33.0,119.0,0.1573617280400296,0.18905240264265766,0.21387981994508098,0.24400359599406604,0.2565240750816131,23.01185711844982,7670.0,78.60828987261408
100,2011-05-09,STORE_2_587,111.0,0,0,-0.02079892198126837,-0.03347995374035731,0.2565240750816131,0.20867862625927325,,0.18169513657367975,,0.21731299578347496,0.20693095998975317,18.398024691358017,152.0,85.41111111111111,84.0,33.0,119.0,0.1573617280400296,0.18905240264265766,0.21645470182387647,0.24400359599406604,0.2565240750816131,23.15404905228469,7687.0,78.57535744936445
101,2011-05-10,STORE_2_587,109.99999999999997,0,0,-0.0016419470669768177,0.019156974914291552,0.23572515310034475,0.1509357727681417,,0.22911978650181786,,0.21901945959749206,0.16658771831093783,18.522222222222215,152.0,85.83333333333333,86.0,33.0,119.0,0.1573617280400296,0.19268675092503995,0.2185928436439878,0.24400359599406604,0.2565240750816131,23.253005121725913,7725.0,78.54242502611481
102,2011-05-11,STORE_2_587,63.00000000000001,0,0,-0.08514419302130152,-0.0835022459543247,0.23408320603336794,0.11133235557324357,,0.2454485700379426,,0.21901945959749206,0.21901945959749206,18.598024691358017,152.0,85.41111111111111,84.0,33.0,119.0,0.15687155284864762,0.18905240264265766,0.21645470182387647,0.24400359599406604,0.2565240750816131,23.31942067835375,7687.0,78.50949260286518
103,2011-05-12,STORE_2_587,59.0,0,0,-0.008080130409791775,0.07706406261150975,0.1489390130120664,0.1242331402192912,,0.19449632173840528,,0.19449632173840528,0.1723147615034249,18.771851851851853,152.0,85.23333333333333,84.0,33.0,119.0,0.15687155284864762,0.18905240264265766,0.21645470182387647,0.24400359599406604,0.2565240750816131,23.460246078577605,7671.0,78.47656017961549
104,2011-05-13,STORE_2_587,71.0,0,0,0.023802914672624742,0.03188304508241652,0.14085888260227464,0.13469857389745618,,0.20693095998975317,,0.18169513657367975,0.20517623242320265,18.833086419753077,152.0,84.9888888888889,83.0,33.0,119.0,0.15687155284864762,0.18722762517364075,0.21645470182387647,0.24400359599406604,0.2565240750816131,23.49300371324752,7649.0,78.44362775636586
105,2011-05-14,STORE_2_587,76.0,0,0,0.009545317906230394,-0.014257596766394348,0.16466179727489938,0.1998691055022663,,0.23572515310034475,,0.24384304332252418,0.21387981994508098,18.777530864197548,152.0,84.74444444444444,81.5,33.0,119.0,0.15687155284864762,0.18446138087366026,0.21645470182387647,0.24400359599406604,0.2565240750816131,23.47054626170259,7627.0,78.41069533311622
106,2011-05-15,STORE_2_587,121.00000000000003,0,0,0.07760485781266982,0.06805953990643943,0.17420711518112977,0.20164536352806936,,0.18169513657367975,,0.2565240750816131,0.17983520018955587,19.13160493827162,152.0,85.21111111111111,83.0,33.0,119.0,0.15687155284864762,0.18722762517364075,0.2185928436439878,0.2456085313539219,0.2565240750816131,23.770671403565352,7669.0,78.37776290986659
107,2011-05-16,STORE_2_587,85.99999999999999,0,0,-0.059121452118656714,-0.13672630993132653,0.2518119729937996,0.21731299578347496,,0.22409898512676707,,0.23572515310034475,0.15687155284864762,18.942716049382717,152.0,85.42222222222222,84.0,33.0,119.0,0.15687155284864762,0.18905240264265766,0.2185928436439878,0.2456085313539219,0.2565240750816131,23.691357063296824,7688.0,78.34483048661696
108,2011-05-17,STORE_2_587,42.000000000000014,0,0,-0.0879551703551299,-0.028833718236473183,0.19269052087514288,0.21901945959749206,,0.274877277062493,,0.23408320603336794,0.13676173446122958,19.10567901234566,152.0,85.25555555555556,84.0,33.0,119.0,0.15687155284864762,0.18905240264265766,0.2185928436439878,0.2456085313539219,0.2565240750816131,23.944956125355368,7673.0,78.31189806336727
109,2011-05-18,STORE_2_587,49.0,0,0,0.015239966556736845,0.10319513691186674,0.10473535052001298,0.21901945959749206,,0.2470481831977356,,0.1489390130120664,0.14085888260227464,19.214320987654318,152.0,85.14444444444445,84.0,33.0,119.0,0.15687155284864762,0.18905240264265766,0.2185928436439878,0.2456085313539219,0.2565240750816131,24.09091446583649,7663.0,78.27896564011763
110,2011-05-19,STORE_2_587,48.00000000000001,0,0,-0.002144668466589131,-0.017384635023325976,0.11997531707674983,0.19449632173840528,,0.1908771801116746,,0.14085888260227464,0.15687155284864762,19.42222222222222,152.0,84.93333333333334,84.0,33.0,119.0,0.15687155284864762,0.18905240264265766,0.2185928436439878,0.2456085313539219,0.2565240750816131,24.33372838425406,7644.0,78.246033216868
111,2011-05-20,STORE_2_587,65.0,0,0,0.03509274539349454,0.03723741386008367,0.1178306486101607,0.18169513657367975,,0.22911978650181786,,0.16466179727489938,0.17420711518112977,19.544444444444444,152.0,84.81111111111112,84.0,33.0,119.0,0.15687155284864762,0.18905240264265766,0.2185928436439878,0.2456085313539219,0.2565240750816131,24.406618389762038,7633.0,78.21310079361837
112,2011-05-21,STORE_2_587,48.00000000000001,0,0,-0.03509274539349454,-0.07018549078698907,0.15292339400365523,0.24384304332252418,,0.20867862625927325,,0.17420711518112977,0.20341438626691602,19.86271604938273,152.0,84.32222222222222,83.0,33.0,119.0,0.15539435820146924,0.18722762517364075,0.2185928436439878,0.2456085313539219,0.2565240750816131,24.69991938201727,7589.0,78.18016837036873
113,2011-05-22,STORE_2_587,77.0,0,0,0.058260610445520514,0.09335335583901505,0.1178306486101607,0.2565240750816131,,0.26579761921057454,,0.2518119729937996,0.1998691055022663,19.874567901234553,152.0,84.17777777777778,81.5,33.0,119.0,0.15539435820146924,0.18446138087366026,0.2185928436439878,0.2456085313539219,0.2565240750816131,24.704354243771437,7576.0,78.1472359471191
114,2011-05-23,STORE_2_587,98.0,0,0,0.037788560889399775,-0.02047204955612074,0.1760912590556812,0.23572515310034475,,0.2324350276532948,,0.19269052087514288,0.19449632173840528,20.00222222222222,152.0,84.3,81.5,33.0,119.0,0.15539435820146924,0.18446138087366026,0.2185928436439878,0.2456085313539219,0.2565240750816131,24.74564994117625,7587.0,78.11430352386941
115,2011-05-24,STORE_2_587,73.0,0,0,-0.04537468358842134,-0.08316324447782111,0.21387981994508098,0.23408320603336794,,0.22409898512676707,,0.10473535052001298,0.14085888260227464,19.85358024691358,152.0,84.45555555555555,81.5,33.0,119.0,0.15687155284864762,0.18446138087366026,0.2185928436439878,0.2456085313539219,0.2565240750816131,24.62854884533833,7601.0,78.08137110061978
116,2011-05-25,STORE_2_587,72.0,0,0,-0.0019174180457218193,0.04345726554269952,0.16850513635665965,0.1489390130120664,,0.20867862625927325,,0.11997531707674983,0.10694550532512985,19.54567901234568,152.0,84.77777777777777,81.5,33.0,119.0,0.15687155284864762,0.18446138087366026,0.2185928436439878,0.2456085313539219,0.2565240750816131,24.267135855858463,7630.0,78.04843867737014
117,2011-05-26,STORE_2_587,64.0,0,0,-0.015651945542796114,-0.013734527497074295,0.16658771831093783,0.14085888260227464,,0.1509357727681417,,0.1178306486101607,0.15687155284864762,19.577530864197545,152.0,84.74444444444444,81.5,33.0,119.0,0.15687155284864762,0.18446138087366026,0.2185928436439878,0.2456085313539219,0.2565240750816131,24.293875452865706,7627.0,78.01550625412051
118,2011-05-27,STORE_2_587,70.0,0,0,0.011791524729557995,0.02744347027235411,0.1509357727681417,0.16466179727489938,,0.11133235557324357,,0.15292339400365523,0.23078057048328238,19.45481481481483,152.0,84.32222222222222,80.0,33.0,119.0,0.15687155284864762,0.18169513657367975,0.21645470182387647,0.2456085313539219,0.2565240750816131,24.21524627811192,7589.0,77.98257383087088
119,2011-05-28,STORE_2_587,71.0,0,0,0.001934499777199672,-0.009857024952358323,0.1627272974976997,0.17420711518112977,,0.1242331402192912,,0.1178306486101607,0.1998691055022663,19.520987654320987,152.0,84.11111111111111,80.0,33.0,119.0,0.15687155284864762,0.18169513657367975,0.21645470182387647,0.2456085313539219,0.2565240750816131,24.24799050839844,7570.0,77.94964140762119
120,2011-05-29,STORE_2_587,78.0,0,0,0.0133054667795372,0.011370967002337529,0.16466179727489938,0.2518119729937996,,0.13469857389745618,,0.1760912590556812,0.1962946451439682,19.533333333333335,152.0,84.0,80.0,33.0,119.0,0.15687155284864762,0.18169513657367975,0.21645470182387647,0.2456085313539219,0.2565240750816131,24.252881214218885,7560.0,77.91670898437155
121,2011-05-30,STORE_2_587,66.0,1,0,-0.02306530406869345,-0.03637077084823065,0.17796726405443658,0.19269052087514288,,0.1998691055022663,,0.21387981994508098,0.17420711518112977,19.632098765432097,152.0,83.88888888888889,80.0,33.0,119.0,0.15539435820146924,0.18169513657367975,0.21645470182387647,0.2456085313539219,0.2565240750816131,24.312776705080633,7550.0,77.88377656112192
122,2011-05-31,STORE_2_587,51.0,0,0,-0.03066881976645193,-0.007603515697758481,0.15490195998574313,0.10473535052001298,,0.20164536352806936,,0.16850513635665965,0.17983520018955587,19.908641975308644,152.0,83.57777777777778,80.0,33.0,119.0,0.15490195998574313,0.18169513657367975,0.21645470182387647,0.2456085313539219,0.2565240750816131,24.553989024773834,7522.0,77.85084413787229
123,2011-06-01,STORE_2_587,64.0,0,0,0.02670263254885051,0.05737145231530244,0.1242331402192912,0.11997531707674983,,0.21731299578347496,,0.16658771831093783,0.15490195998574313,19.928395061728406,152.0,83.55555555555556,80.0,33.0,119.0,0.15490195998574313,0.18169513657367975,0.21645470182387647,0.2456085313539219,0.2565240750816131,24.57097543764906,7520.0,77.81791171462265
124,2011-06-02,STORE_2_587,63.00000000000001,0,0,-0.0019967597560753003,-0.02869939230492581,0.1509357727681417,0.1178306486101607,,0.21901945959749206,,0.1509357727681417,0.21387981994508098,19.94444444444446,152.0,83.16666666666667,79.0,33.0,119.0,0.1534180354991772,0.17983120031405816,0.21645470182387647,0.2456085313539219,0.2565240750816131,24.616724925696676,7485.0,77.78497929137302
125,2011-06-03,STORE_2_587,61.99999999999999,0,0,-0.0020059826975986073,-9.222941523306938e-06,0.1489390130120664,0.15292339400365523,,0.21901945959749206,,0.1627272974976997,0.20341438626691602,20.037037037037024,152.0,82.83333333333333,78.0,33.0,119.0,0.1514326780770201,0.17796726405443658,0.21645470182387647,0.2456085313539219,0.2565240750816131,24.69874672706372,7455.0,77.75204686812333
126,2011-06-04,STORE_2_587,87.0,0,0,0.047563291423937476,0.04956927412153608,0.1469330303144678,0.1178306486101607,,0.19449632173840528,,0.16466179727489938,0.2518119729937996,19.61728395061728,152.0,82.45555555555555,78.0,33.0,119.0,0.1514326780770201,0.17796726405443658,0.21301468691770437,0.24400359599406604,0.2565240750816131,24.366195551274444,7421.0,77.7191144448737
127,2011-06-05,STORE_2_587,82.99999999999999,0,0,-0.007268696564764532,-0.05483198798870201,0.19449632173840528,0.1760912590556812,,0.18169513657367975,,0.17796726405443658,0.20164536352806936,19.51851851851851,152.0,82.36666666666666,78.0,33.0,119.0,0.1514326780770201,0.17796726405443658,0.21301468691770437,0.24400359599406604,0.2565240750816131,24.349261115153627,7413.0,77.68618202162406
128,2011-06-06,STORE_2_587,100.0,0,0,0.03008537060983421,0.03735406717459874,0.18722762517364075,0.21387981994508098,,0.24384304332252418,,0.15490195998574313,0.19808555276184908,19.65432098765431,152.0,82.4888888888889,78.0,33.0,119.0,0.1514326780770201,0.17796726405443658,0.21645470182387647,0.24400359599406604,0.2565240750816131,24.41046213558664,7424.0,77.65324959837443
129,2011-06-07,STORE_2_587,95.0,0,0,-0.008634369524201713,-0.038719740134035924,0.21731299578347496,0.16850513635665965,,0.2565240750816131,,0.1242331402192912,0.16466179727489938,19.689382716049373,152.0,82.75555555555556,79.0,33.0,119.0,0.1514326780770201,0.17983120031405816,0.21645470182387647,0.24400359599406604,0.2565240750816131,24.414635098466267,7448.0,77.6203171751248
130,2011-06-08,STORE_2_587,96.00000000000003,0,0,0.001740661576301289,0.010375031100503002,0.20867862625927325,0.16658771831093783,,0.23572515310034475,,0.1509357727681417,0.15687155284864762,19.688148148148148,152.0,83.07777777777778,80.0,33.0,119.0,0.1514326780770201,0.18169513657367975,0.21645470182387647,0.24400359599406604,0.2565240750816131,24.395720649685227,7477.0,77.5873847518751
131,2011-06-09,STORE_2_587,96.00000000000003,0,0,0.0,-0.001740661576301289,0.21041928783557454,0.1509357727681417,,0.23408320603336794,,0.1489390130120664,0.12844962462045467,19.550617283950626,152.0,83.55555555555556,80.0,33.0,119.0,0.1534180354991772,0.18169513657367975,0.21645470182387647,0.24400359599406604,0.2565240750816131,24.22048121656644,7520.0,77.55445232862547
132,2011-06-10,STORE_2_587,67.0,0,0,-0.053547734986926915,-0.053547734986926915,0.21041928783557454,0.1627272974976997,,0.1489390130120664,,0.1469330303144678,0.15687155284864762,19.550617283950626,152.0,83.55555555555556,80.0,33.0,119.0,0.1534180354991772,0.18169513657367975,0.21645470182387647,0.24400359599406604,0.2565240750816131,24.22048121656644,7520.0,77.52151990537584
133,2011-06-11,STORE_2_587,56.000000000000014,0,0,-0.02217297895119144,0.031374756035735474,0.15687155284864762,0.16466179727489938,,0.14085888260227464,,0.19449632173840528,0.17796726405443658,19.767901234567905,152.0,83.31111111111112,80.0,33.0,119.0,0.1514326780770201,0.18169513657367975,0.21645470182387647,0.24400359599406604,0.2565240750816131,24.387620936272892,7498.0,77.4885874821262
134,2011-06-12,STORE_2_587,131.0,0,0,0.13262556527459093,0.15479854422578238,0.13469857389745618,0.17796726405443658,,0.16466179727489938,,0.18722762517364075,0.18722762517364075,20.34172839506173,152.0,83.84444444444445,80.0,33.0,119.0,0.1514326780770201,0.18169513657367975,0.21731299578347496,0.2456085313539219,0.26162452435254185,24.900210328569337,7546.0,77.45565505887657
135,2011-06-13,STORE_2_587,87.0,0,0,-0.07282781743364183,-0.20545338270823277,0.2673241391720471,0.15490195998574313,,0.17420711518112977,,0.21731299578347496,0.14491773907914224,20.142222222222223,152.0,84.13333333333334,80.0,33.0,119.0,0.1534180354991772,0.18169513657367975,0.21731299578347496,0.2456085313539219,0.26162452435254185,24.782741366986034,7572.0,77.42272263562694
136,2011-06-14,STORE_2_587,88.0,0,0,0.0017983234055629072,0.07462614083920474,0.19449632173840528,0.1242331402192912,,0.2518119729937996,,0.20867862625927325,0.14491773907914224,19.94148148148148,152.0,84.43333333333334,81.5,33.0,119.0,0.15490195998574313,0.18446138087366026,0.21731299578347496,0.2456085313539219,0.26162452435254185,24.662690741416302,7599.0,77.38979021237725
137,2011-06-15,STORE_2_587,66.0,0,0,-0.04139268515822506,-0.043191008563787964,0.1962946451439682,0.1509357727681417,,0.19269052087514288,,0.21041928783557454,0.1469330303144678,19.899012345679008,152.0,84.47777777777777,81.5,33.0,119.0,0.15490195998574313,0.18446138087366026,0.21731299578347496,0.2456085313539219,0.26162452435254185,24.62538553979958,7603.0,77.35685778912762
138,2011-06-16,STORE_2_587,69.0,0,0,0.005882182225954463,0.04727486738417952,0.15490195998574313,0.1489390130120664,,0.10473535052001298,,0.21041928783557454,0.16466179727489938,19.920246913580247,152.0,84.45555555555555,81.5,33.0,119.0,0.15490195998574313,0.18446138087366026,0.21731299578347496,0.2456085313539219,0.26162452435254185,24.638583568251,7601.0,77.32392536587798
139,2011-06-17,STORE_2_587,54.000000000000014,0,0,-0.030241528085399122,-0.036123710311353585,0.1607841422116976,0.1469330303144678,,0.11997531707674983,,0.15687155284864762,0.18722762517364075,20.22814814814814,152.0,84.13333333333334,80.0,33.0,119.0,0.15490195998574313,0.18169513657367975,0.21731299578347496,0.2456085313539219,0.26162452435254185,24.846585459349612,7572.0,77.29099294262835
140,2011-06-18,STORE_2_587,64.0,0,0,0.02039315864184324,0.05063468672724236,0.13054261412629847,0.19449632173840528,,0.1178306486101607,,0.13469857389745618,0.21041928783557454,20.29629629629629,152.0,83.77777777777777,80.0,33.0,119.0,0.1534180354991772,0.18169513657367975,0.21731299578347496,0.2456085313539219,0.26162452435254185,24.90375982523941,7540.0,77.25806051937872
141,2011-06-19,STORE_2_587,89.99999999999999,0,0,0.04893333273412459,0.02854017409228135,0.1509357727681417,0.18722762517364075,,0.15292339400365523,,0.2673241391720471,0.15490195998574313,20.179753086419755,152.0,84.04444444444445,80.0,33.0,119.0,0.1534180354991772,0.18169513657367975,0.21731299578347496,0.2456085313539219,0.26162452435254185,24.83967065908755,7564.0,77.22512809612903
142,2011-06-20,STORE_2_587,93.00000000000001,0,0,0.00530712692093635,-0.04362620581318824,0.1998691055022663,0.21731299578347496,,0.1178306486101607,,0.19449632173840528,0.14085888260227464,20.009382716049384,152.0,84.42222222222222,81.5,33.0,119.0,0.15490195998574313,0.18446138087366026,0.21731299578347496,0.2456085313539219,0.26162452435254185,24.712721455716185,7598.0,77.1921956728794
143,2011-06-21,STORE_2_587,66.0,0,0,-0.05027427243745952,-0.05558139935839587,0.20517623242320265,0.20867862625927325,,0.1760912590556812,,0.1962946451439682,0.1242331402192912,19.846419753086415,152.0,84.58888888888889,81.5,33.0,119.0,0.15490195998574313,0.18446138087366026,0.21731299578347496,0.2456085313539219,0.26162452435254185,24.534724048678825,7613.0,77.15926324962976
144,2011-06-22,STORE_2_587,61.0,0,0,-0.009984220906600894,0.04029005153085863,0.15490195998574313,0.21041928783557454,,0.21387981994508098,,0.15490195998574313,0.08432088570003587,19.54222222222221,152.0,84.9,81.5,42.0,110.0,0.15490195998574313,0.18446138087366026,0.21731299578347496,0.2456085313539219,0.26162452435254185,24.04585974313492,7641.0,77.12633082638013
145,2011-06-23,STORE_2_587,70.0,0,0,0.01780955841855747,0.027793779325158363,0.14491773907914224,0.21041928783557454,,0.16850513635665965,,0.1607841422116976,0.15883225361417552,19.520493827160493,152.0,84.92222222222222,81.5,42.0,110.0,0.15490195998574313,0.18446138087366026,0.21731299578347496,0.2456085313539219,0.26162452435254185,24.030985511817107,7643.0,77.0933984031305
146,2011-06-24,STORE_2_587,76.0,0,0,0.011479817683430066,-0.006329740735127404,0.1627272974976997,0.15687155284864762,,0.16658771831093783,,0.13054261412629847,0.22071924447538643,19.41703703703703,152.0,84.63333333333334,80.0,42.0,110.0,0.15490195998574313,0.18169513657367975,0.21645470182387647,0.2456085313539219,0.26162452435254185,23.97960275556304,7617.0,77.06046597988086
147,2011-06-25,STORE_2_587,51.999999999999986,0,0,-0.04786061564843949,-0.05934043333186956,0.17420711518112977,0.13469857389745618,,0.1509357727681417,,0.1509357727681417,0.20693095998975317,19.644444444444442,152.0,84.16666666666667,80.0,42.0,110.0,0.15490195998574313,0.18169513657367975,0.21645470182387647,0.2456085313539219,0.26162452435254185,24.20291095873396,7575.0,77.02753355663117
148,2011-06-26,STORE_2_587,81.00000000000001,0,0,0.057200641902582894,0.10506125755102239,0.12634649953269028,0.2673241391720471,,0.1627272974976997,,0.1998691055022663,0.17420711518112977,19.592592592592595,152.0,84.22222222222223,80.0,42.0,110.0,0.15490195998574313,0.18169513657367975,0.21645470182387647,0.2456085313539219,0.26162452435254185,24.18968940805003,7580.0,76.99460113338154
149,2011-06-27,STORE_2_587,67.0,0,0,-0.026675588586625554,-0.08387623048920845,0.18354714143527318,0.19449632173840528,,0.16466179727489938,,0.20517623242320265,0.1489390130120664,19.55111111111111,152.0,84.26666666666667,80.0,42.0,110.0,0.15490195998574313,0.18169513657367975,0.21645470182387647,0.2456085313539219,0.26162452435254185,24.15390726062879,7584.0,76.9616687101319
150,2011-06-28,STORE_2_587,40.0,0,0,-0.05659054375488466,-0.029914955168259108,0.15687155284864762,0.1962946451439682,,0.17796726405443658,,0.15490195998574313,0.17041412616399068,19.9037037037037,152.0,83.88888888888889,80.0,40.0,112.0,0.15490195998574313,0.18169513657367975,0.21645470182387647,0.2456085313539219,0.26162452435254185,24.578443302130733,7550.0,76.92873628688227
151,2011-06-29,STORE_2_587,60.0,0,0,0.04261204341896478,0.09920258717384944,0.10028100909376296,0.15490195998574313,,0.15490195998574313,,0.14491773907914224,0.18169513657367975,20.111111111111097,152.0,83.66666666666667,80.0,40.0,112.0,0.1534180354991772,0.18169513657367975,0.21645470182387647,0.2456085313539219,0.26162452435254185,24.704091459340514,7530.0,76.89580386363264
152,2011-06-30,STORE_2_587,49.0,0,0,-0.022917735435977915,-0.0655297788549427,0.14289305251272774,0.1607841422116976,,0.1242331402192912,,0.1627272974976997,0.2565240750816131,19.977777777777792,152.0,82.83333333333333,80.0,40.0,112.0,0.1514326780770201,0.18169513657367975,0.21301468691770437,0.24400359599406604,0.26162452435254185,24.59297880984679,7455.0,76.86287144038295
153,2011-07-01,STORE_2_587,63.00000000000001,0,0,0.028963695935316586,0.0518814313712945,0.11997531707674983,0.13054261412629847,,0.1509357727681417,,0.17420711518112977,0.29820070564511686,19.34172839506173,151.0,81.84444444444445,79.0,40.0,111.0,0.1509357727681417,0.17983120031405816,0.21041928783557454,0.23653694212256277,0.254403629142097,23.547661975647408,7366.0,76.82993901713331
154,2011-07-02,STORE_2_587,93.00000000000001,0,0,0.05623721941113624,0.027273523475819655,0.1489390130120664,0.1509357727681417,,0.1489390130120664,,0.12634649953269028,0.2967791185103227,18.64,136.0,81.2,79.0,40.0,96.0,0.1509357727681417,0.17983120031405816,0.20998412244149922,0.23572515310034475,0.24966826758557079,22.399438195202,7308.0,76.79700659388368
155,2011-07-03,STORE_2_587,76.0,0,0,-0.03096911724207288,-0.08720633665320912,0.20517623242320265,0.1998691055022663,,0.1469330303144678,,0.18354714143527318,0.20693095998975317,18.533333333333335,136.0,81.0,77.5,40.0,96.0,0.1509357727681417,0.17702926155505888,0.20998412244149922,0.23572515310034475,0.24966826758557079,22.364196908692843,7290.0,76.76407417063405
156,2011-07-04,STORE_2_587,61.99999999999999,1,0,-0.02727408486666197,0.0036950323754109116,0.17420711518112977,0.20517623242320265,,0.19449632173840528,,0.15687155284864762,0.1723147615034249,18.66493827160494,136.0,80.85555555555555,77.5,40.0,96.0,0.1509357727681417,0.17702926155505888,0.20998412244149922,0.23572515310034475,0.24966826758557079,22.44521976139526,7277.0,76.73114174738441
157,2011-07-05,STORE_2_587,71.0,0,0,0.017728766960431575,0.04500285182709354,0.1469330303144678,0.15490195998574313,,0.18722762517364075,,0.10028100909376296,0.17041412616399068,18.69530864197529,136.0,80.82222222222222,77.5,40.0,96.0,0.1509357727681417,0.17702926155505888,0.20998412244149922,0.23572515310034475,0.24966826758557079,22.45773947711507,7274.0,76.69820932413478
158,2011-07-06,STORE_2_587,67.0,0,0,-0.007790244426251758,-0.025519011386683332,0.16466179727489938,0.14491773907914224,,0.21731299578347496,,0.14289305251272774,0.16850513635665965,18.756049382716068,136.0,80.75555555555556,77.5,40.0,96.0,0.1509357727681417,0.17702926155505888,0.20998412244149922,0.23572515310034475,0.24966826758557079,22.490103247204374,7268.0,76.66527690088509
159,2011-07-07,STORE_2_587,55.0,0,0,-0.024245987574056715,-0.016455743147804958,0.15687155284864762,0.1627272974976997,,0.20867862625927325,,0.11997531707674983,0.1607841422116976,18.897777777777797,136.0,80.6,77.5,40.0,96.0,0.1509357727681417,0.17702926155505888,0.20998412244149922,0.23572515310034475,0.24966826758557079,22.620364693709174,7254.0,76.63234447763546
160,2011-07-08,STORE_2_587,64.0,0,0,0.018310207493550806,0.04255619506760752,0.1326255652745909,0.17420711518112977,,0.21041928783557454,,0.1489390130120664,0.18169513657367975,19.059753086419754,136.0,80.42222222222222,76.5,40.0,96.0,0.1509357727681417,0.1751491871184055,0.20998412244149922,0.23572515310034475,0.24966826758557079,22.687905889656886,7238.0,76.59941205438582
161,2011-07-09,STORE_2_587,82.99999999999999,0,0,0.03629185240549904,0.01798164491194823,0.1509357727681417,0.12634649953269028,,0.21041928783557454,,0.20517623242320265,0.22911978650181786,18.769382716049385,136.0,80.15555555555555,76.5,40.0,96.0,0.1509357727681417,0.1751491871184055,0.20867862625927325,0.23572515310034475,0.24966826758557079,22.512374180901578,7214.0,76.56647963113619
162,2011-07-10,STORE_2_587,119.0,0,0,0.06141430103065221,0.02512244862515317,0.18722762517364075,0.18354714143527318,,0.15687155284864762,,0.17420711518112977,0.2454485700379426,18.7935802469136,136.0,80.17777777777778,76.5,40.0,96.0,0.1509357727681417,0.1751491871184055,0.20867862625927325,0.23572515310034475,0.2503854519385216,22.550107888716614,7216.0,76.53354720788656
163,2011-07-11,STORE_2_587,76.0,0,0,-0.07443481102316318,-0.1358491120538154,0.24864192620429296,0.15687155284864762,,0.13469857389745618,,0.1469330303144678,0.19449632173840528,18.750617283950596,136.0,80.05555555555556,76.0,40.0,96.0,0.1509357727681417,0.17420711518112977,0.20867862625927325,0.23572515310034475,0.2503854519385216,22.54252466400372,7205.0,76.50061478463687
164,2011-07-12,STORE_2_587,49.0,0,0,-0.05423179810437995,0.020203012918783236,0.17420711518112977,0.10028100909376296,,0.2673241391720471,,0.16466179727489938,0.20693095998975317,18.893827160493803,136.0,79.55555555555556,76.0,40.0,96.0,0.14943820295108523,0.17420711518112977,0.20867862625927325,0.23572515310034475,0.2503854519385216,22.728050832214148,7160.0,76.46768236138723
165,2011-07-13,STORE_2_587,44.0,0,0,-0.010830847651681796,0.04340095045269815,0.11997531707674983,0.14289305251272774,,0.19449632173840528,,0.15687155284864762,0.23572515310034475,18.856790123456793,136.0,78.81111111111112,76.0,40.0,96.0,0.1489390130120664,0.17420711518112977,0.20867862625927325,0.23424740074006564,0.2503854519385216,22.783738752903336,7093.0,76.4347499381376
166,2011-07-14,STORE_2_587,57.999999999999986,0,0,0.02967067066722029,0.040501518318902086,0.10914446942506803,0.11997531707674983,,0.1962946451439682,,0.1326255652745909,0.18169513657367975,19.042222222222225,136.0,78.56666666666666,74.5,40.0,96.0,0.1489390130120664,0.1713561257688947,0.20867862625927325,0.23424740074006564,0.2503854519385216,22.88861647293134,7071.0,76.40181751488797
167,2011-07-15,STORE_2_587,81.00000000000001,0,0,0.044732001342984856,0.015061330675764567,0.13881514009228832,0.1489390130120664,,0.15490195998574313,,0.1509357727681417,0.22409898512676707,18.752592592592595,136.0,78.31111111111112,74.5,40.0,96.0,0.1489390130120664,0.1713561257688947,0.2078030278002556,0.23424740074006564,0.2503854519385216,22.729303189289848,7048.0,76.36888509163833
168,2011-07-16,STORE_2_587,65.0,0,0,-0.030623747431617943,-0.0753557487746028,0.18354714143527318,0.20517623242320265,,0.1607841422116976,,0.18722762517364075,0.274877277062493,18.147407407407425,131.0,77.52222222222223,72.5,40.0,91.0,0.1489390130120664,0.16754642733379874,0.20517623242320265,0.23259984549130214,0.24792474185134214,21.92234905900071,6977.0,76.33595266838864
169,2011-07-17,STORE_2_587,73.0,0,0,0.015581742353004413,0.046205489784622356,0.15292339400365523,0.17420711518112977,,0.13054261412629847,,0.24864192620429296,0.2470481831977356,17.67012345679014,131.0,77.02222222222223,72.5,40.0,91.0,0.1489390130120664,0.16754642733379874,0.20429351519941932,0.22945131061696558,0.246482428907497,21.497832541793745,6932.0,76.30302024513901
170,2011-07-18,STORE_2_587,54.000000000000014,0,0,-0.03796252223036117,-0.053544264583365586,0.16850513635665965,0.1469330303144678,,0.1509357727681417,,0.17420711518112977,0.1908771801116746,17.78320987654322,131.0,76.67777777777778,71.5,40.0,91.0,0.14743452598886747,0.1656247577929186,0.20429351519941932,0.22945131061696558,0.246482428907497,21.616591514716358,6901.0,76.27008782188938
171,2011-07-19,STORE_2_587,49.0,0,0,-0.010567297049548646,0.027395225180812527,0.13054261412629847,0.16466179727489938,,0.1998691055022663,,0.11997531707674983,0.22911978650181786,17.639259259259255,131.0,76.03333333333333,71.0,40.0,91.0,0.1469330303144678,0.16466179727489938,0.2012012990216186,0.2249325893794199,0.246482428907497,21.566958706900905,6843.0,76.23715539863974
172,2011-07-20,STORE_2_587,50.00000000000001,0,0,0.0021341295126858506,0.012701426562234497,0.11997531707674983,0.15687155284864762,,0.20517623242320265,,0.10914446942506803,0.20867862625927325,17.659259259259258,131.0,75.53333333333333,71.0,40.0,91.0,0.14542156188797362,0.16466179727489938,0.1998691055022663,0.2249325893794199,0.246482428907497,21.643796630542198,6798.0,76.20422297539011
173,2011-07-21,STORE_2_587,56.000000000000014,0,0,0.012589127308020504,0.010454997795334653,0.12210944658943568,0.1326255652745909,,0.15490195998574313,,0.13881514009228832,0.26579761921057454,17.16148148148147,131.0,74.71111111111111,70.5,40.0,91.0,0.14339922415433137,0.16369454738629954,0.19897549041269177,0.2195274121504196,0.2401899927225434,20.94575360919675,6724.0,76.17129055214048
174,2011-07-22,STORE_2_587,60.0,0,0,0.008194478615271561,-0.0043946486927489425,0.13469857389745618,0.1509357727681417,,0.14491773907914224,,0.18354714143527318,0.2324350276532948,16.859259259259254,131.0,74.16666666666667,70.0,40.0,91.0,0.14289305251272774,0.1627272974976997,0.19584506429257748,0.21901945959749206,0.2401899927225434,20.679605107828593,6675.0,76.13835812889079
175,2011-07-23,STORE_2_587,68.0,0,0,0.01593920110144778,0.00774472248617622,0.14289305251272774,0.18722762517364075,,0.1627272974976997,,0.15292339400365523,0.22409898512676707,16.525185185185183,131.0,73.76666666666667,69.5,40.0,91.0,0.14289305251272774,0.16175571985469867,0.19449632173840528,0.21748364216487667,0.2401899927225434,20.442877389326977,6639.0,76.10542570564115
176,2011-07-24,STORE_2_587,64.0,0,0,-0.00789648084603381,-0.02383568194748159,0.15883225361417552,0.24864192620429296,,0.17420711518112977,,0.16850513635665965,0.20867862625927325,16.328888888888887,131.0,73.42222222222222,68.5,40.0,91.0,0.14289305251272774,0.15980819791293654,0.19449632173840528,0.21748364216487667,0.2401899927225434,20.34200711417653,6608.0,76.07249328239152
177,2011-07-25,STORE_2_587,54.000000000000014,0,0,-0.02039315864184324,-0.01249667779580943,0.1509357727681417,0.17420711518112977,,0.12634649953269028,,0.13054261412629847,0.1509357727681417,16.417777777777783,131.0,73.31111111111112,68.5,40.0,91.0,0.14136742507988792,0.15980819791293654,0.19449632173840528,0.21748364216487667,0.2401899927225434,20.421207551285605,6598.0,76.03956085914189
178,2011-07-26,STORE_2_587,60.0,0,0,0.012350438386429269,0.03274359702827251,0.13054261412629847,0.11997531707674983,,0.18354714143527318,,0.11997531707674983,0.11133235557324357,16.284444444444432,131.0,73.47777777777777,68.5,40.0,91.0,0.14289305251272774,0.15980819791293654,0.19449632173840528,0.21748364216487667,0.2401899927225434,20.248028217375534,6613.0,76.00662843589225
179,2011-07-27,STORE_2_587,37.0,0,0,-0.049380406101463284,-0.06173084448789255,0.14289305251272774,0.10914446942506803,,0.15687155284864762,,0.12210944658943568,0.1242331402192912,16.408888888888875,131.0,73.32222222222222,68.5,37.0,94.0,0.14289305251272774,0.15980819791293654,0.19449632173840528,0.21748364216487667,0.2401899927225434,20.47515775015867,6599.0,75.97369601264256
180,2011-07-28,STORE_2_587,51.999999999999986,0,0,0.032833853121425824,0.08221425922288911,0.09351264641126446,0.13881514009228832,0.0,0.10028100909376296,,0.13469857389745618,0.13469857389745618,16.444444444444443,131.0,73.27777777777777,68.5,37.0,94.0,0.14289305251272774,0.15980819791293654,0.19449632173840528,0.21748364216487667,0.2401899927225434,20.517478313734287,6595.0,75.94076358939293
181,2011-07-29,STORE_2_587,44.0,0,0,-0.01720203010762225,-0.050035883229048075,0.12634649953269028,0.18354714143527318,0.0,0.14289305251272774,,0.14289305251272774,0.1998691055022663,16.48074074074074,131.0,72.76666666666667,67.5,37.0,94.0,0.14136742507988792,0.15785190323141157,0.19404487152258967,0.21748364216487667,0.2401899927225434,20.668626825008495,6549.0,75.9078311661433
182,2011-07-30,STORE_2_587,76.0,0,0,0.06506264575606174,0.082264675863684,0.10914446942506803,0.15292339400365523,0.0,0.11997531707674983,,0.15883225361417552,0.20164536352806936,16.284444444444453,131.0,72.6,67.5,37.0,94.0,0.14136742507988792,0.15785190323141157,0.19132479694976734,0.21748364216487667,0.2401899927225434,20.580234872705667,6534.0,75.87489874289366
183,2011-07-31,STORE_2_587,89.0,0,0,0.02387843758071931,-0.041184208175342435,0.17420711518112977,0.16850513635665965,0.18905623622004886,0.1489390130120664,,0.1509357727681417,0.21731299578347496,16.140493827160487,131.0,72.47777777777777,67.5,37.0,94.0,0.14136742507988792,0.15785190323141157,0.19132479694976734,0.21748364216487667,0.2401899927225434,20.44792112055183,6523.0,75.84196631964403
184,2011-08-01,STORE_2_587,72.0,0,0,-0.031497834450911255,-0.05537627203163056,0.19808555276184908,0.13054261412629847,0.16850513635665965,0.20517623242320265,,0.13054261412629847,0.21901945959749206,15.764444444444443,131.0,72.15555555555555,67.5,37.0,94.0,0.14136742507988792,0.15785190323141157,0.18722762517364075,0.21422313752892042,0.2401899927225434,20.220643090447467,6494.0,75.8090338963944
185,2011-08-02,STORE_2_587,47.0,0,0,-0.05091238172691205,-0.019414547276000796,0.16658771831093783,0.11997531707674983,0.1509357727681417,0.17420711518112977,,0.14289305251272774,0.21901945959749206,15.609876543209872,131.0,71.55555555555556,67.0,37.0,94.0,0.1393260757197849,0.15687155284864762,0.18630750423904885,0.21076534104652522,0.2401899927225434,20.156194080238702,6440.0,75.7761014731447
186,2011-08-03,STORE_2_587,51.0,0,0,0.008557803635265426,0.05947018536217748,0.11567533658402578,0.12210944658943568,0.24384304332252418,0.1469330303144678,,0.09351264641126446,0.19449632173840528,15.586666666666666,131.0,71.15555555555555,67.0,37.0,94.0,0.13572771544616422,0.15687155284864762,0.18354714143527318,0.21076534104652522,0.2401899927225434,20.203410053200866,6404.0,75.74316904989507
187,2011-08-04,STORE_2_587,61.0,0,0,0.020684598859851036,0.01212679522458561,0.1242331402192912,0.13469857389745618,0.27187176692276777,0.16466179727489938,,0.12634649953269028,0.18169513657367975,15.55802469135803,131.0,70.94444444444444,66.5,37.0,94.0,0.13572771544616422,0.15588675641719538,0.18354714143527318,0.21076534104652522,0.2401899927225434,20.20922089637431,6385.0,75.71023662664544
188,2011-08-05,STORE_2_587,56.000000000000014,0,0,-0.010219165181686057,-0.030903764041537093,0.14491773907914224,0.14289305251272774,0.2470481831977356,0.15687155284864762,,0.10914446942506803,0.24384304332252418,15.104938271604937,131.0,70.27777777777777,66.0,37.0,94.0,0.13469857389745618,0.15490195998574313,0.182152172090064,0.21041928783557454,0.23498627692020518,19.689173308395656,6325.0,75.6773042033958
189,2011-08-06,STORE_2_587,123.99999999999999,0,0,0.12182550118415694,0.132044666365843,0.13469857389745618,0.15883225361417552,0.17420711518112977,0.1326255652745909,,0.17420711518112977,0.2565240750816131,15.10493827160494,131.0,70.27777777777777,66.0,37.0,94.0,0.13469857389745618,0.15490195998574313,0.182152172090064,0.21041928783557454,0.23498627692020518,19.68917330839566,6325.0,75.64437178014617
190,2011-08-07,STORE_2_587,125.00000000000003,0,0,0.0015594073555213472,-0.1202660938286356,0.2565240750816131,0.1509357727681417,0.20693095998975317,0.1509357727681417,,0.19808555276184908,0.23572515310034475,15.288148148148151,131.0,70.43333333333334,66.0,37.0,94.0,0.13469857389745618,0.15490195998574313,0.182152172090064,0.21041928783557454,0.24209050212737665,20.06621062853582,6339.0,75.61143935689648
191,2011-08-08,STORE_2_587,127.0,0,0,0.003102116631482299,0.0015427092759609518,0.25808348243713447,0.13054261412629847,0.16658771831093783,0.18722762517364075,,0.16658771831093783,0.23408320603336794,15.510617283950618,131.0,70.62222222222222,66.0,37.0,94.0,0.13469857389745618,0.15490195998574313,0.182152172090064,0.21041928783557454,0.2503854519385216,20.517779507176662,6356.0,75.57850693364685
192,2011-08-09,STORE_2_587,104.00000000000001,0,0,-0.0370866139418497,-0.040188730573332,0.26118559906861677,0.14289305251272774,0.21901945959749206,0.24864192620429296,,0.11567533658402578,0.1489390130120664,15.872839506172841,131.0,71.07777777777778,66.5,37.0,94.0,0.13469857389745618,0.15588675641719538,0.18354714143527318,0.21076534104652522,0.2503854519385216,20.79986375159448,6397.0,75.54557451039722
193,2011-08-10,STORE_2_587,107.00000000000001,0,0,0.005020801375050787,0.04210741531690049,0.22409898512676707,0.09351264641126446,0.1723147615034249,0.17420711518112977,,0.1242331402192912,0.14085888260227464,16.24444444444444,131.0,71.61111111111111,67.0,37.0,94.0,0.13469857389745618,0.15687155284864762,0.18630750423904885,0.21422313752892042,0.2503854519385216,21.09991982755121,6445.0,75.51264208714758
194,2011-08-11,STORE_2_587,98.0,0,0,-0.015239966556736873,-0.02026076793178766,0.22911978650181786,0.12634649953269028,0.20517623242320265,0.11997531707674983,,0.14491773907914224,0.16466179727489938,16.5841975308642,131.0,71.91111111111111,67.0,37.0,94.0,0.13469857389745618,0.15687155284864762,0.18722762517364075,0.21422313752892042,0.2503854519385216,21.28228912058651,6472.0,75.47970966389795
195,2011-08-12,STORE_2_587,81.99999999999999,0,0,-0.028488537811437536,-0.013248571254700664,0.21387981994508098,0.10914446942506803,0.21387981994508098,0.10914446942506803,,0.13469857389745618,0.17420711518112977,16.662716049382716,131.0,71.97777777777777,67.0,37.0,94.0,0.13469857389745618,0.15687155284864762,0.18722762517364075,0.21422313752892042,0.2503854519385216,21.30462722212378,6478.0,75.44677724064832
196,2011-08-13,STORE_2_587,101.99999999999999,0,0,0.035327962341742986,0.06381650015318052,0.18539128213364345,0.17420711518112977,0.17983520018955587,0.13881514009228832,,0.2565240750816131,0.2518119729937996,16.414074074074072,131.0,71.76666666666667,67.0,37.0,94.0,0.13469857389745618,0.15687155284864762,0.18722762517364075,0.21422313752892042,0.2398569633381791,20.903765587337052,6459.0,75.41384481739863
197,2011-08-14,STORE_2_587,125.00000000000003,0,0,0.03736423796174804,0.0020362756200050514,0.22071924447538643,0.19808555276184908,0.15687155284864762,0.18354714143527318,,0.25808348243713447,0.19269052087514288,16.933333333333344,131.0,72.2,67.0,37.0,94.0,0.13469857389745618,0.15687155284864762,0.18722762517364075,0.21765362065266614,0.252977108086819,21.594943228304814,6498.0,75.380912394149
198,2011-08-15,STORE_2_587,57.0,0,0,-0.12132174797590489,-0.15868598593765293,0.25808348243713447,0.16658771831093783,0.13676173446122958,0.15292339400365523,,0.26118559906861677,0.10473535052001298,16.8037037037037,131.0,72.36666666666666,67.0,37.0,94.0,0.13521436403839954,0.15687155284864762,0.18722762517364075,0.21765362065266614,0.252977108086819,21.416390866642516,6513.0,75.34797997089936
199,2011-08-16,STORE_2_587,49.0,0,0,-0.01678641738447975,0.10453533059142514,0.13676173446122958,0.11567533658402578,0.14085888260227464,0.16850513635665965,,0.22409898512676707,0.11997531707674983,16.803703703703697,131.0,72.36666666666666,67.0,37.0,94.0,0.13521436403839954,0.15687155284864762,0.18722762517364075,0.21765362065266614,0.252977108086819,21.416390866642516,6513.0,75.31504754764973
200,2011-08-17,STORE_2_587,54.000000000000014,0,0,0.010567297049548646,0.027353714434028398,0.11997531707674983,0.1242331402192912,0.15687155284864762,0.13054261412629847,,0.22911978650181786,0.1178306486101607,16.751851851851864,131.0,72.43333333333334,67.0,37.0,94.0,0.13521436403839954,0.15687155284864762,0.18722762517364075,0.21765362065266614,0.252977108086819,21.348920452668843,6519.0,75.2821151244001
201,2011-08-18,STORE_2_587,48.00000000000001,0,0,-0.012711965516137777,-0.023279262565686423,0.13054261412629847,0.14491773907914224,0.17420711518112977,0.11997531707674983,,0.21387981994508098,0.15292339400365523,16.898765432098763,131.0,72.24444444444444,67.0,37.0,94.0,0.13469857389745618,0.15687155284864762,0.18722762517364075,0.21765362065266614,0.252977108086819,21.49016556427672,6502.0,75.2491827011504
202,2011-08-19,STORE_2_587,38.0,0,0,-0.022050140743074167,-0.00933817522693639,0.1178306486101607,0.13469857389745618,0.20341438626691602,0.12210944658943568,,0.18539128213364345,0.1178306486101607,16.98518518518519,131.0,72.13333333333334,67.0,37.0,94.0,0.13469857389745618,0.15687155284864762,0.18722762517364075,0.21765362065266614,0.252977108086819,21.64223918299427,6492.0,75.21625027790077
203,2011-08-20,STORE_2_587,56.000000000000014,0,0,0.03891806603036965,0.06096820677344382,0.09578050786708653,0.2565240750816131,0.1998691055022663,0.13469857389745618,,0.22071924447538643,0.1760912590556812,17.05777777777778,131.0,71.9,66.5,37.0,94.0,0.13469857389745618,0.15588675641719538,0.18722762517364075,0.21765362065266614,0.252977108086819,21.702301436494,6471.0,75.18331785465114
204,2011-08-21,STORE_2_587,76.0,0,0,0.03950854128367359,0.0005904752533039404,0.13469857389745618,0.25808348243713447,0.19449632173840528,0.14289305251272774,,0.25808348243713447,0.21387981994508098,16.764444444444443,131.0,71.65555555555555,66.5,37.0,94.0,0.13469857389745618,0.15588675641719538,0.1867685394136414,0.21765362065266614,0.252977108086819,21.52822088867796,6449.0,75.1503854314015
205,2011-08-22,STORE_2_587,139.99999999999997,0,0,0.10661949439456439,0.0671109531108908,0.17420711518112977,0.26118559906861677,0.14085888260227464,0.15883225361417552,,0.13676173446122958,0.16850513635665965,17.675555555555565,140.0,72.4,66.5,37.0,103.0,0.13469857389745618,0.15588675641719538,0.18722762517364075,0.2210572185405245,0.25738174912714984,22.701680381302868,6516.0,75.11745300815187
206,2011-08-23,STORE_2_587,115.99999999999999,0,0,-0.03698356625316998,-0.14360306064773437,0.28082660957569416,0.22409898512676707,0.10694550532512985,0.1509357727681417,,0.11997531707674983,0.16658771831093783,18.2641975308642,140.0,72.88888888888889,66.5,37.0,103.0,0.13469857389745618,0.15588675641719538,0.19267914759721416,0.2246010652642722,0.25738174912714984,23.16207887103326,6560.0,75.08452058490224
207,2011-08-24,STORE_2_587,134.99999999999997,0,0,0.029534078597560548,0.06651764485073053,0.24384304332252418,0.22911978650181786,0.15687155284864762,0.13054261412629847,,0.13054261412629847,0.1509357727681417,19.02839506172839,140.0,73.67777777777778,67.0,37.0,103.0,0.13469857389745618,0.15687155284864762,0.19449632173840528,0.23059211218388861,0.25808348243713447,24.048092160902822,6631.0,75.05158816165255
208,2011-08-25,STORE_2_587,100.0,0,0,-0.05606412613660977,-0.08559820473417032,0.27337712192008473,0.21387981994508098,0.23078057048328238,0.14289305251272774,,0.1178306486101607,0.1627272974976997,19.346666666666668,140.0,74.0111111111111,67.0,37.0,103.0,0.13469857389745618,0.15687155284864762,0.19584506429257748,0.23059211218388861,0.25808348243713447,24.203952896793783,6661.0,75.01865573840291
209,2011-08-26,STORE_2_587,71.0,0,0,-0.05265119850857558,0.0034129276280341903,0.21731299578347496,0.18539128213364345,0.1998691055022663,0.09351264641126446,,0.09578050786708653,0.16466179727489938,19.346666666666668,140.0,74.0111111111111,67.0,37.0,103.0,0.13469857389745618,0.15687155284864762,0.19584506429257748,0.23059211218388861,0.25808348243713447,24.203952896793783,6661.0,74.98572331515328
210,2011-08-27,STORE_2_587,109.00000000000001,0,0,0.06777323037839542,0.120424428886971,0.16466179727489938,0.22071924447538643,0.1962946451439682,0.12634649953269028,,0.13469857389745618,0.17796726405443658,19.760000000000012,140.0,74.35555555555555,67.0,37.0,103.0,0.13469857389745618,0.15687155284864762,0.19763782585737885,0.23357582922021783,0.25808348243713447,24.480357230590577,6692.0,74.95279089190365
211,2011-08-28,STORE_2_587,138.0,0,0,0.0454271029586604,-0.022346127419735018,0.2324350276532948,0.25808348243713447,0.17420711518112977,0.10914446942506803,,0.17420711518112977,0.15490195998574313,20.516543209876545,140.0,75.15555555555555,67.0,37.0,103.0,0.13469857389745618,0.15687155284864762,0.199423217317162,0.2443229316107011,0.25978964658444975,25.3647154333285,6764.0,74.91985846865401
212,2011-08-29,STORE_2_587,51.999999999999986,0,0,-0.1515156310792649,-0.1969427340379253,0.2778621306119552,0.13676173446122958,0.17983520018955587,0.17420711518112977,,0.28082660957569416,0.1242331402192912,20.50740740740742,140.0,75.16666666666667,67.0,37.0,103.0,0.13469857389745618,0.15687155284864762,0.199423217317162,0.2443229316107011,0.25978964658444975,25.354231967300567,6765.0,74.88692604540432
213,2011-08-30,STORE_2_587,55.0,0,0,0.006279065741900625,0.15779469682116554,0.12634649953269028,0.11997531707674983,0.15490195998574313,0.19808555276184908,,0.24384304332252418,0.1509357727681417,20.58962962962962,140.0,75.06666666666666,67.0,37.0,103.0,0.13469857389745618,0.15687155284864762,0.199423217317162,0.2443229316107011,0.25978964658444975,25.416441639576096,6756.0,74.85399362215469
214,2011-08-31,STORE_2_587,57.0,0,0,0.004136169186638672,-0.0021428965552619528,0.1326255652745909,0.13054261412629847,0.21387981994508098,0.16658771831093783,,0.27337712192008473,0.1489390130120664,20.644444444444446,140.0,75.0,67.0,37.0,103.0,0.13469857389745618,0.15687155284864762,0.199423217317162,0.2443229316107011,0.25978964658444975,25.456285508889792,6750.0,74.82106119890506
215,2011-09-01,STORE_2_587,51.0,0,0,-0.012528594241938376,-0.016664763428577048,0.13676173446122958,0.1178306486101607,0.20341438626691602,0.11567533658402578,,0.21731299578347496,0.1469330303144678,20.744938271604934,140.0,74.87777777777778,67.0,37.0,103.0,0.13314381743030723,0.15687155284864762,0.199423217317162,0.2443229316107011,0.25978964658444975,25.545653240827967,6739.0,74.78812877565542
216,2011-09-02,STORE_2_587,82.99999999999999,0,0,0.06299448495434955,0.07552307919628792,0.1242331402192912,0.09578050786708653,0.2518119729937996,0.1242331402192912,,0.16466179727489938,0.19449632173840528,20.692592592592575,140.0,74.83333333333333,67.0,37.0,103.0,0.13314381743030723,0.15687155284864762,0.199423217317162,0.2443229316107011,0.25978964658444975,25.527799343575293,6735.0,74.75519635240579
217,2011-09-03,STORE_2_587,67.0,0,0,-0.030356072324993127,-0.09335055727934267,0.18722762517364075,0.13469857389745618,0.20164536352806936,0.14491773907914224,,0.2324350276532948,0.18722762517364075,20.653333333333332,140.0,74.65555555555555,67.0,37.0,103.0,0.13314381743030723,0.15687155284864762,0.199423217317162,0.2443229316107011,0.25978964658444975,25.525999572637158,6719.0,74.7222639291561
218,2011-09-04,STORE_2_587,122.0,0,0,0.09651680838010701,0.12687288070510014,0.15687155284864762,0.17420711518112977,0.19808555276184908,0.13469857389745618,,0.2778621306119552,0.21731299578347496,20.946666666666687,140.0,74.9,67.0,37.0,103.0,0.13314381743030723,0.15687155284864762,0.199423217317162,0.24911656970673918,0.25978964658444975,25.874394092672418,6741.0,74.68933150590647
219,2011-09-05,STORE_2_587,123.99999999999999,1,0,0.0031357138528584905,-0.09338109452724852,0.25338836122875463,0.28082660957569416,0.16466179727489938,0.2565240750816131,,0.12634649953269028,0.20867862625927325,21.33333333333332,140.0,75.22222222222223,67.0,37.0,103.0,0.13314381743030723,0.15687155284864762,0.199423217317162,0.2537019326140405,0.25978964658444975,26.304516542066697,6770.0,74.65639908265683
220,2011-09-06,STORE_2_587,77.0,0,0,-0.08043281602593191,-0.0835685298787904,0.2565240750816131,0.24384304332252418,0.15687155284864762,0.25808348243713447,,0.1326255652745909,0.21041928783557454,21.080000000000016,140.0,75.0111111111111,67.0,37.0,103.0,0.13314381743030723,0.15687155284864762,0.19763782585737885,0.2537019326140405,0.25978964658444975,26.211968466454252,6751.0,74.6234666594072
221,2011-09-07,STORE_2_587,76.0,0,0,-0.001884143874551436,0.07854867215138048,0.1760912590556812,0.27337712192008473,0.12844962462045467,0.26118559906861677,,0.13676173446122958,0.21041928783557454,20.813333333333308,140.0,74.78888888888889,67.0,37.0,103.0,0.13314381743030723,0.15687155284864762,0.19584506429257748,0.2537019326140405,0.25978964658444975,26.116633145209352,6731.0,74.59053423615757
222,2011-09-08,STORE_2_587,59.0,0,0,-0.033348232578855136,-0.0314640887043037,0.17420711518112977,0.21731299578347496,0.15687155284864762,0.22409898512676707,,0.1242331402192912,0.15687155284864762,20.884444444444455,140.0,74.7,67.0,37.0,103.0,0.13314381743030723,0.15687155284864762,0.19584506429257748,0.2537019326140405,0.25978964658444975,26.157023677025055,6723.0,74.55760181290793
223,2011-09-09,STORE_2_587,55.0,0,0,-0.008233317327683731,0.025114915251171405,0.14085888260227464,0.16466179727489938,0.17796726405443658,0.22911978650181786,,0.18722762517364075,0.13469857389745618,20.89333333333333,140.0,74.68888888888888,67.0,37.0,103.0,0.1326255652745909,0.15687155284864762,0.19584506429257748,0.2537019326140405,0.25978964658444975,26.165267502371574,6722.0,74.52466938965824
224,2011-09-10,STORE_2_587,73.0,0,0,0.03587957108206874,0.04411288840975247,0.1326255652745909,0.2324350276532948,0.18722762517364075,0.21387981994508098,,0.15687155284864762,0.2673241391720471,20.143209876543217,140.0,74.04444444444445,67.0,37.0,103.0,0.1326255652745909,0.15687155284864762,0.19267914759721416,0.24911656970673918,0.25808348243713447,25.46771964801545,6664.0,74.49173696640861
225,2011-09-11,STORE_2_587,81.99999999999999,0,0,0.016886145776983802,-0.018993425305084938,0.16850513635665965,0.2778621306119552,0.14491773907914224,0.18539128213364345,,0.25338836122875463,0.19449632173840528,20.075308641975287,140.0,73.9888888888889,67.0,37.0,103.0,0.1326255652745909,0.15687155284864762,0.18722762517364075,0.24911656970673918,0.25808348243713447,25.444583735014998,6659.0,74.45880454315898
226,2011-09-12,STORE_2_587,71.0,0,0,-0.02072948485874407,-0.03761563063572787,0.18539128213364345,0.12634649953269028,0.14491773907914224,0.22071924447538643,,0.2565240750816131,0.1962946451439682,19.906666666666656,140.0,73.8,67.0,37.0,103.0,0.1326255652745909,0.15687155284864762,0.1867685394136414,0.24911656970673918,0.25808348243713447,25.402468251302405,6642.0,74.42587211990934
227,2011-09-13,STORE_2_587,73.0,0,0,0.0038433390817602664,0.024572823940504335,0.16466179727489938,0.1326255652745909,0.1469330303144678,0.25808348243713447,,0.1760912590556812,0.15490195998574313,19.847901234567892,140.0,73.87777777777778,67.0,37.0,103.0,0.1326255652745909,0.15687155284864762,0.1867685394136414,0.24911656970673918,0.25808348243713447,25.389030533101028,6649.0,74.39293969665971
228,2011-09-14,STORE_2_587,70.0,0,0,-0.005777838858959938,-0.009621177940720205,0.16850513635665965,0.13676173446122958,0.16466179727489938,0.13676173446122958,,0.17420711518112977,0.1607841422116976,19.83950617283951,140.0,73.88888888888889,67.0,37.0,103.0,0.1326255652745909,0.15687155284864762,0.1867685394136414,0.24911656970673918,0.25808348243713447,25.387090607985723,6650.0,74.36000727341002
229,2011-09-15,STORE_2_587,53.0,0,0,-0.034277672877245036,-0.028499834018285097,0.1627272974976997,0.1242331402192912,0.18722762517364075,0.11997531707674983,,0.14085888260227464,0.13054261412629847,19.847901234567892,140.0,73.87777777777778,67.0,37.0,103.0,0.1326255652745909,0.15687155284864762,0.1867685394136414,0.24911656970673918,0.25808348243713447,25.396110370931492,6649.0,74.32707485016039
230,2011-09-16,STORE_2_587,79.0,0,0,0.0513855755691012,0.08566324844634624,0.12844962462045467,0.18722762517364075,0.21041928783557454,0.13054261412629847,,0.1326255652745909,0.1509357727681417,19.832098765432107,140.0,74.04444444444445,67.5,37.0,103.0,0.1326255652745909,0.15785190323141157,0.1867685394136414,0.24911656970673918,0.25808348243713447,25.379772141560945,6664.0,74.29414242691075
231,2011-09-17,STORE_2_587,69.0,0,0,-0.019051057977858277,-0.07043663354695948,0.17983520018955587,0.15687155284864762,0.15490195998574313,0.1178306486101607,,0.16850513635665965,0.1998691055022663,19.653827160493833,140.0,73.81111111111112,67.5,37.0,103.0,0.1326255652745909,0.15785190323141157,0.18539128213364345,0.24911656970673918,0.25808348243713447,25.32791436227175,6643.0,74.26121000366112
232,2011-09-18,STORE_2_587,69.0,0,0,0.0,0.019051057977858277,0.1607841422116976,0.25338836122875463,0.14085888260227464,0.09578050786708653,,0.18539128213364345,0.20517623242320265,19.42296296296297,140.0,73.54444444444445,67.5,37.0,103.0,0.1326255652745909,0.15785190323141157,0.1849302469590509,0.24911656970673918,0.25808348243713447,25.249835291980816,6619.0,74.22827758041149
233,2011-09-19,STORE_2_587,85.00000000000001,0,0,0.030093037899977,0.030093037899977,0.1607841422116976,0.2565240750816131,0.1242331402192912,0.13469857389745618,,0.16466179727489938,0.15490195998574313,19.518024691358,140.0,73.75555555555556,68.5,37.0,103.0,0.1326255652745909,0.15980819791293654,0.18539128213364345,0.24911656970673918,0.25808348243713447,25.265471891746042,6638.0,74.19534515716185
234,2011-09-20,STORE_2_587,67.0,0,0,-0.03400562726302697,-0.06409866516300397,0.1908771801116746,0.1760912590556812,0.08432088570003587,0.17420711518112977,,0.16850513635665965,0.14491773907914224,19.467654320987677,140.0,73.82222222222222,68.5,37.0,103.0,0.1326255652745909,0.15980819791293654,0.18539128213364345,0.24911656970673918,0.25808348243713447,25.23933873391582,6644.0,74.16241273391216
235,2011-09-21,STORE_2_587,70.0,0,0,0.005855744649052086,0.03986137191207906,0.15687155284864762,0.17420711518112977,0.15883225361417552,0.28082660957569416,,0.1627272974976997,0.1627272974976997,19.467654320987677,140.0,73.82222222222222,68.5,37.0,103.0,0.1326255652745909,0.15980819791293654,0.18539128213364345,0.24911656970673918,0.25808348243713447,25.239338733915815,6644.0,74.12948031066253
236,2011-09-22,STORE_2_587,57.999999999999986,0,0,-0.02391215740541139,-0.029767902054463474,0.1627272974976997,0.14085888260227464,0.22071924447538643,0.24384304332252418,,0.12844962462045467,0.17420711518112977,19.565925925925935,140.0,73.62222222222222,67.5,37.0,103.0,0.1326255652745909,0.15785190323141157,0.18539128213364345,0.24911656970673918,0.25808348243713447,25.293147705434748,6626.0,74.0965478874129
237,2011-09-23,STORE_2_587,77.0,0,0,0.03727611896339289,0.06118827636880428,0.13881514009228832,0.1326255652745909,0.20693095998975317,0.27337712192008473,,0.17983520018955587,0.12634649953269028,19.431111111111132,140.0,73.9,68.5,37.0,103.0,0.13314381743030723,0.15980819791293654,0.18539128213364345,0.24911656970673918,0.25808348243713447,25.19008633248808,6651.0,74.06361546416326
238,2011-09-24,STORE_2_587,70.0,0,0,-0.013363961557981502,-0.05064008052137439,0.1760912590556812,0.16850513635665965,0.17420711518112977,0.21731299578347496,,0.1607841422116976,0.18354714143527318,19.362962962962975,140.0,73.77777777777777,68.5,37.0,103.0,0.13314381743030723,0.15980819791293654,0.18539128213364345,0.24911656970673918,0.25808348243713447,25.18193474899956,6640.0,74.03068304091363
239,2011-09-25,STORE_2_587,130.0,0,0,0.10307032171287484,0.11643428327085634,0.1627272974976997,0.18539128213364345,0.1489390130120664,0.16466179727489938,,0.1607841422116976,0.15687155284864762,20.083456790123478,140.0,74.47777777777777,69.0,37.0,103.0,0.13314381743030723,0.1607841422116976,0.1867685394136414,0.2537019326140405,0.25978964658444975,25.8579645773772,6703.0,73.99775061766394
240,2011-09-26,STORE_2_587,81.00000000000001,0,0,-0.08225047777530137,-0.1853207994881762,0.26579761921057454,0.16466179727489938,0.17041412616399068,0.2324350276532948,,0.1908771801116746,0.10028100909376296,19.874074074074084,140.0,74.93333333333334,69.5,37.0,103.0,0.13469857389745618,0.16175571985469867,0.1867685394136414,0.2537019326140405,0.25978964658444975,25.603633871302918,6744.0,73.9648181944143
241,2011-09-27,STORE_2_587,61.99999999999999,0,0,-0.03661411112080537,0.045636366654496,0.18354714143527318,0.16850513635665965,0.18169513657367975,0.2778621306119552,,0.15687155284864762,0.14289305251272774,19.856790123456783,140.0,74.95555555555555,69.5,37.0,103.0,0.13469857389745618,0.16175571985469867,0.1867685394136414,0.2537019326140405,0.25978964658444975,25.59139212335831,6746.0,73.93188577116467
242,2011-09-28,STORE_2_587,46.00000000000001,0,0,-0.03342375548694969,0.003190355633855682,0.1469330303144678,0.1627272974976997,0.2565240750816131,0.12634649953269028,,0.1627272974976997,0.11997531707674983,19.882716049382715,140.0,74.92222222222222,69.5,37.0,103.0,0.13469857389745618,0.16175571985469867,0.1867685394136414,0.2537019326140405,0.25978964658444975,25.627507946454102,6743.0,73.89895334791504
243,2011-09-29,STORE_2_587,44.0,0,0,-0.0043648054024500865,0.029058950084499602,0.11350927482751812,0.12844962462045467,0.29820070564511686,0.1326255652745909,,0.13881514009228832,0.1489390130120664,20.046913580246933,140.0,74.71111111111111,69.5,37.0,103.0,0.13314381743030723,0.16175571985469867,0.1867685394136414,0.2537019326140405,0.25978964658444975,25.804469800267338,6724.0,73.8660209246654
244,2011-09-30,STORE_2_587,49.0,0,0,0.010830847651681796,0.015195653054131883,0.10914446942506803,0.17983520018955587,0.2967791185103227,0.13676173446122958,,0.1760912590556812,0.20517623242320265,20.00987654320987,140.0,74.22222222222223,69.0,37.0,103.0,0.1326255652745909,0.1607841422116976,0.18539128213364345,0.2537019326140405,0.25978964658444975,25.87080163096447,6680.0,73.83308850141577
245,2011-10-01,STORE_2_587,63.00000000000001,0,0,0.028963695935316586,0.01813284828363479,0.11997531707674983,0.1607841422116976,0.20693095998975317,0.1242331402192912,,0.1627272974976997,0.17420711518112977,20.0762962962963,140.0,74.07777777777778,68.5,37.0,103.0,0.1326255652745909,0.15980819791293654,0.18539128213364345,0.2537019326140405,0.25978964658444975,25.897042379295097,6667.0,73.80015607816608
246,2011-10-02,STORE_2_587,82.99999999999999,0,0,0.03828861216157434,0.009324916226257751,0.1489390130120664,0.1607841422116976,0.1723147615034249,0.18722762517364075,,0.26579761921057454,0.1469330303144678,20.098271604938276,140.0,74.31111111111112,69.0,37.0,103.0,0.1326255652745909,0.1607841422116976,0.1867685394136414,0.2537019326140405,0.25978964658444975,25.881599226609655,6688.0,73.76722365491645
247,2011-10-03,STORE_2_587,138.0,0,0,0.09063450543831444,0.05234589327674011,0.18722762517364075,0.1908771801116746,0.17041412616399068,0.15687155284864762,,0.18354714143527318,0.16466179727489938,20.934567901234576,140.0,75.05555555555556,69.0,37.0,103.0,0.1326255652745909,0.1607841422116976,0.18722762517364075,0.2565240750816131,0.26372221014669356,26.734802933444968,6755.0,73.73429123166682
248,2011-10-04,STORE_2_587,154.0,0,0,0.02316786505202595,-0.0674666403862885,0.2778621306119552,0.15687155284864762,0.16850513635665965,0.25338836122875463,,0.1469330303144678,0.15687155284864762,21.917530864197516,154.0,76.02222222222223,69.5,37.0,117.0,0.1326255652745909,0.16175571985469867,0.18722762517364075,0.25668001581716526,0.26996634570080513,27.983935109625406,6842.0,73.70135880841718
249,2011-10-05,STORE_2_587,146.99999999999997,0,0,-0.009984220906600949,-0.0331520859586269,0.30102999566398114,0.1627272974976997,0.1607841422116976,0.2565240750816131,,0.11350927482751812,0.1326255652745909,22.74716049382717,154.0,77.04444444444445,70.0,37.0,117.0,0.13314381743030723,0.1627272974976997,0.18996479137716613,0.25808348243713447,0.2758438767006135,28.873576081866023,6934.0,73.66842638516755
250,2011-10-06,STORE_2_587,104.99999999999999,0,0,-0.06526673151259149,-0.05528251060599054,0.2910457747573802,0.13881514009228832,0.18169513657367975,0.1760912590556812,,0.10914446942506803,0.1509357727681417,23.044444444444444,154.0,77.5,70.0,37.0,117.0,0.13314381743030723,0.1627272974976997,0.19628345959930546,0.25808348243713447,0.2758438767006135,28.988664968039032,6975.0,73.63549396191786
251,2011-10-07,STORE_2_587,113.0,0,0,0.013211497283323409,0.0784782287959149,0.2257790432447887,0.1760912590556812,0.22911978650181786,0.17420711518112977,,0.11997531707674983,0.18722762517364075,23.47407407407406,154.0,77.83333333333333,70.0,37.0,117.0,0.13314381743030723,0.1627272974976997,0.20993125314927302,0.25808348243713447,0.2758438767006135,29.22414347415083,7005.0,73.60256153866823
252,2011-10-08,STORE_2_587,77.0,0,0,-0.0628992814724309,-0.07611077875575431,0.2389905405281121,0.1627272974976997,0.2454485700379426,0.14085888260227464,,0.1489390130120664,0.24864192620429296,22.880740740740723,154.0,77.36666666666666,70.0,37.0,117.0,0.13314381743030723,0.1627272974976997,0.19628345959930546,0.25808348243713447,0.2758438767006135,28.892847371165814,6963.0,73.56962911541859
253,2011-10-09,STORE_2_587,108.00000000000001,0,0,0.05468931142760117,0.11758859290003207,0.1760912590556812,0.26579761921057454,0.19449632173840528,0.1326255652745909,,0.18722762517364075,0.17420711518112977,23.30864197530863,154.0,77.72222222222223,70.0,37.0,117.0,0.13314381743030723,0.1627272974976997,0.20993125314927302,0.25808348243713447,0.2758438767006135,29.072179750677115,6995.0,73.53669669216896
254,2011-10-10,STORE_2_587,68.0,1,0,-0.07194831686910685,-0.12663762829670802,0.23078057048328238,0.18354714143527318,0.20693095998975317,0.16850513635665965,,0.2778621306119552,0.11997531707674983,23.158518518518537,154.0,77.93333333333334,70.0,37.0,117.0,0.13469857389745618,0.1627272974976997,0.20993125314927302,0.25808348243713447,0.2758438767006135,28.929903661137494,7014.0,73.50376426891933
255,2011-10-11,STORE_2_587,43.000000000000014,0,0,-0.05188674828904567,0.02006156858006118,0.15883225361417552,0.1469330303144678,0.23572515310034475,0.18539128213364345,,0.30102999566398114,0.10914446942506803,23.166419753086423,154.0,77.92222222222222,70.0,37.0,117.0,0.13469857389745618,0.1627272974976997,0.20993125314927302,0.25808348243713447,0.2758438767006135,28.943271822140062,7013.0,73.4708318456697
256,2011-10-12,STORE_2_587,53.0,0,0,0.021504119295324822,0.0733908675843705,0.10694550532512985,0.11350927482751812,0.18169513657367975,0.16466179727489938,,0.2910457747573802,0.13881514009228832,23.205925925925914,154.0,77.86666666666666,70.0,37.0,117.0,0.13314381743030723,0.1627272974976997,0.20993125314927302,0.25808348243713447,0.2758438767006135,28.9867075309209,7008.0,73.43789942242
257,2011-10-13,STORE_2_587,92.0,0,0,0.07496476164646135,0.053460642351136525,0.12844962462045467,0.10914446942506803,0.22409898512676707,0.16850513635665965,,0.2257790432447887,0.18354714143527318,23.363456790123465,154.0,77.9888888888889,70.0,37.0,117.0,0.13314381743030723,0.1627272974976997,0.21126346152553974,0.25808348243713447,0.2758438767006135,29.023235342786926,7019.0,73.40496699917037
258,2011-10-14,STORE_2_587,57.0,0,0,-0.06665265180568644,-0.1416174134521478,0.20341438626691602,0.11997531707674983,0.274877277062493,0.1627272974976997,,0.2389905405281121,0.15292339400365523,23.426666666666673,154.0,77.9,70.0,37.0,117.0,0.13314381743030723,0.1627272974976997,0.21126346152553974,0.25808348243713447,0.2758438767006135,29.07566649317728,7011.0,73.37203457592074
259,2011-10-15,STORE_2_587,85.99999999999999,0,0,0.0559287864139133,0.12258143821959974,0.13676173446122958,0.1489390130120664,0.2470481831977356,0.12844962462045467,,0.1760912590556812,0.16850513635665965,23.500740740740746,154.0,78.04444444444445,70.0,37.0,117.0,0.13314381743030723,0.1627272974976997,0.21126346152553974,0.25808348243713447,0.2758438767006135,29.083340577142994,7024.0,73.3391021526711
260,2011-10-16,STORE_2_587,85.99999999999999,0,0,0.0,-0.0559287864139133,0.19269052087514288,0.18722762517364075,0.1908771801116746,0.17983520018955587,,0.23078057048328238,0.13054261412629847,23.408888888888892,154.0,78.4,70.5,37.0,117.0,0.13469857389745618,0.16369454738629954,0.21126346152553974,0.25808348243713447,0.2758438767006135,28.98151289852965,7056.0,73.30616972942147
261,2011-10-17,STORE_2_587,57.999999999999986,0,0,-0.05387538078285456,-0.05387538078285456,0.19269052087514288,0.2778621306119552,0.22911978650181786,0.1607841422116976,,0.15883225361417552,0.11997531707674983,23.333333333333332,154.0,78.5,70.5,37.0,117.0,0.13469857389745618,0.16369454738629954,0.21126346152553974,0.25808348243713447,0.2758438767006135,28.894325091130092,7065.0,73.27323730617178
262,2011-10-18,STORE_2_587,54.000000000000014,0,0,-0.008272525965989846,0.04560285481686471,0.13881514009228832,0.30102999566398114,0.20867862625927325,0.1607841422116976,,0.10694550532512985,0.12210944658943568,23.299753086419756,154.0,78.54444444444445,70.5,37.0,117.0,0.13469857389745618,0.16369454738629954,0.21126346152553974,0.25808348243713447,0.2758438767006135,28.85304147740544,7069.0,73.24030488292215
263,2011-10-19,STORE_2_587,34.0,0,0,-0.0439054856990817,-0.03563295973309186,0.13054261412629847,0.2910457747573802,0.26579761921057454,0.1908771801116746,,0.12844962462045467,0.13469857389745618,23.484444444444442,154.0,78.3,70.5,34.0,120.0,0.13469857389745618,0.16369454738629954,0.21126346152553974,0.25808348243713447,0.2758438767006135,29.13797090249434,7047.0,73.20737245967251
264,2011-10-20,STORE_2_587,53.0,0,0,0.0418124961932379,0.0857179818923196,0.08663712842721677,0.2257790432447887,0.2324350276532948,0.15687155284864762,,0.20341438626691602,0.14289305251272774,23.543209876543198,154.0,78.22222222222223,70.5,34.0,120.0,0.13314381743030723,0.16369454738629954,0.21126346152553974,0.25808348243713447,0.2758438767006135,29.196651253944257,7040.0,73.17444003642288
265,2011-10-21,STORE_2_587,63.00000000000001,0,0,0.02048938839161174,-0.021323107801626162,0.12844962462045467,0.2389905405281121,0.22409898512676707,0.1627272974976997,,0.13676173446122958,0.15883225361417552,23.58518518518518,154.0,78.16666666666667,70.5,34.0,120.0,0.13314381743030723,0.16369454738629954,0.21126346152553974,0.25808348243713447,0.2758438767006135,29.221067511589197,7035.0,73.14150761317325
266,2011-10-22,STORE_2_587,61.0,0,0,-0.004021273932924174,-0.024510662324535915,0.1489390130120664,0.1760912590556812,0.20867862625927325,0.13881514009228832,,0.19269052087514288,0.1509357727681417,23.610370370370372,154.0,78.13333333333334,70.5,34.0,120.0,0.13314381743030723,0.16369454738629954,0.21126346152553974,0.25808348243713447,0.2758438767006135,29.23911494379796,7032.0,73.10857518992356
