soundwave-77/time-series-mts-hse/models/STORE_2_043/train_data.csv
index,timestamp,segment,target,holiday,target_change_points,target_diff_1,target_diff_2,target_lag_1,target_lag_14,target_lag_180,target_lag_30,target_lag_365,target_lag_7,target_lag_90,target_mad,target_max,target_mean,target_median,target_min,target_minmax_diff,target_q_0.25,target_q_0.50,target_q_0.75,target_q_0.90,target_q_0.95,target_std,target_sum,target_trend
0,2011-01-29,STORE_2_043,6.0,0,0,,,,,,,,,,0.0,0.0,0.0,0.0,0.0,0.0,0.0,0.0,0.0,0.0,0.0,0.0,0.0,0.6504143853586154
1,2011-01-30,STORE_2_043,0.0,0,0,,,,,,,,,,0.0,0.0,0.0,0.0,0.0,0.0,0.0,0.0,0.0,0.0,0.0,0.0,0.0,0.6503974143086781
2,2011-01-31,STORE_2_043,0.0,0,0,0.0,,0.0,,,,,,,0.0,0.0,0.0,0.0,0.0,0.0,0.0,0.0,0.0,0.0,0.0,0.0,0.0,0.6503804432587408
3,2011-02-01,STORE_2_043,1.0,0,0,0.057991946977686754,0.057991946977686754,0.0,,,,,,,0.4444444444444444,1.0,0.3333333333333333,0.0,0.0,1.0,0.0,0.0,0.028995973488843377,0.04639355758214941,0.05219275227991807,0.5773502691896258,1.0,0.6503634722088034
4,2011-02-02,STORE_2_043,0.0,0,0,-0.057991946977686754,-0.11598389395537351,0.057991946977686754,,,,,,,0.375,1.0,0.25,0.0,0.0,1.0,0.0,0.0,0.014497986744421688,0.04059436288438074,0.04929315493103372,0.5,1.0,0.650346501158866
5,2011-02-03,STORE_2_043,0.0,0,0,0.0,0.057991946977686754,0.0,,,,,,,0.32,1.0,0.2,0.0,0.0,1.0,0.0,0.0,0.0,0.03479516818661206,0.04639355758214939,0.44721359549995804,1.0,0.6503295301089287
6,2011-02-04,STORE_2_043,2.0000000000000004,0,0,0.10914446942506804,0.10914446942506804,0.0,,,,,,,0.6666666666666666,2.0,0.5,0.0,0.0,2.0,0.0,0.0,0.043493960233265065,0.08356820820137739,0.09635633881322272,0.8366600265340756,3.0,0.6503125590589913
7,2011-02-05,STORE_2_043,4.0,0,0,0.08715017571890014,-0.0219942937061679,0.10914446942506804,,,,,,,1.1428571428571428,4.0,1.0,0.0,0.0,4.0,0.0,0.0,0.08356820820137739,0.14400453971262814,0.17014959242829808,1.5275252316519468,7.0,0.650295588009054
8,2011-02-06,STORE_2_043,0.0,0,0,-0.1962946451439682,-0.2834448208628683,0.1962946451439682,,,,,0.0,,1.09375,4.0,0.875,0.0,0.0,4.0,0.0,0.0,0.07078007758953207,0.13528952214073808,0.1657920836423531,1.4577379737113252,7.0,0.6502786169591166
9,2011-02-07,STORE_2_043,0.0,0,0,0.0,0.1962946451439682,0.0,,,,,0.0,,1.0370370370370372,4.0,0.7777777777777778,0.0,0.0,4.0,0.0,0.0,0.057991946977686754,0.12657450456884808,0.1614345748564081,1.3944333775567928,7.0,0.6502616459091793
10,2011-02-08,STORE_2_043,1.0,0,0,0.057991946977686754,0.057991946977686754,0.0,,,,,0.057991946977686754,,0.9600000000000002,4.0,0.8,0.0,0.0,4.0,0.0,0.0,0.057991946977686754,0.11785948699695803,0.15707706607046304,1.3165611772087666,8.0,0.650244674859242
11,2011-02-09,STORE_2_043,0.0,0,0,-0.057991946977686754,-0.11598389395537351,0.057991946977686754,,,,,0.0,,0.9256198347107436,4.0,0.7272727272727273,0.0,0.0,4.0,0.0,0.0,0.057991946977686754,0.10914446942506804,0.1527195572845181,1.2720777563426766,8.0,0.6502277038093046
12,2011-02-10,STORE_2_043,0.0,0,0,0.0,0.057991946977686754,0.0,,,,,0.0,,0.8888888888888887,4.0,0.6666666666666666,0.0,0.0,4.0,0.0,0.0,0.057991946977686754,0.10402921718032994,0.14836204849857304,1.2309149097933274,8.0,0.6502107327593674
13,2011-02-11,STORE_2_043,0.0,0,0,0.0,0.0,0.0,,,,,0.10914446942506804,,0.8520710059171598,4.0,0.6153846153846154,0.0,0.0,4.0,0.0,0.0,0.057991946977686754,0.09891396493559182,0.14400453971262797,1.1929278784054478,8.0,0.65019376170943
14,2011-02-12,STORE_2_043,2.999999999999999,0,0,0.15490195998574313,0.15490195998574313,0.0,,,,,0.1962946451439682,,1.0102040816326532,4.0,0.7857142857142857,0.0,0.0,4.0,0.0,0.0,0.057991946977686754,0.14117471281754065,0.1693893997911219,1.3114039117603014,11.0,0.6501767906594926
15,2011-02-13,STORE_2_043,2.0000000000000004,0,0,-0.04575749056067509,-0.2006594505464182,0.15490195998574313,0.0,,,,0.0,,1.04,4.0,0.8666666666666667,0.0,0.0,4.0,0.0,0.0,0.08356820820137739,0.13659896376147307,0.1673197655332106,1.3020130933435712,13.0,0.6501598196095553
16,2011-02-14,STORE_2_043,0.0,0,0,-0.10914446942506804,-0.06338697886439296,0.10914446942506804,0.0,,,,0.0,,1.015625,4.0,0.8125,0.0,0.0,4.0,0.0,0.0,0.07078007758953207,0.1320232147054056,0.1652501312752994,1.2763881332363862,13.0,0.6501428485596179
17,2011-02-15,STORE_2_043,0.0,0,0,0.0,0.10914446942506804,0.0,0.057991946977686754,,,,0.057991946977686754,,0.9896193771626298,4.0,0.7647058823529411,0.0,0.0,4.0,0.0,0.0,0.057991946977686754,0.1274474656493381,0.16318049701738813,1.2514697241996051,13.0,0.6501258775096805
18,2011-02-16,STORE_2_043,0.0,0,0,0.0,0.0,0.0,0.0,,,,0.0,,0.9629629629629627,4.0,0.7222222222222222,0.0,0.0,4.0,0.0,0.0,0.057991946977686754,0.1228717165932706,0.16111086275947684,1.2274102605536659,13.0,0.6501089064597432
19,2011-02-17,STORE_2_043,2.0000000000000004,0,0,0.10914446942506804,0.10914446942506804,0.0,0.0,,,,0.0,,0.9972299168975071,4.0,0.7894736842105263,0.0,0.0,4.0,0.0,0.0,0.08356820820137739,0.11829596753720303,0.15904122850156555,1.2283207764360908,15.0,0.6500919354098058
20,2011-02-18,STORE_2_043,1.0,0,0,-0.05115252244738129,-0.16029699187244933,0.10914446942506804,0.10914446942506804,,,,0.0,,0.9600000000000002,4.0,0.8,0.0,0.0,4.0,0.0,0.0,0.07078007758953207,0.11372021848113562,0.15697159424365442,1.1964860832322377,16.0,0.6500749643598686
21,2011-02-19,STORE_2_043,2.0000000000000004,0,0,0.05115252244738129,0.10230504489476258,0.057991946977686754,0.1962946451439682,,,,0.15490195998574313,,0.979591836734694,4.0,0.8571428571428571,0.0,0.0,4.0,0.0,0.0,0.10914446942506804,0.10914446942506804,0.15490195998574313,1.1952286093343936,18.0,0.6500579933099312
22,2011-02-20,STORE_2_043,0.0,0,0,-0.10914446942506804,-0.16029699187244933,0.10914446942506804,0.0,,,,0.10914446942506804,,0.9669421487603305,4.0,0.8181818181818182,0.0,0.0,4.0,0.0,0.0,0.09635633881322272,0.10914446942506804,0.15261408545770935,1.1806521053804941,18.0,0.6500410222599939
23,2011-02-21,STORE_2_043,0.0,1,0,0.0,0.10914446942506804,0.0,0.0,,,,0.0,,0.9527410207939512,4.0,0.782608695652174,0.0,0.0,4.0,0.0,0.0,0.08356820820137739,0.10914446942506804,0.15032621092967555,1.166054799083818,18.0,0.6500240512100566
24,2011-02-22,STORE_2_043,0.0,0,0,0.0,0.0,0.0,0.057991946977686754,,,,0.0,,0.9375,4.0,0.75,0.0,0.0,4.0,0.0,0.0,0.07078007758953207,0.10914446942506804,0.14803833640164177,1.1515584902738285,18.0,0.6500070801601192
25,2011-02-23,STORE_2_043,0.0,0,0,0.0,0.0,0.0,0.0,,,,0.0,,0.9216000000000001,4.0,0.72,0.0,0.0,4.0,0.0,0.0,0.057991946977686754,0.10914446942506804,0.145750461873608,1.1372481406154653,18.0,0.6499901091101818
26,2011-02-24,STORE_2_043,0.0,0,0,0.0,0.0,0.0,0.0,,,,0.10914446942506804,,0.9053254437869822,4.0,0.6923076923076923,0.0,0.0,4.0,0.0,0.0,0.057991946977686754,0.10914446942506804,0.14346258734557435,1.1231822922119372,18.0,0.6499731380602445
27,2011-02-25,STORE_2_043,2.0000000000000004,0,0,0.10914446942506804,0.10914446942506804,0.0,0.0,,,,0.057991946977686754,,0.9327846364883401,4.0,0.7407407407407407,0.0,0.0,4.0,0.0,0.0,0.08356820820137739,0.10914446942506804,0.14117471281754057,1.1297580609817646,20.0,0.6499561670103071
28,2011-02-26,STORE_2_043,0.0,0,0,-0.10914446942506804,-0.2182889388501361,0.10914446942506804,0.15490195998574313,,,,0.10914446942506804,,0.9183673469387754,4.0,0.7142857142857143,0.0,0.0,4.0,0.0,0.0,0.07078007758953207,0.10914446942506804,0.1388868382895068,1.117442279796701,20.0,0.6499391959603698
29,2011-02-27,STORE_2_043,1.0,0,0,0.057991946977686754,0.16713641640275478,0.0,0.10914446942506804,,,,0.0,,0.8989298454221166,4.0,0.7241379310344828,0.0,0.0,4.0,0.0,0.0,0.057991946977686754,0.10914446942506804,0.136598963761473,1.098588436005103,21.0,0.6499222249104324
30,2011-02-28,STORE_2_043,0.0,0,0,-0.057991946977686754,-0.11598389395537351,0.057991946977686754,0.0,,,,0.0,,0.8866666666666666,4.0,0.7,0.0,0.0,4.0,0.0,0.0,0.057991946977686754,0.10914446942506804,0.1343110892334392,1.0875470659652644,21.0,0.6499052538604951
31,2011-03-01,STORE_2_043,1.0,0,0,0.057991946977686754,0.11598389395537351,0.0,0.0,,0.0,,0.0,,0.8699271592091574,4.0,0.7096774193548387,0.0,0.0,4.0,0.0,0.0,0.057991946977686754,0.10914446942506804,0.1320232147054056,1.0706243781736826,22.0,0.6498882828105578
32,2011-03-02,STORE_2_043,0.0,0,0,-0.057991946977686754,-0.11598389395537351,0.057991946977686754,0.0,,0.0,,0.0,,0.859375,4.0,0.6875,0.0,0.0,4.0,0.0,0.0,0.057991946977686754,0.10914446942506804,0.12973534017737182,1.0606601717798212,22.0,0.6498713117606204
33,2011-03-03,STORE_2_043,0.0,0,0,0.0,0.057991946977686754,0.0,0.10914446942506804,,0.057991946977686754,,0.0,,0.8484848484848487,4.0,0.6666666666666666,0.0,0.0,4.0,0.0,0.0,0.057991946977686754,0.10914446942506804,0.127447465649338,1.0507933510765408,22.0,0.6498543407106832
34,2011-03-04,STORE_2_043,0.0,0,0,0.0,0.0,0.0,0.057991946977686754,,0.0,,0.10914446942506804,,0.8373702422145332,4.0,0.6470588235294118,0.0,0.0,4.0,0.0,0.0,0.057991946977686754,0.10914446942506804,0.12515959112130423,1.0410470527944005,22.0,0.6498373696607458
35,2011-03-05,STORE_2_043,2.0000000000000004,0,0,0.10914446942506804,0.10914446942506804,0.0,0.10914446942506804,,0.0,,0.0,,0.8620408163265307,4.0,0.6857142857142857,0.0,0.0,4.0,0.0,0.0,0.057991946977686754,0.10914446942506804,0.12287171659327044,1.0508100116920607,24.0,0.6498203986108084
36,2011-03-06,STORE_2_043,0.0,0,0,-0.10914446942506804,-0.2182889388501361,0.10914446942506804,0.0,,0.10914446942506804,,0.057991946977686754,,0.8518518518518519,4.0,0.6666666666666666,0.0,0.0,4.0,0.0,0.0,0.057991946977686754,0.10914446942506804,0.12058384206523681,1.0419761445034552,24.0,0.6498034275608711
37,2011-03-07,STORE_2_043,0.0,0,0,0.0,0.10914446942506804,0.0,0.0,,0.1962946451439682,,0.0,,0.8414901387874362,4.0,0.6486486486486487,0.0,0.0,4.0,0.0,0.0,0.057991946977686754,0.10914446942506804,0.11829596753720287,1.0332316137089337,24.0,0.6497864565109337
38,2011-03-08,STORE_2_043,2.0000000000000004,0,0,0.10914446942506804,0.10914446942506804,0.0,0.0,,0.0,,0.057991946977686754,,0.8642659279778397,4.0,0.6842105263157895,0.0,0.0,4.0,0.0,0.0,0.057991946977686754,0.10914446942506804,0.11600809300916924,1.0424830845187962,26.0,0.6497694854609963
39,2011-03-09,STORE_2_043,1.0,0,0,-0.05115252244738129,-0.16029699187244933,0.10914446942506804,0.0,,0.0,,0.0,,0.8520710059171598,4.0,0.6923076923076923,0.0,0.0,4.0,0.0,0.0,0.057991946977686754,0.10914446942506804,0.11372021848113562,1.0299168631201603,27.0,0.649752514411059
40,2011-03-10,STORE_2_043,2.0000000000000004,0,0,0.05115252244738129,0.10230504489476258,0.057991946977686754,0.0,,0.057991946977686754,,0.0,,0.8700000000000001,4.0,0.725,0.0,0.0,4.0,0.0,0.0,0.07078007758953207,0.10914446942506804,0.11143234395310167,1.0374401434695166,29.0,0.6497355433611217
41,2011-03-11,STORE_2_043,0.0,0,0,-0.10914446942506804,-0.16029699187244933,0.10914446942506804,0.10914446942506804,,0.0,,0.0,,0.862581796549673,4.0,0.7073170731707317,0.0,0.0,4.0,0.0,0.0,0.057991946977686754,0.10914446942506804,0.10914446942506804,1.0306285082177864,29.0,0.6497185723111844
42,2011-03-12,STORE_2_043,0.0,0,0,0.0,0.10914446942506804,0.0,0.0,,0.0,,0.10914446942506804,,0.8548752834467118,4.0,0.6904761904761905,0.0,0.0,4.0,0.0,0.0,0.057991946977686754,0.10914446942506804,0.10914446942506804,1.0238162763464755,29.0,0.649701601261247
43,2011-03-13,STORE_2_043,2.0000000000000004,0,0,0.10914446942506804,0.10914446942506804,0.0,0.057991946977686754,,0.0,,0.0,,0.8718226068144942,4.0,0.7209302325581395,0.0,0.0,4.0,0.0,0.0,0.08356820820137739,0.10914446942506804,0.10914446942506804,1.0310785244529341,31.0,0.6496846302113097
44,2011-03-14,STORE_2_043,0.0,0,0,-0.10914446942506804,-0.2182889388501361,0.10914446942506804,0.0,,0.15490195998574313,,0.0,,0.8646694214876032,4.0,0.7045454545454546,0.0,0.0,4.0,0.0,0.0,0.07078007758953207,0.10914446942506804,0.10914446942506804,1.0247982320879003,31.0,0.6496676591613724
45,2011-03-15,STORE_2_043,0.0,0,0,0.0,0.10914446942506804,0.0,0.057991946977686754,,0.10914446942506804,,0.10914446942506804,,0.857283950617284,4.0,0.6888888888888889,0.0,0.0,4.0,0.0,0.0,0.057991946977686754,0.10914446942506804,0.10914446942506804,1.0185154576017672,31.0,0.649650688111435
46,2011-03-16,STORE_2_043,0.0,0,0,0.0,0.0,0.0,0.0,,0.0,,0.057991946977686754,,0.8497164461247637,4.0,0.6739130434782609,0.0,0.0,4.0,0.0,0.0,0.057991946977686754,0.10914446942506804,0.10914446942506804,1.0122438842292012,31.0,0.6496337170614976
47,2011-03-17,STORE_2_043,0.0,0,0,0.0,0.0,0.0,0.0,,0.0,,0.10914446942506804,,0.8420099592575827,4.0,0.6595744680851063,0.0,0.0,4.0,0.0,0.0,0.057991946977686754,0.10914446942506804,0.10914446942506804,1.0059949810722941,31.0,0.6496167460115603
48,2011-03-18,STORE_2_043,0.0,0,0,0.0,0.0,0.0,0.0,,0.0,,0.0,,0.8342013888888888,4.0,0.6458333333333334,0.0,0.0,4.0,0.0,0.0,0.057991946977686754,0.10914446942506804,0.10914446942506804,0.9997783442286856,31.0,0.6495997749616229
49,2011-03-19,STORE_2_043,0.0,0,0,0.0,0.0,0.0,0.10914446942506804,,0.10914446942506804,,0.0,,0.8263223656809661,4.0,0.6326530612244898,0.0,0.0,4.0,0.0,0.0,0.057991946977686754,0.10914446942506804,0.10914446942506804,0.993601981660254,31.0,0.6495828039116855
50,2011-03-20,STORE_2_043,1.0,0,0,0.057991946977686754,0.057991946977686754,0.0,0.0,,0.057991946977686754,,0.10914446942506804,,0.8192000000000002,4.0,0.64,0.0,0.0,4.0,0.0,0.0,0.057991946977686754,0.10914446942506804,0.10914446942506804,0.9847821679779477,32.0,0.6495658328617482
51,2011-03-21,STORE_2_043,0.0,0,0,-0.057991946977686754,-0.11598389395537351,0.057991946977686754,0.0,,0.10914446942506804,,0.0,,0.8119953863898501,4.0,0.6274509803921569,0.0,0.0,4.0,0.0,0.0,0.057991946977686754,0.10914446942506804,0.10914446942506804,0.9789950830055376,32.0,0.6495488618118109
52,2011-03-22,STORE_2_043,0.0,0,0,0.0,0.057991946977686754,0.0,0.10914446942506804,,0.0,,0.0,,0.8047337278106508,4.0,0.6153846153846154,0.0,0.0,4.0,0.0,0.0,0.057991946977686754,0.10914446942506804,0.10914446942506804,0.9732469640805492,32.0,0.6495318907618736
53,2011-03-23,STORE_2_043,1.0,0,0,0.057991946977686754,0.057991946977686754,0.0,0.057991946977686754,,0.0,,0.0,,0.7988608045567817,4.0,0.6226415094339622,0.0,0.0,4.0,0.0,0.0,0.057991946977686754,0.10914446942506804,0.10914446942506804,0.9652902133224697,33.0,0.6495149197119363
54,2011-03-24,STORE_2_043,0.0,0,0,-0.057991946977686754,-0.11598389395537351,0.057991946977686754,0.10914446942506804,,0.0,,0.0,,0.792181069958848,4.0,0.6111111111111112,0.0,0.0,4.0,0.0,0.0,0.057991946977686754,0.10914446942506804,0.10914446942506804,0.9598873099477573,33.0,0.649497948661999
55,2011-03-25,STORE_2_043,1.0,0,0,0.057991946977686754,0.11598389395537351,0.0,0.0,,0.0,,0.0,,0.786776859504132,4.0,0.6181818181818182,0.0,0.0,4.0,0.0,0.0,0.057991946977686754,0.10914446942506804,0.10914446942506804,0.952402597156637,34.0,0.6494809776120616
56,2011-03-26,STORE_2_043,2.999999999999999,0,0,0.09691001300805638,0.038918066030369625,0.057991946977686754,0.0,,0.0,,0.0,,0.825892857142857,4.0,0.6607142857142857,0.0,0.0,4.0,0.0,0.0,0.057991946977686754,0.10914446942506804,0.12058384206523681,0.9959332893739,37.0,0.6494640065621242
57,2011-03-27,STORE_2_043,1.0,0,0,-0.09691001300805638,-0.19382002601611276,0.15490195998574313,0.10914446942506804,,0.10914446942506804,,0.057991946977686754,,0.8187134502923976,4.0,0.6666666666666666,0.0,0.0,4.0,0.0,0.0,0.057991946977686754,0.10914446942506804,0.11829596753720287,0.9880235200593535,38.0,0.6494470355121869
58,2011-03-28,STORE_2_043,0.0,0,0,-0.057991946977686754,0.038918066030369625,0.057991946977686754,0.0,,0.0,,0.0,,0.8133174791914387,4.0,0.6551724137931034,0.0,0.0,4.0,0.0,0.0,0.057991946977686754,0.10914446942506804,0.11600809300916924,0.9832228449005964,38.0,0.6494300644622495
59,2011-03-29,STORE_2_043,1.0,0,0,0.057991946977686754,0.11598389395537351,0.0,0.0,,0.057991946977686754,,0.0,,0.8066647515081873,4.0,0.6610169491525424,0.0,0.0,4.0,0.0,0.0,0.057991946977686754,0.10914446942506804,0.1137202184811353,0.9757432090732687,39.0,0.6494130934123121
60,2011-03-30,STORE_2_043,0.0,0,0,-0.057991946977686754,-0.11598389395537351,0.057991946977686754,0.0,,0.0,,0.057991946977686754,,0.8016666666666664,4.0,0.65,0.0,0.0,4.0,0.0,0.0,0.057991946977686754,0.10914446942506804,0.11143234395310167,0.9711953145392798,39.0,0.6493961223623748
61,2011-03-31,STORE_2_043,4.0,0,0,0.1962946451439682,0.25428659212165494,0.0,0.0,,0.057991946977686754,,0.0,,0.8551464660037624,4.0,0.7049180327868853,0.0,0.0,4.0,0.0,0.0,0.057991946977686754,0.10914446942506804,0.15490195998574313,1.0542653412856102,43.0,0.6493791513124375
62,2011-04-01,STORE_2_043,0.0,0,0,-0.1962946451439682,-0.3925892902879364,0.1962946451439682,0.0,,0.0,,0.057991946977686754,,0.8501560874089492,4.0,0.6935483870967742,0.0,0.0,4.0,0.0,0.0,0.057991946977686754,0.10914446942506804,0.1526140854577092,1.0494137266833583,43.0,0.6493621802625001
63,2011-04-02,STORE_2_043,0.0,0,0,0.0,0.1962946451439682,0.0,0.0,,0.0,,0.15490195998574313,,0.8450491307634165,4.0,0.6825396825396826,0.0,0.0,4.0,0.0,0.0,0.057991946977686754,0.10914446942506804,0.15032621092967555,1.0445773466226984,43.0,0.6493452092125628
64,2011-04-03,STORE_2_043,1.0,0,0,0.057991946977686754,0.057991946977686754,0.0,0.057991946977686754,,0.0,,0.057991946977686754,,0.837890625,4.0,0.6875,0.0,0.0,4.0,0.0,0.0,0.057991946977686754,0.10914446942506804,0.1480383364016416,1.0370134162086937,44.0,0.6493282381626255
65,2011-04-04,STORE_2_043,0.0,0,0,-0.057991946977686754,-0.11598389395537351,0.057991946977686754,0.0,,0.10914446942506804,,0.0,,0.833136094674556,4.0,0.676923076923077,0.0,0.0,4.0,0.0,0.0,0.057991946977686754,0.10914446942506804,0.145750461873608,1.032407567104864,44.0,0.6493112671126882
66,2011-04-05,STORE_2_043,2.999999999999999,0,0,0.15490195998574313,0.21289390696342989,0.0,0.0,,0.0,,0.057991946977686754,,0.8631772268135902,4.0,0.7121212121212122,0.0,0.0,4.0,0.0,0.0,0.057991946977686754,0.10914446942506804,0.15490195998574313,1.0635955205036502,47.0,0.6492942960627508
67,2011-04-06,STORE_2_043,0.0,0,0,-0.15490195998574313,-0.30980391997148626,0.15490195998574313,0.057991946977686754,,0.0,,0.0,,0.8585431053686794,4.0,0.7014925373134329,0.0,0.0,4.0,0.0,0.0,0.057991946977686754,0.10914446942506804,0.15490195998574313,1.0590865900607442,47.0,0.6492773250128134
68,2011-04-07,STORE_2_043,0.0,0,0,0.0,0.15490195998574313,0.0,0.0,,0.10914446942506804,,0.1962946451439682,,0.853806228373702,4.0,0.6911764705882353,0.0,0.0,4.0,0.0,0.0,0.057991946977686754,0.10914446942506804,0.15490195998574313,1.054589867810634,47.0,0.6492603539628761
69,2011-04-08,STORE_2_043,0.0,0,0,0.0,0.0,0.0,0.057991946977686754,,0.057991946977686754,,0.0,,0.8489813064482249,4.0,0.6811594202898551,0.0,0.0,4.0,0.0,0.0,0.057991946977686754,0.10914446942506804,0.15490195998574313,1.0501085885473151,47.0,0.6492433829129387
70,2011-04-09,STORE_2_043,0.0,0,0,0.0,0.0,0.0,0.15490195998574313,,0.10914446942506804,,0.0,,0.8440816326530611,4.0,0.6714285714285714,0.0,0.0,4.0,0.0,0.0,0.057991946977686754,0.10914446942506804,0.15490195998574313,1.0456456097554419,47.0,0.6492264118630013
71,2011-04-10,STORE_2_043,2.0000000000000004,0,0,0.10914446942506804,0.10914446942506804,0.0,0.057991946977686754,,0.0,,0.057991946977686754,,0.8553858361436225,4.0,0.6901408450704225,0.0,0.0,4.0,0.0,0.0,0.057991946977686754,0.10914446942506804,0.15490195998574313,1.0500550910142716,49.0,0.649209440813064
72,2011-04-11,STORE_2_043,0.0,0,0,-0.10914446942506804,-0.2182889388501361,0.10914446942506804,0.0,,0.0,,0.0,,0.8506944444444448,4.0,0.6805555555555556,0.0,0.0,4.0,0.0,0.0,0.057991946977686754,0.10914446942506804,0.15490195998574313,1.045801652064893,49.0,0.6491924697631267
73,2011-04-12,STORE_2_043,0.0,0,0,0.0,0.10914446942506804,0.0,0.057991946977686754,,0.10914446942506804,,0.15490195998574313,,0.8459373240758118,4.0,0.6712328767123288,0.0,0.0,4.0,0.0,0.0,0.057991946977686754,0.10914446942506804,0.15490195998574313,1.0415639218735224,49.0,0.6491754987131894
74,2011-04-13,STORE_2_043,2.0000000000000004,0,0,0.10914446942506804,0.10914446942506804,0.0,0.0,,0.0,,0.0,,0.8568298027757483,4.0,0.6891891891891891,0.0,0.0,4.0,0.0,0.0,0.057991946977686754,0.10914446942506804,0.15490195998574313,1.0458748147367842,51.0,0.6491585276632521
75,2011-04-14,STORE_2_043,0.0,0,0,-0.10914446942506804,-0.2182889388501361,0.10914446942506804,0.1962946451439682,,0.0,,0.0,,0.8522666666666666,4.0,0.68,0.0,0.0,4.0,0.0,0.0,0.057991946977686754,0.10914446942506804,0.15490195998574313,1.041827915447367,51.0,0.6491415566133147
76,2011-04-15,STORE_2_043,2.0000000000000004,0,0,0.10914446942506804,0.2182889388501361,0.0,0.0,,0.0,,0.0,,0.8625346260387808,4.0,0.6973684210526315,0.0,0.0,4.0,0.0,0.0,0.057991946977686754,0.10914446942506804,0.15490195998574313,1.045877454161245,53.0,0.6491245855633774
77,2011-04-16,STORE_2_043,1.0,0,0,-0.05115252244738129,-0.16029699187244933,0.10914446942506804,0.0,,0.0,,0.0,,0.8561308821049082,4.0,0.7012987012987013,0.0,0.0,4.0,0.0,0.0,0.057991946977686754,0.10914446942506804,0.15490195998574313,1.0395461441991614,54.0,0.64910761451344
78,2011-04-17,STORE_2_043,0.0,0,0,-0.057991946977686754,-0.006839424530305463,0.057991946977686754,0.057991946977686754,,0.0,,0.10914446942506804,,0.8520710059171598,4.0,0.6923076923076923,0.0,0.0,4.0,0.0,0.0,0.057991946977686754,0.10914446942506804,0.15490195998574313,1.0358219310900272,54.0,0.6490906434635026
79,2011-04-18,STORE_2_043,1.0,0,0,0.057991946977686754,0.11598389395537351,0.0,0.0,,0.0,,0.0,,0.8460182663034769,4.0,0.6962025316455697,0.0,0.0,4.0,0.0,0.0,0.057991946977686754,0.10914446942506804,0.15490195998574313,1.0297426910335892,55.0,0.6490736724135653
80,2011-04-19,STORE_2_043,0.0,0,0,-0.057991946977686754,-0.11598389395537351,0.057991946977686754,0.15490195998574313,,0.057991946977686754,,0.0,,0.8421875,4.0,0.6875,0.0,0.0,4.0,0.0,0.0,0.057991946977686754,0.10914446942506804,0.15490195998574313,1.026160966473547,55.0,0.6490567013636279
81,2011-04-20,STORE_2_043,0.0,0,0,0.0,0.057991946977686754,0.0,0.0,,0.0,,0.10914446942506804,,0.8382868465172992,4.0,0.6790123456790124,0.0,0.0,4.0,0.0,0.0,0.057991946977686754,0.10914446942506804,0.15490195998574313,1.0225844768749808,55.0,0.6490397303136906
82,2011-04-21,STORE_2_043,1.0,0,0,0.057991946977686754,0.057991946977686754,0.0,0.0,,0.0,,0.0,,0.8328375966686495,4.0,0.6829268292682927,0.0,0.0,4.0,0.0,0.0,0.057991946977686754,0.10914446942506804,0.15261408545770952,1.0168706386824795,56.0,0.6490227592637533
83,2011-04-22,STORE_2_043,0.0,0,0,-0.057991946977686754,-0.11598389395537351,0.057991946977686754,0.0,,0.057991946977686754,,0.10914446942506804,,0.8291479169690812,4.0,0.6746987951807228,0.0,0.0,4.0,0.0,0.0,0.057991946977686754,0.10914446942506804,0.15032621092967524,1.0134273378712815,56.0,0.6490057882138159
84,2011-04-23,STORE_2_043,4.0,0,0,0.1962946451439682,0.25428659212165494,0.0,0.0,,0.0,,0.057991946977686754,,0.8673469387755101,4.0,0.7142857142857143,0.0,0.0,4.0,0.0,0.0,0.057991946977686754,0.10914446942506804,0.15490195998574313,1.070653764598472,60.0,0.6489888171638786
85,2011-04-24,STORE_2_043,1.0,0,0,-0.13830269816628143,-0.3345973433102496,0.1962946451439682,0.10914446942506804,,0.057991946977686754,,0.0,,0.8611764705882353,4.0,0.7176470588235294,0.0,0.0,4.0,0.0,0.0,0.057991946977686754,0.10914446942506804,0.15490195998574313,1.064712846441777,61.0,0.6489718461139413
86,2011-04-25,STORE_2_043,0.0,0,0,-0.057991946977686754,0.08031075118859468,0.057991946977686754,0.0,,0.15490195998574313,,0.057991946977686754,,0.8577609518658735,4.0,0.7093023255813954,0.0,0.0,4.0,0.0,0.0,0.057991946977686754,0.10914446942506804,0.15490195998574313,1.0612565146452022,61.0,0.648954875064004
87,2011-04-26,STORE_2_043,0.0,0,0,0.0,0.057991946977686754,0.0,0.0,,0.057991946977686754,,0.0,,0.8542740124190774,4.0,0.7011494252873564,0.0,0.0,4.0,0.0,0.0,0.057991946977686754,0.10914446942506804,0.15490195998574313,1.0578053468531257,61.0,0.6489379040140666
88,2011-04-27,STORE_2_043,1.0,0,0,0.057991946977686754,0.057991946977686754,0.0,0.10914446942506804,,0.0,,0.0,,0.8486570247933883,4.0,0.7045454545454546,0.0,0.0,4.0,0.0,0.0,0.057991946977686754,0.10914446942506804,0.15490195998574313,1.0521908278159533,62.0,0.6489209329641292
89,2011-04-28,STORE_2_043,1.0,0,0,0.0,-0.057991946977686754,0.057991946977686754,0.0,,0.057991946977686754,,0.057991946977686754,,0.8430753692715569,4.0,0.7078651685393258,0.0,0.0,4.0,0.0,0.0,0.057991946977686754,0.10914446942506804,0.15490195998574313,1.0466640425549774,63.0,0.6489039619141919
90,2011-04-29,STORE_2_043,1.0,0,0,0.0,0.0,0.057991946977686754,0.10914446942506804,,0.0,,0.0,,0.8375308641975304,4.0,0.7111111111111111,0.0,0.0,4.0,0.0,0.0,0.057991946977686754,0.10914446942506804,0.15490195998574313,1.0412227518529742,64.0,0.6488869908642545
91,2011-04-30,STORE_2_043,1.0,0,0,0.0,0.0,0.057991946977686754,0.057991946977686754,,0.1962946451439682,,0.1962946451439682,0.0,0.8345679012345679,4.0,0.7222222222222222,0.0,0.0,4.0,0.0,0.0,0.057991946977686754,0.10914446942506804,0.15490195998574313,1.0388820458158872,65.0,0.6488700198143171
92,2011-05-01,STORE_2_043,0.0,0,0,-0.057991946977686754,-0.057991946977686754,0.057991946977686754,0.0,,0.0,,0.057991946977686754,0.0,0.8345679012345679,4.0,0.7222222222222222,0.0,0.0,4.0,0.0,0.0,0.057991946977686754,0.10914446942506804,0.15490195998574313,1.0388820458158872,65.0,0.6488530487643799
93,2011-05-02,STORE_2_043,0.0,0,0,0.0,0.057991946977686754,0.0,0.057991946977686754,,0.0,,0.0,0.057991946977686754,0.8375308641975304,4.0,0.7111111111111111,0.0,0.0,4.0,0.0,0.0,0.057991946977686754,0.10914446942506804,0.15490195998574313,1.0412227518529742,64.0,0.6488360777144425
94,2011-05-03,STORE_2_043,0.0,0,0,0.0,0.0,0.0,0.0,,0.057991946977686754,,0.0,0.0,0.8375308641975304,4.0,0.7111111111111111,0.0,0.0,4.0,0.0,0.0,0.057991946977686754,0.10914446942506804,0.15490195998574313,1.0412227518529742,64.0,0.6488191066645052
95,2011-05-04,STORE_2_043,0.0,0,0,0.0,0.0,0.0,0.0,,0.0,,0.057991946977686754,0.0,0.8375308641975305,4.0,0.7111111111111111,0.0,0.0,4.0,0.0,0.0,0.057991946977686754,0.10914446942506804,0.15490195998574313,1.0412227518529742,64.0,0.6488021356145679
96,2011-05-05,STORE_2_043,0.0,0,0,0.0,0.0,0.0,0.057991946977686754,,0.15490195998574313,,0.057991946977686754,0.10914446942506804,0.8266666666666668,4.0,0.6888888888888889,0.0,0.0,4.0,0.0,0.0,0.057991946977686754,0.10914446942506804,0.15490195998574313,1.0347278255216987,62.0,0.6487851645646305
97,2011-05-06,STORE_2_043,0.0,0,0,0.0,0.0,0.0,0.0,,0.0,,0.057991946977686754,0.1962946451439682,0.7876543209876546,4.0,0.6444444444444445,0.0,0.0,4.0,0.0,0.0,0.057991946977686754,0.10914446942506804,0.1343110892334392,0.9750956289733574,58.0,0.6487681935146932
98,2011-05-07,STORE_2_043,0.0,0,0,0.0,0.0,0.0,0.1962946451439682,,0.0,,0.057991946977686754,0.0,0.7876543209876544,4.0,0.6444444444444445,0.0,0.0,4.0,0.0,0.0,0.057991946977686754,0.10914446942506804,0.1343110892334392,0.9750956289733573,58.0,0.6487512224647558
99,2011-05-08,STORE_2_043,0.0,0,0,0.0,0.0,0.0,0.057991946977686754,,0.0,,0.0,0.0,0.7876543209876544,4.0,0.6444444444444445,0.0,0.0,4.0,0.0,0.0,0.057991946977686754,0.10914446942506804,0.1343110892334392,0.9750956289733573,58.0,0.6487342514148184
100,2011-05-09,STORE_2_043,1.0,0,0,0.057991946977686754,0.057991946977686754,0.0,0.0,,0.0,,0.0,0.057991946977686754,0.7876543209876546,4.0,0.6444444444444445,0.0,0.0,4.0,0.0,0.0,0.057991946977686754,0.10914446942506804,0.1343110892334392,0.9750956289733573,58.0,0.6487172803648811
101,2011-05-10,STORE_2_043,0.0,0,0,-0.057991946977686754,-0.11598389395537351,0.057991946977686754,0.0,,0.10914446942506804,,0.0,0.0,0.7876543209876544,4.0,0.6444444444444445,0.0,0.0,4.0,0.0,0.0,0.057991946977686754,0.10914446942506804,0.1343110892334392,0.9750956289733573,58.0,0.6487003093149437
102,2011-05-11,STORE_2_043,0.0,0,0,0.0,0.057991946977686754,0.0,0.057991946977686754,,0.0,,0.0,0.0,0.7876543209876546,4.0,0.6444444444444445,0.0,0.0,4.0,0.0,0.0,0.057991946977686754,0.10914446942506804,0.1343110892334392,0.9750956289733573,58.0,0.6486833382650063
103,2011-05-12,STORE_2_043,0.0,0,0,0.0,0.0,0.0,0.057991946977686754,,0.0,,0.0,0.0,0.7876543209876546,4.0,0.6444444444444445,0.0,0.0,4.0,0.0,0.0,0.057991946977686754,0.10914446942506804,0.1343110892334392,0.9750956289733573,58.0,0.6486663672150691
104,2011-05-13,STORE_2_043,1.0,0,0,0.057991946977686754,0.057991946977686754,0.0,0.057991946977686754,,0.10914446942506804,,0.0,0.15490195998574313,0.7604938271604936,4.0,0.6222222222222222,0.0,0.0,4.0,0.0,0.0,0.057991946977686754,0.10914446942506804,0.10914446942506804,0.9430738383971662,56.0,0.6486493961651317
105,2011-05-14,STORE_2_043,1.0,0,0,0.0,-0.057991946977686754,0.057991946977686754,0.057991946977686754,,0.0,,0.0,0.10914446942506804,0.746913580246914,4.0,0.6111111111111112,0.0,0.0,4.0,0.0,0.0,0.057991946977686754,0.10914446942506804,0.10914446942506804,0.9324902559293827,55.0,0.6486324251151944
106,2011-05-15,STORE_2_043,1.0,0,0,0.0,0.0,0.057991946977686754,0.0,,0.10914446942506804,,0.0,0.0,0.7466666666666664,4.0,0.6222222222222222,0.0,0.0,4.0,0.0,0.0,0.057991946977686754,0.10914446942506804,0.10914446942506804,0.931083430502769,56.0,0.6486154540652571
107,2011-05-16,STORE_2_043,0.0,0,0,-0.057991946977686754,-0.057991946977686754,0.057991946977686754,0.0,,0.057991946977686754,,0.057991946977686754,0.0,0.7466666666666666,4.0,0.6222222222222222,0.0,0.0,4.0,0.0,0.0,0.057991946977686754,0.10914446942506804,0.10914446942506804,0.931083430502769,56.0,0.6485984830153197
108,2011-05-17,STORE_2_043,0.0,0,0,0.0,0.057991946977686754,0.0,0.0,,0.0,,0.0,0.0,0.7466666666666666,4.0,0.6222222222222222,0.0,0.0,4.0,0.0,0.0,0.057991946977686754,0.10914446942506804,0.10914446942506804,0.931083430502769,56.0,0.6485815119653824
109,2011-05-18,STORE_2_043,1.0,0,0,0.057991946977686754,0.057991946977686754,0.0,0.0,,0.057991946977686754,,0.0,0.10914446942506804,0.7333333333333336,4.0,0.6111111111111112,0.0,0.0,4.0,0.0,0.0,0.057991946977686754,0.10914446942506804,0.10914446942506804,0.9203619762304862,55.0,0.648564540915445
110,2011-05-19,STORE_2_043,0.0,0,0,-0.057991946977686754,-0.11598389395537351,0.057991946977686754,0.0,,0.0,,0.0,0.057991946977686754,0.7333333333333335,4.0,0.6,0.0,0.0,4.0,0.0,0.0,0.057991946977686754,0.10914446942506804,0.10914446942506804,0.9216497177600557,54.0,0.6485475698655077
111,2011-05-20,STORE_2_043,1.0,0,0,0.057991946977686754,0.11598389395537351,0.0,0.0,,0.0,,0.057991946977686754,0.10914446942506804,0.719753086419753,4.0,0.5888888888888889,0.0,0.0,4.0,0.0,0.0,0.057991946977686754,0.10914446942506804,0.10914446942506804,0.9105430463196117,53.0,0.6485305988155703
112,2011-05-21,STORE_2_043,2.0000000000000004,0,0,0.05115252244738129,-0.006839424530305463,0.057991946977686754,0.0,,0.057991946977686754,,0.057991946977686754,0.0,0.7333333333333336,4.0,0.6111111111111112,0.0,0.0,4.0,0.0,0.0,0.057991946977686754,0.10914446942506804,0.10914446942506804,0.9203619762304862,55.0,0.6485136277656329
113,2011-05-22,STORE_2_043,1.0,0,0,-0.05115252244738129,-0.10230504489476258,0.10914446942506804,0.0,,0.0,,0.057991946977686754,0.0,0.7328395061728392,4.0,0.6222222222222222,0.0,0.0,4.0,0.0,0.0,0.057991946977686754,0.10914446942506804,0.10914446942506804,0.9189365834726817,56.0,0.6484966567156957
114,2011-05-23,STORE_2_043,0.0,0,0,-0.057991946977686754,-0.006839424530305463,0.057991946977686754,0.057991946977686754,,0.1962946451439682,,0.0,0.0,0.7328395061728392,4.0,0.6222222222222222,0.0,0.0,4.0,0.0,0.0,0.057991946977686754,0.10914446942506804,0.10914446942506804,0.9189365834726817,56.0,0.6484796856657583
115,2011-05-24,STORE_2_043,2.0000000000000004,0,0,0.10914446942506804,0.16713641640275478,0.0,0.0,,0.057991946977686754,,0.0,0.0,0.7446913580246914,4.0,0.6444444444444445,0.0,0.0,4.0,0.0,0.0,0.057991946977686754,0.10914446942506804,0.10914446942506804,0.9278598197968855,58.0,0.648462714615821
116,2011-05-25,STORE_2_043,0.0,0,0,-0.10914446942506804,-0.2182889388501361,0.10914446942506804,0.0,,0.0,,0.057991946977686754,0.0,0.7446913580246914,4.0,0.6444444444444445,0.0,0.0,4.0,0.0,0.0,0.057991946977686754,0.10914446942506804,0.10914446942506804,0.9278598197968854,58.0,0.6484457435658837
117,2011-05-26,STORE_2_043,0.0,0,0,0.0,0.10914446942506804,0.0,0.0,,0.0,,0.0,0.10914446942506804,0.7328395061728391,4.0,0.6222222222222222,0.0,0.0,4.0,0.0,0.0,0.057991946977686754,0.10914446942506804,0.10914446942506804,0.9189365834726817,56.0,0.6484287725159463
118,2011-05-27,STORE_2_043,2.0000000000000004,0,0,0.10914446942506804,0.10914446942506804,0.0,0.057991946977686754,,0.057991946977686754,,0.057991946977686754,0.0,0.7446913580246914,4.0,0.6444444444444445,0.0,0.0,4.0,0.0,0.0,0.057991946977686754,0.10914446942506804,0.10914446942506804,0.9278598197968855,58.0,0.648411801466009
119,2011-05-28,STORE_2_043,0.0,0,0,-0.10914446942506804,-0.2182889388501361,0.10914446942506804,0.057991946977686754,,0.057991946977686754,,0.10914446942506804,0.057991946977686754,0.745925925925926,4.0,0.6333333333333333,0.0,0.0,4.0,0.0,0.0,0.057991946977686754,0.10914446942506804,0.10914446942506804,0.9295401787013966,57.0,0.6483948304160716
120,2011-05-29,STORE_2_043,2.0000000000000004,0,0,0.10914446942506804,0.2182889388501361,0.0,0.057991946977686754,,0.057991946977686754,,0.057991946977686754,0.0,0.757530864197531,4.0,0.6555555555555556,0.0,0.0,4.0,0.0,0.0,0.057991946977686754,0.10914446942506804,0.10914446942506804,0.9380964602795457,59.0,0.6483778593661342
121,2011-05-30,STORE_2_043,0.0,1,0,-0.10914446942506804,-0.2182889388501361,0.10914446942506804,0.0,,0.057991946977686754,,0.0,0.057991946977686754,0.7590123456790125,4.0,0.6444444444444445,0.0,0.0,4.0,0.0,0.0,0.057991946977686754,0.10914446942506804,0.10914446942506804,0.9398913529264267,58.0,0.6483608883161969
122,2011-05-31,STORE_2_043,1.0,0,0,0.057991946977686754,0.16713641640275478,0.0,0.0,,0.0,,0.10914446942506804,0.0,0.757530864197531,4.0,0.6555555555555556,0.0,0.0,4.0,0.0,0.0,0.057991946977686754,0.10914446942506804,0.10914446942506804,0.9380964602795457,59.0,0.6483439172662595
123,2011-06-01,STORE_2_043,2.0000000000000004,0,0,0.05115252244738129,-0.006839424530305463,0.057991946977686754,0.057991946977686754,,0.0,,0.0,0.0,0.768148148148148,4.0,0.6777777777777778,0.0,0.0,4.0,0.0,0.0,0.057991946977686754,0.10914446942506804,0.10914446942506804,0.9460476955192334,61.0,0.6483269462163221
124,2011-06-02,STORE_2_043,2.0000000000000004,0,0,0.0,-0.05115252244738129,0.10914446942506804,0.0,,0.0,,0.0,0.0,0.7777777777777779,4.0,0.7,0.0,0.0,4.0,0.0,0.0,0.057991946977686754,0.10914446942506804,0.10914446942506804,0.9534090224268613,63.0,0.6483099751663849
125,2011-06-03,STORE_2_043,0.0,0,0,-0.10914446942506804,-0.10914446942506804,0.10914446942506804,0.057991946977686754,,0.0,,0.10914446942506804,0.10914446942506804,0.768148148148148,4.0,0.6777777777777778,0.0,0.0,4.0,0.0,0.0,0.057991946977686754,0.10914446942506804,0.10914446942506804,0.9460476955192335,61.0,0.6482930041164475
126,2011-06-04,STORE_2_043,0.0,0,0,0.0,0.10914446942506804,0.0,0.10914446942506804,,0.0,,0.0,0.0,0.768148148148148,4.0,0.6777777777777778,0.0,0.0,4.0,0.0,0.0,0.057991946977686754,0.10914446942506804,0.10914446942506804,0.9460476955192336,61.0,0.6482760330665103
127,2011-06-05,STORE_2_043,0.0,0,0,0.0,0.0,0.0,0.057991946977686754,,0.0,,0.10914446942506804,0.0,0.768148148148148,4.0,0.6777777777777778,0.0,0.0,4.0,0.0,0.0,0.057991946977686754,0.10914446942506804,0.10914446942506804,0.9460476955192336,61.0,0.6482590620165729
128,2011-06-06,STORE_2_043,0.0,0,0,0.0,0.0,0.0,0.0,,0.0,,0.0,0.10914446942506804,0.7575308641975311,4.0,0.6555555555555556,0.0,0.0,4.0,0.0,0.0,0.057991946977686754,0.10914446942506804,0.10914446942506804,0.9380964602795459,59.0,0.6482420909666355
129,2011-06-07,STORE_2_043,0.0,0,0,0.0,0.0,0.0,0.10914446942506804,,0.0,,0.057991946977686754,0.057991946977686754,0.7590123456790125,4.0,0.6444444444444445,0.0,0.0,4.0,0.0,0.0,0.057991946977686754,0.10914446942506804,0.10914446942506804,0.9398913529264266,58.0,0.6482251199166982
130,2011-06-08,STORE_2_043,0.0,0,0,0.0,0.0,0.0,0.0,,0.057991946977686754,,0.10914446942506804,0.10914446942506804,0.7466666666666666,4.0,0.6222222222222222,0.0,0.0,4.0,0.0,0.0,0.057991946977686754,0.10914446942506804,0.10914446942506804,0.931083430502769,56.0,0.6482081488667608
131,2011-06-09,STORE_2_043,0.0,0,0,0.0,0.0,0.0,0.0,,0.0,,0.10914446942506804,0.0,0.7466666666666666,4.0,0.6222222222222222,0.0,0.0,4.0,0.0,0.0,0.057991946977686754,0.10914446942506804,0.10914446942506804,0.931083430502769,56.0,0.6481911778168234
132,2011-06-10,STORE_2_043,4.0,0,0,0.1962946451439682,0.1962946451439682,0.0,0.10914446942506804,,0.0,,0.0,0.0,0.7851851851851855,4.0,0.6666666666666666,0.0,0.0,4.0,0.0,0.0,0.057991946977686754,0.10914446942506804,0.1343110892334392,0.994366152352251,60.0,0.6481742067668861
133,2011-06-11,STORE_2_043,0.0,0,0,-0.1962946451439682,-0.3925892902879364,0.1962946451439682,0.0,,0.0,,0.0,0.10914446942506804,0.7733333333333335,4.0,0.6444444444444445,0.0,0.0,4.0,0.0,0.0,0.057991946977686754,0.10914446942506804,0.1343110892334392,0.9865512636225786,58.0,0.6481572357169487
134,2011-06-12,STORE_2_043,2.0000000000000004,0,0,0.10914446942506804,0.3054391145690362,0.0,0.10914446942506804,,0.057991946977686754,,0.0,0.0,0.7851851851851854,4.0,0.6666666666666666,0.0,0.0,4.0,0.0,0.0,0.057991946977686754,0.10914446942506804,0.1343110892334392,0.994366152352251,60.0,0.6481402646670115
135,2011-06-13,STORE_2_043,0.0,0,0,-0.10914446942506804,-0.2182889388501361,0.10914446942506804,0.0,,0.057991946977686754,,0.0,0.0,0.7851851851851852,4.0,0.6666666666666666,0.0,0.0,4.0,0.0,0.0,0.057991946977686754,0.10914446942506804,0.1343110892334392,0.994366152352251,60.0,0.6481232936170741
136,2011-06-14,STORE_2_043,0.0,0,0,0.0,0.10914446942506804,0.0,0.057991946977686754,,0.057991946977686754,,0.0,0.0,0.7851851851851852,4.0,0.6666666666666666,0.0,0.0,4.0,0.0,0.0,0.057991946977686754,0.10914446942506804,0.1343110892334392,0.9943661523522511,60.0,0.6481063225671367
137,2011-06-15,STORE_2_043,0.0,0,0,0.0,0.0,0.0,0.10914446942506804,,0.0,,0.0,0.0,0.7851851851851851,4.0,0.6666666666666666,0.0,0.0,4.0,0.0,0.0,0.057991946977686754,0.10914446942506804,0.1343110892334392,0.9943661523522511,60.0,0.6480893515171995
138,2011-06-16,STORE_2_043,1.0,0,0,0.057991946977686754,0.057991946977686754,0.0,0.10914446942506804,,0.0,,0.0,0.0,0.78320987654321,4.0,0.6777777777777778,0.0,0.0,4.0,0.0,0.0,0.057991946977686754,0.10914446942506804,0.1343110892334392,0.9924181994737354,61.0,0.6480723804672621
139,2011-06-17,STORE_2_043,1.0,0,0,0.0,-0.057991946977686754,0.057991946977686754,0.0,,0.057991946977686754,,0.1962946451439682,0.0,0.7807407407407408,4.0,0.6888888888888889,0.0,0.0,4.0,0.0,0.0,0.057991946977686754,0.10914446942506804,0.1343110892334392,0.9903403619258505,62.0,0.6480554094173248
140,2011-06-18,STORE_2_043,2.0000000000000004,0,0,0.05115252244738129,0.05115252244738129,0.057991946977686754,0.0,,0.0,,0.0,0.057991946977686754,0.7933333333333336,4.0,0.7,0.0,0.0,4.0,0.0,0.0,0.057991946977686754,0.10914446942506804,0.1343110892334392,0.9994380443501151,63.0,0.6480384383673874
141,2011-06-19,STORE_2_043,0.0,0,0,-0.10914446942506804,-0.16029699187244933,0.10914446942506804,0.0,,0.057991946977686754,,0.10914446942506804,0.0,0.7933333333333336,4.0,0.7,0.0,0.0,4.0,0.0,0.0,0.057991946977686754,0.10914446942506804,0.1343110892334392,0.9994380443501152,63.0,0.64802146731745
142,2011-06-20,STORE_2_043,0.0,0,0,0.0,0.10914446942506804,0.0,0.0,,0.10914446942506804,,0.0,0.0,0.7933333333333336,4.0,0.7,0.0,0.0,4.0,0.0,0.0,0.057991946977686754,0.10914446942506804,0.1343110892334392,0.9994380443501151,63.0,0.6480044962675127
143,2011-06-21,STORE_2_043,0.0,0,0,0.0,0.0,0.0,0.0,,0.057991946977686754,,0.0,0.057991946977686754,0.7960493827160495,4.0,0.6888888888888889,0.0,0.0,4.0,0.0,0.0,0.057991946977686754,0.10914446942506804,0.1343110892334392,1.0016216564011504,62.0,0.6479875252175753
144,2011-06-22,STORE_2_043,1.0,0,0,0.057991946977686754,0.057991946977686754,0.0,0.0,,0.0,,0.0,0.0,0.7933333333333336,4.0,0.7,0.0,0.0,4.0,0.0,0.0,0.057991946977686754,0.10914446942506804,0.1343110892334392,0.9994380443501152,63.0,0.6479705541676379
145,2011-06-23,STORE_2_043,0.0,0,0,-0.057991946977686754,-0.11598389395537351,0.057991946977686754,0.0,,0.10914446942506804,,0.057991946977686754,0.057991946977686754,0.7960493827160495,4.0,0.6888888888888889,0.0,0.0,4.0,0.0,0.0,0.057991946977686754,0.10914446942506804,0.1343110892334392,1.0016216564011504,62.0,0.6479535831177007
146,2011-06-24,STORE_2_043,0.0,0,0,0.0,0.057991946977686754,0.0,0.1962946451439682,,0.0,,0.057991946977686754,0.15490195998574313,0.7720987654320991,4.0,0.6555555555555556,0.0,0.0,4.0,0.0,0.0,0.057991946977686754,0.10914446942506804,0.10914446942506804,0.9733656554070994,59.0,0.6479366120677633
147,2011-06-25,STORE_2_043,0.0,0,0,0.0,0.0,0.0,0.0,,0.0,,0.10914446942506804,0.057991946977686754,0.7733333333333334,4.0,0.6444444444444445,0.0,0.0,4.0,0.0,0.0,0.057991946977686754,0.10914446942506804,0.10914446942506804,0.9750956289733569,58.0,0.6479196410178261
148,2011-06-26,STORE_2_043,0.0,0,0,0.0,0.0,0.0,0.10914446942506804,,0.10914446942506804,,0.0,0.0,0.7733333333333334,4.0,0.6444444444444445,0.0,0.0,4.0,0.0,0.0,0.057991946977686754,0.10914446942506804,0.10914446942506804,0.9750956289733568,58.0,0.6479026699678887
149,2011-06-27,STORE_2_043,0.0,0,0,0.0,0.0,0.0,0.0,,0.0,,0.0,0.057991946977686754,0.7740740740740741,4.0,0.6333333333333333,0.0,0.0,4.0,0.0,0.0,0.057991946977686754,0.10914446942506804,0.10914446942506804,0.97669472419465,57.0,0.6478856989179513
150,2011-06-28,STORE_2_043,0.0,0,0,0.0,0.0,0.0,0.0,,0.10914446942506804,,0.0,0.0,0.7740740740740739,4.0,0.6333333333333333,0.0,0.0,4.0,0.0,0.0,0.057991946977686754,0.10914446942506804,0.10914446942506804,0.97669472419465,57.0,0.647868727868014
151,2011-06-29,STORE_2_043,0.0,0,0,0.0,0.0,0.0,0.0,,0.0,,0.057991946977686754,0.1962946451439682,0.7328395061728394,4.0,0.5888888888888889,0.0,0.0,4.0,0.0,0.0,0.057991946977686754,0.10914446942506804,0.10914446942506804,0.9105430463196121,53.0,0.6478517568180766
152,2011-06-30,STORE_2_043,0.0,0,0,0.0,0.0,0.0,0.057991946977686754,,0.057991946977686754,,0.0,0.0,0.7328395061728394,4.0,0.5888888888888889,0.0,0.0,4.0,0.0,0.0,0.057991946977686754,0.10914446942506804,0.10914446942506804,0.9105430463196121,53.0,0.6478347857681392
153,2011-07-01,STORE_2_043,0.0,0,0,0.0,0.0,0.0,0.057991946977686754,,0.10914446942506804,,0.0,0.0,0.7328395061728394,4.0,0.5888888888888889,0.0,0.0,4.0,0.0,0.0,0.057991946977686754,0.10914446942506804,0.10914446942506804,0.9105430463196121,53.0,0.6478178147182019
154,2011-07-02,STORE_2_043,0.0,0,0,0.0,0.0,0.0,0.10914446942506804,,0.10914446942506804,,0.0,0.057991946977686754,0.7318518518518518,4.0,0.5777777777777777,0.0,0.0,4.0,0.0,0.0,0.057991946977686754,0.10914446942506804,0.10914446942506804,0.9115707862678732,52.0,0.6478008436682645
155,2011-07-03,STORE_2_043,0.0,0,0,0.0,0.0,0.0,0.0,,0.0,,0.0,0.0,0.7318518518518518,4.0,0.5777777777777777,0.0,0.0,4.0,0.0,0.0,0.057991946977686754,0.10914446942506804,0.10914446942506804,0.9115707862678732,52.0,0.6477838726183273
156,2011-07-04,STORE_2_043,0.0,1,0,0.0,0.0,0.0,0.0,,0.0,,0.0,0.15490195998574313,0.7017283950617283,4.0,0.5444444444444444,0.0,0.0,4.0,0.0,0.0,0.057991946977686754,0.10914446942506804,0.10914446942506804,0.876165177479233,49.0,0.6477669015683899
157,2011-07-05,STORE_2_043,0.0,0,0,0.0,0.0,0.0,0.0,,0.0,,0.0,0.0,0.7017283950617283,4.0,0.5444444444444444,0.0,0.0,4.0,0.0,0.0,0.057991946977686754,0.10914446942506804,0.10914446942506804,0.876165177479233,49.0,0.6477499305184525
158,2011-07-06,STORE_2_043,0.0,0,0,0.0,0.0,0.0,0.057991946977686754,,0.0,,0.0,0.0,0.7017283950617283,4.0,0.5444444444444444,0.0,0.0,4.0,0.0,0.0,0.057991946977686754,0.10914446942506804,0.10914446942506804,0.876165177479233,49.0,0.6477329594685153
159,2011-07-07,STORE_2_043,0.0,0,0,0.0,0.0,0.0,0.0,,0.0,,0.0,0.0,0.7017283950617285,4.0,0.5444444444444444,0.0,0.0,4.0,0.0,0.0,0.057991946977686754,0.10914446942506804,0.10914446942506804,0.8761651774792327,49.0,0.6477159884185779
160,2011-07-08,STORE_2_043,0.0,0,0,0.0,0.0,0.0,0.0,,0.0,,0.0,0.0,0.7017283950617283,4.0,0.5444444444444444,0.0,0.0,4.0,0.0,0.0,0.057991946977686754,0.10914446942506804,0.10914446942506804,0.8761651774792327,49.0,0.6476990173686406
161,2011-07-09,STORE_2_043,0.0,0,0,0.0,0.0,0.0,0.0,,0.0,,0.0,0.10914446942506804,0.6846913580246916,4.0,0.5222222222222223,0.0,0.0,4.0,0.0,0.0,0.057991946977686754,0.10914446942506804,0.10914446942506804,0.8641132075461411,47.0,0.6476820463187032
162,2011-07-10,STORE_2_043,0.0,0,0,0.0,0.0,0.0,0.0,,0.1962946451439682,,0.0,0.0,0.6846913580246916,4.0,0.5222222222222223,0.0,0.0,4.0,0.0,0.0,0.057991946977686754,0.10914446942506804,0.10914446942506804,0.8641132075461411,47.0,0.6476650752687658
163,2011-07-11,STORE_2_043,0.0,0,0,0.0,0.0,0.0,0.0,,0.0,,0.0,0.0,0.6846913580246915,4.0,0.5222222222222223,0.0,0.0,4.0,0.0,0.0,0.057991946977686754,0.10914446942506804,0.10914446942506804,0.8641132075461411,47.0,0.6476481042188285
164,2011-07-12,STORE_2_043,0.0,0,0,0.0,0.0,0.0,0.0,,0.10914446942506804,,0.0,0.10914446942506804,0.6666666666666666,4.0,0.5,0.0,0.0,4.0,0.0,0.0,0.057991946977686754,0.10914446942506804,0.10914446942506804,0.8513043528160745,45.0,0.6476311331688911
165,2011-07-13,STORE_2_043,0.0,0,0,0.0,0.0,0.0,0.0,,0.0,,0.0,0.0,0.6666666666666666,4.0,0.5,0.0,0.0,4.0,0.0,0.0,0.057991946977686754,0.10914446942506804,0.10914446942506804,0.8513043528160745,45.0,0.6476141621189538
166,2011-07-14,STORE_2_043,0.0,0,0,0.0,0.0,0.0,0.0,,0.0,,0.0,0.10914446942506804,0.6476543209876541,4.0,0.4777777777777778,0.0,0.0,4.0,0.0,0.0,0.057991946977686754,0.10914446942506804,0.10914446942506804,0.8377038947211366,43.0,0.6475971910690165
167,2011-07-15,STORE_2_043,0.0,0,0,0.0,0.0,0.0,0.0,,0.0,,0.0,0.057991946977686754,0.6429629629629628,4.0,0.4666666666666667,0.0,0.0,4.0,0.0,0.0,0.057991946977686754,0.10914446942506804,0.10914446942506804,0.8373312340439819,42.0,0.6475802200190791
168,2011-07-16,STORE_2_043,0.0,0,0,0.0,0.0,0.0,0.0,,0.057991946977686754,,0.0,0.0,0.6429629629629628,4.0,0.4666666666666667,0.0,0.0,4.0,0.0,0.0,0.057991946977686754,0.10914446942506804,0.10914446942506804,0.8373312340439819,42.0,0.6475632489691419
169,2011-07-17,STORE_2_043,0.0,0,0,0.0,0.0,0.0,0.0,,0.057991946977686754,,0.0,0.057991946977686754,0.6377777777777778,4.0,0.45555555555555555,0.0,0.0,4.0,0.0,0.0,0.057991946977686754,0.10914446942506804,0.10914446942506804,0.8368092302849776,41.0,0.6475462779192045
170,2011-07-18,STORE_2_043,0.0,0,0,0.0,0.0,0.0,0.0,,0.10914446942506804,,0.0,0.0,0.6377777777777779,4.0,0.45555555555555555,0.0,0.0,4.0,0.0,0.0,0.057991946977686754,0.10914446942506804,0.10914446942506804,0.8368092302849776,41.0,0.6475293068692671
171,2011-07-19,STORE_2_043,0.0,0,0,0.0,0.0,0.0,0.0,,0.0,,0.0,0.0,0.6377777777777779,4.0,0.45555555555555555,0.0,0.0,4.0,0.0,0.0,0.057991946977686754,0.10914446942506804,0.10914446942506804,0.8368092302849776,41.0,0.6475123358193298
172,2011-07-20,STORE_2_043,0.0,0,0,0.0,0.0,0.0,0.0,,0.0,,0.0,0.057991946977686754,0.6320987654320986,4.0,0.4444444444444444,0.0,0.0,4.0,0.0,0.0,0.057991946977686754,0.10914446942506804,0.10914446942506804,0.8361376037378772,40.0,0.6474953647693924
173,2011-07-21,STORE_2_043,0.0,0,0,0.0,0.0,0.0,0.0,,0.0,,0.0,0.0,0.6320987654320986,4.0,0.4444444444444444,0.0,0.0,4.0,0.0,0.0,0.057991946977686754,0.10914446942506804,0.10914446942506804,0.8361376037378772,40.0,0.647478393719455
174,2011-07-22,STORE_2_043,0.0,0,0,0.0,0.0,0.0,0.0,,0.057991946977686754,,0.0,0.1962946451439682,0.5777777777777777,4.0,0.4,0.0,0.0,4.0,0.0,0.0,0.057991946977686754,0.06310719922242532,0.10914446942506804,0.7465275418807508,36.0,0.6474614226695177
175,2011-07-23,STORE_2_043,0.0,0,0,0.0,0.0,0.0,0.0,,0.0,,0.0,0.057991946977686754,0.5703703703703703,4.0,0.3888888888888889,0.0,0.0,4.0,0.0,0.0,0.057991946977686754,0.06310719922242532,0.10914446942506804,0.7449371354887686,35.0,0.6474444516195803
176,2011-07-24,STORE_2_043,0.0,0,0,0.0,0.0,0.0,0.0,,0.0,,0.0,0.0,0.5703703703703703,4.0,0.3888888888888889,0.0,0.0,4.0,0.0,0.0,0.057991946977686754,0.06310719922242532,0.10914446942506804,0.7449371354887686,35.0,0.647427480569643
177,2011-07-25,STORE_2_043,0.0,0,0,0.0,0.0,0.0,0.0,,0.0,,0.0,0.0,0.5703703703703704,4.0,0.3888888888888889,0.0,0.0,4.0,0.0,0.0,0.057991946977686754,0.06310719922242532,0.10914446942506804,0.7449371354887686,35.0,0.6474105095197057
178,2011-07-26,STORE_2_043,0.0,0,0,0.0,0.0,0.0,0.0,,0.0,,0.0,0.057991946977686754,0.5624691358024693,4.0,0.37777777777777777,0.0,0.0,4.0,0.0,0.0,0.043493960233265065,0.06310719922242532,0.10914446942506804,0.7431753581650631,34.0,0.6473935384697684
179,2011-07-27,STORE_2_043,0.0,0,0,0.0,0.0,0.0,0.0,,0.0,,0.0,0.057991946977686754,0.5540740740740742,4.0,0.36666666666666664,0.0,0.0,4.0,0.0,0.0,0.0,0.06310719922242532,0.10914446942506804,0.7412409879703037,33.0,0.6473765674198311
180,2011-07-28,STORE_2_043,0.0,0,0,0.0,0.0,0.0,0.0,,0.0,,0.0,0.057991946977686754,0.5451851851851851,4.0,0.35555555555555557,0.0,0.0,4.0,0.0,0.0,0.0,0.06310719922242532,0.10914446942506804,0.7391326698370692,32.0,0.6473595963698937
181,2011-07-29,STORE_2_043,0.0,0,0,0.0,0.0,0.0,0.0,0.0,0.0,,0.0,0.057991946977686754,0.5358024691358023,4.0,0.34444444444444444,0.0,0.0,4.0,0.0,0.0,0.0,0.06310719922242532,0.10914446942506804,0.7368489106347514,31.0,0.6473426253199563
182,2011-07-30,STORE_2_043,1.0,0,0,0.057991946977686754,0.057991946977686754,0.0,0.0,0.0,0.0,,0.0,0.0,0.5451851851851851,4.0,0.35555555555555557,0.0,0.0,4.0,0.0,0.0,0.0,0.06310719922242532,0.10914446942506804,0.7391326698370692,32.0,0.647325654270019
183,2011-07-31,STORE_2_043,0.0,0,0,-0.057991946977686754,-0.11598389395537351,0.057991946977686754,0.0,0.057991946977686754,0.0,,0.0,0.0,0.5451851851851851,4.0,0.35555555555555557,0.0,0.0,4.0,0.0,0.0,0.0,0.06310719922242532,0.10914446942506804,0.7391326698370692,32.0,0.6473086832200816
184,2011-08-01,STORE_2_043,0.0,0,0,0.0,0.057991946977686754,0.0,0.0,0.0,0.0,,0.0,0.0,0.5451851851851851,4.0,0.35555555555555557,0.0,0.0,4.0,0.0,0.0,0.0,0.06310719922242532,0.10914446942506804,0.7391326698370693,32.0,0.6472917121701443
185,2011-08-02,STORE_2_043,0.0,0,0,0.0,0.0,0.0,0.0,0.0,0.0,,0.0,0.0,0.5451851851851851,4.0,0.35555555555555557,0.0,0.0,4.0,0.0,0.0,0.0,0.06310719922242532,0.10914446942506804,0.7391326698370693,32.0,0.6472747411202069
186,2011-08-03,STORE_2_043,0.0,0,0,0.0,0.0,0.0,0.0,0.10914446942506804,0.0,,0.0,0.0,0.5451851851851851,4.0,0.35555555555555557,0.0,0.0,4.0,0.0,0.0,0.0,0.06310719922242532,0.10914446942506804,0.7391326698370693,32.0,0.6472577700702696
187,2011-08-04,STORE_2_043,0.0,0,0,0.0,0.0,0.0,0.0,0.1962946451439682,0.0,,0.0,0.0,0.5451851851851851,4.0,0.35555555555555557,0.0,0.0,4.0,0.0,0.0,0.0,0.06310719922242532,0.10914446942506804,0.7391326698370693,32.0,0.6472407990203323
188,2011-08-05,STORE_2_043,0.0,0,0,0.0,0.0,0.0,0.0,0.0,0.0,,0.0,0.0,0.5451851851851851,4.0,0.35555555555555557,0.0,0.0,4.0,0.0,0.0,0.0,0.06310719922242532,0.10914446942506804,0.7391326698370694,32.0,0.6472238279703949
189,2011-08-06,STORE_2_043,0.0,0,0,0.0,0.0,0.0,0.0,0.0,0.0,,0.057991946977686754,0.0,0.5451851851851851,4.0,0.35555555555555557,0.0,0.0,4.0,0.0,0.0,0.0,0.06310719922242532,0.10914446942506804,0.7391326698370694,32.0,0.6472068569204577
190,2011-08-07,STORE_2_043,0.0,0,0,0.0,0.0,0.0,0.0,0.057991946977686754,0.0,,0.0,0.057991946977686754,0.5358024691358027,4.0,0.34444444444444444,0.0,0.0,4.0,0.0,0.0,0.0,0.06310719922242532,0.10914446942506804,0.7368489106347514,31.0,0.6471898858705203
191,2011-08-08,STORE_2_043,0.0,0,0,0.0,0.0,0.0,0.0,0.0,0.0,,0.0,0.0,0.5358024691358027,4.0,0.34444444444444444,0.0,0.0,4.0,0.0,0.0,0.0,0.06310719922242532,0.10914446942506804,0.7368489106347514,31.0,0.6471729148205829
192,2011-08-09,STORE_2_043,0.0,0,0,0.0,0.0,0.0,0.0,0.0,0.0,,0.0,0.0,0.5358024691358028,4.0,0.34444444444444444,0.0,0.0,4.0,0.0,0.0,0.0,0.06310719922242532,0.10914446942506804,0.7368489106347514,31.0,0.6471559437706456
193,2011-08-10,STORE_2_043,0.0,0,0,0.0,0.0,0.0,0.0,0.0,0.0,,0.0,0.0,0.5358024691358028,4.0,0.34444444444444444,0.0,0.0,4.0,0.0,0.0,0.0,0.06310719922242532,0.10914446942506804,0.7368489106347514,31.0,0.6471389727207082
194,2011-08-11,STORE_2_043,0.0,0,0,0.0,0.0,0.0,0.0,0.15490195998574313,0.0,,0.0,0.057991946977686754,0.5259259259259258,4.0,0.3333333333333333,0.0,0.0,4.0,0.0,0.0,0.0,0.06310719922242532,0.10914446942506804,0.7343880736345255,30.0,0.6471220016707708
195,2011-08-12,STORE_2_043,0.0,0,0,0.0,0.0,0.0,0.0,0.10914446942506804,0.0,,0.0,0.057991946977686754,0.5155555555555558,4.0,0.32222222222222224,0.0,0.0,4.0,0.0,0.0,0.0,0.06310719922242532,0.10914446942506804,0.731748372324463,29.0,0.6471050306208335
196,2011-08-13,STORE_2_043,0.0,0,0,0.0,0.0,0.0,0.057991946977686754,0.0,0.0,,0.0,0.057991946977686754,0.5046913580246913,4.0,0.3111111111111111,0.0,0.0,4.0,0.0,0.0,0.0,0.06310719922242532,0.10914446942506804,0.7289278635175328,28.0,0.6470880595708961
197,2011-08-14,STORE_2_043,0.0,0,0,0.0,0.0,0.0,0.0,0.0,0.0,,0.0,0.0,0.5046913580246913,4.0,0.3111111111111111,0.0,0.0,4.0,0.0,0.0,0.0,0.06310719922242532,0.10914446942506804,0.7289278635175328,28.0,0.6470710885209588
198,2011-08-15,STORE_2_043,0.0,0,0,0.0,0.0,0.0,0.0,0.0,0.0,,0.0,0.0,0.5046913580246913,4.0,0.3111111111111111,0.0,0.0,4.0,0.0,0.0,0.0,0.06310719922242532,0.10914446942506804,0.7289278635175327,28.0,0.6470541174710215
199,2011-08-16,STORE_2_043,0.0,0,0,0.0,0.0,0.0,0.0,0.10914446942506804,0.0,,0.0,0.057991946977686754,0.4933333333333336,4.0,0.3,0.0,0.0,4.0,0.0,0.0,0.0,0.06310719922242532,0.10914446942506804,0.7259244396869634,27.0,0.6470371464210842
200,2011-08-17,STORE_2_043,0.0,0,0,0.0,0.0,0.0,0.0,0.057991946977686754,0.0,,0.0,0.0,0.49333333333333373,4.0,0.3,0.0,0.0,4.0,0.0,0.0,0.0,0.06310719922242532,0.10914446942506804,0.7259244396869634,27.0,0.6470201753711469
201,2011-08-18,STORE_2_043,0.0,0,0,0.0,0.0,0.0,0.0,0.10914446942506804,0.0,,0.0,0.057991946977686754,0.4814814814814815,4.0,0.28888888888888886,0.0,0.0,4.0,0.0,0.0,0.0,0.06310719922242532,0.10914446942506804,0.7227358204539823,26.0,0.6470032043212095
202,2011-08-19,STORE_2_043,0.0,0,0,0.0,0.0,0.0,0.0,0.0,0.0,,0.0,0.10914446942506804,0.45037037037037053,4.0,0.26666666666666666,0.0,0.0,4.0,0.0,0.0,0.0,0.057991946977686754,0.10914446942506804,0.6999197385768157,24.0,0.6469862332712721
203,2011-08-20,STORE_2_043,0.0,0,0,0.0,0.0,0.0,0.0,0.0,0.0,,0.0,0.057991946977686754,0.43728395061728426,4.0,0.25555555555555554,0.0,0.0,4.0,0.0,0.0,0.0,0.057991946977686754,0.10914446942506804,0.6960742423129057,23.0,0.6469692622213348
204,2011-08-21,STORE_2_043,0.0,0,0,0.0,0.0,0.0,0.0,0.0,0.0,,0.0,0.0,0.4372839506172843,4.0,0.25555555555555554,0.0,0.0,4.0,0.0,0.0,0.0,0.057991946977686754,0.10914446942506804,0.6960742423129057,23.0,0.6469522911713974
205,2011-08-22,STORE_2_043,0.0,0,0,0.0,0.0,0.0,0.0,0.0,0.0,,0.0,0.10914446942506804,0.4044444444444442,4.0,0.23333333333333334,0.0,0.0,4.0,0.0,0.0,0.0,0.057991946977686754,0.10914446942506804,0.6712390019604113,21.0,0.64693532012146
206,2011-08-23,STORE_2_043,0.0,0,0,0.0,0.0,0.0,0.0,0.0,0.0,,0.0,0.0,0.4044444444444442,4.0,0.23333333333333334,0.0,0.0,4.0,0.0,0.0,0.0,0.057991946977686754,0.10914446942506804,0.6712390019604113,21.0,0.6469183490715227
207,2011-08-24,STORE_2_043,0.0,0,0,0.0,0.0,0.0,0.0,0.10914446942506804,0.0,,0.0,0.0,0.4044444444444443,4.0,0.23333333333333334,0.0,0.0,4.0,0.0,0.0,0.0,0.057991946977686754,0.10914446942506804,0.6712390019604113,21.0,0.6469013780215854
208,2011-08-25,STORE_2_043,0.0,0,0,0.0,0.0,0.0,0.0,0.0,0.0,,0.0,0.10914446942506804,0.3706172839506171,4.0,0.2111111111111111,0.0,0.0,4.0,0.0,0.0,0.0,0.057991946977686754,0.10914446942506804,0.6446747188571793,19.0,0.6468844069716481
209,2011-08-26,STORE_2_043,0.0,0,0,0.0,0.0,0.0,0.0,0.057991946977686754,0.0,,0.0,0.0,0.3706172839506171,4.0,0.2111111111111111,0.0,0.0,4.0,0.0,0.0,0.0,0.057991946977686754,0.10914446942506804,0.6446747188571793,19.0,0.6468674359217107
210,2011-08-27,STORE_2_043,0.0,0,0,0.0,0.0,0.0,0.0,0.0,0.0,,0.0,0.10914446942506804,0.33580246913580236,4.0,0.18888888888888888,0.0,0.0,4.0,0.0,0.0,0.0,0.057991946977686754,0.08612583432374632,0.6161578019905353,17.0,0.6468504648717734
211,2011-08-28,STORE_2_043,0.0,0,0,0.0,0.0,0.0,0.0,0.057991946977686754,0.0,,0.0,0.0,0.33580246913580236,4.0,0.18888888888888888,0.0,0.0,4.0,0.0,0.0,0.0,0.057991946977686754,0.08612583432374632,0.6161578019905353,17.0,0.6468334938218361
212,2011-08-29,STORE_2_043,0.0,0,0,0.0,0.0,0.0,0.0,0.0,0.057991946977686754,,0.0,0.057991946977686754,0.3199999999999998,4.0,0.17777777777777778,0.0,0.0,4.0,0.0,0.0,0.0,0.005799194697769169,0.08612583432374632,0.6103559060784896,16.0,0.6468165227718987
213,2011-08-30,STORE_2_043,0.0,0,0,0.0,0.0,0.0,0.0,0.0,0.0,,0.0,0.10914446942506804,0.28345679012345665,4.0,0.15555555555555556,0.0,0.0,4.0,0.0,0.0,0.0,0.0,0.057991946977686754,0.5788619425772389,14.0,0.6467995517219614
214,2011-08-31,STORE_2_043,0.0,0,0,0.0,0.0,0.0,0.0,0.0,0.0,,0.0,0.10914446942506804,0.24592592592592588,4.0,0.13333333333333333,0.0,0.0,4.0,0.0,0.0,0.0,0.0,0.057991946977686754,0.5446367720629465,12.0,0.646782580672024
215,2011-09-01,STORE_2_043,0.0,0,0,0.0,0.0,0.0,0.0,0.10914446942506804,0.0,,0.0,0.0,0.24592592592592588,4.0,0.13333333333333333,0.0,0.0,4.0,0.0,0.0,0.0,0.0,0.057991946977686754,0.5446367720629465,12.0,0.6467656096220866
216,2011-09-02,STORE_2_043,0.0,0,0,0.0,0.0,0.0,0.0,0.0,0.0,,0.0,0.0,0.24592592592592588,4.0,0.13333333333333333,0.0,0.0,4.0,0.0,0.0,0.0,0.0,0.057991946977686754,0.5446367720629466,12.0,0.6467486385721493
217,2011-09-03,STORE_2_043,0.0,0,0,0.0,0.0,0.0,0.0,0.0,0.0,,0.0,0.0,0.24592592592592588,4.0,0.13333333333333333,0.0,0.0,4.0,0.0,0.0,0.0,0.0,0.057991946977686754,0.5446367720629465,12.0,0.646731667522212
218,2011-09-04,STORE_2_043,0.0,0,0,0.0,0.0,0.0,0.0,0.10914446942506804,0.0,,0.0,0.0,0.24592592592592588,4.0,0.13333333333333333,0.0,0.0,4.0,0.0,0.0,0.0,0.0,0.057991946977686754,0.5446367720629466,12.0,0.6467146964722746
219,2011-09-05,STORE_2_043,0.0,1,0,0.0,0.0,0.0,0.0,0.057991946977686754,0.0,,0.0,0.0,0.24592592592592588,4.0,0.13333333333333333,0.0,0.0,4.0,0.0,0.0,0.0,0.0,0.057991946977686754,0.5446367720629466,12.0,0.6466977254223373
220,2011-09-06,STORE_2_043,0.0,0,0,0.0,0.0,0.0,0.0,0.10914446942506804,0.0,,0.0,0.0,0.2459259259259259,4.0,0.13333333333333333,0.0,0.0,4.0,0.0,0.0,0.0,0.0,0.057991946977686754,0.5446367720629466,12.0,0.6466807543724
221,2011-09-07,STORE_2_043,0.0,0,0,0.0,0.0,0.0,0.0,0.0,0.0,,0.0,0.0,0.2459259259259259,4.0,0.13333333333333333,0.0,0.0,4.0,0.0,0.0,0.0,0.0,0.057991946977686754,0.5446367720629466,12.0,0.6466637833224627
222,2011-09-08,STORE_2_043,0.0,0,0,0.0,0.0,0.0,0.0,0.0,0.0,,0.0,0.1962946451439682,0.16592592592592578,2.0,0.08888888888888889,0.0,0.0,2.0,0.0,0.0,0.0,0.0,0.057991946977686754,0.35614807059671516,8.0,0.6466468122725253
223,2011-09-09,STORE_2_043,0.0,0,0,0.0,0.0,0.0,0.0,0.10914446942506804,0.0,,0.0,0.0,0.1659259259259258,2.0,0.08888888888888889,0.0,0.0,2.0,0.0,0.0,0.0,0.0,0.057991946977686754,0.35614807059671516,8.0,0.6466298412225879
224,2011-09-10,STORE_2_043,0.0,0,0,0.0,0.0,0.0,0.0,0.0,0.0,,0.0,0.10914446942506804,0.12592592592592586,2.0,0.06666666666666667,0.0,0.0,2.0,0.0,0.0,0.0,0.0,0.03189557083772755,0.29222124910239894,6.0,0.6466128701726506
225,2011-09-11,STORE_2_043,0.0,0,0,0.0,0.0,0.0,0.0,0.0,0.0,,0.0,0.0,0.12592592592592586,2.0,0.06666666666666667,0.0,0.0,2.0,0.0,0.0,0.0,0.0,0.03189557083772755,0.29222124910239894,6.0,0.6465958991227132
226,2011-09-12,STORE_2_043,0.0,0,0,0.0,0.0,0.0,0.0,0.0,0.0,,0.0,0.0,0.12592592592592586,2.0,0.06666666666666667,0.0,0.0,2.0,0.0,0.0,0.0,0.0,0.03189557083772755,0.29222124910239894,6.0,0.6465789280727758
227,2011-09-13,STORE_2_043,0.0,0,0,0.0,0.0,0.0,0.0,0.0,0.0,,0.0,0.0,0.12592592592592586,2.0,0.06666666666666667,0.0,0.0,2.0,0.0,0.0,0.0,0.0,0.03189557083772755,0.292221249102399,6.0,0.6465619570228385
228,2011-09-14,STORE_2_043,0.0,0,0,0.0,0.0,0.0,0.0,0.0,0.0,,0.0,0.057991946977686754,0.10617283950617273,2.0,0.05555555555555555,0.0,0.0,2.0,0.0,0.0,0.0,0.0,0.0,0.2748282859651492,5.0,0.6465449859729012
229,2011-09-15,STORE_2_043,0.0,0,0,0.0,0.0,0.0,0.0,0.0,0.0,,0.0,0.057991946977686754,0.08592592592592586,2.0,0.044444444444444446,0.0,0.0,2.0,0.0,0.0,0.0,0.0,0.0,0.2557698715955029,4.0,0.6465280149229639
230,2011-09-16,STORE_2_043,0.0,0,0,0.0,0.0,0.0,0.0,0.057991946977686754,0.0,,0.0,0.10914446942506804,0.04345679012345676,1.0,0.022222222222222223,0.0,0.0,1.0,0.0,0.0,0.0,0.0,0.0,0.14823135407896973,2.0,0.6465110438730266
231,2011-09-17,STORE_2_043,0.0,0,0,0.0,0.0,0.0,0.0,0.0,0.0,,0.0,0.0,0.04345679012345676,1.0,0.022222222222222223,0.0,0.0,1.0,0.0,0.0,0.0,0.0,0.0,0.14823135407896973,2.0,0.6464940728230892
232,2011-09-18,STORE_2_043,0.0,0,0,0.0,0.0,0.0,0.0,0.0,0.0,,0.0,0.0,0.04345679012345676,1.0,0.022222222222222223,0.0,0.0,1.0,0.0,0.0,0.0,0.0,0.0,0.14823135407896973,2.0,0.6464771017731519
233,2011-09-19,STORE_2_043,0.0,0,0,0.0,0.0,0.0,0.0,0.057991946977686754,0.0,,0.0,0.0,0.04345679012345676,1.0,0.022222222222222223,0.0,0.0,1.0,0.0,0.0,0.0,0.0,0.0,0.14823135407896973,2.0,0.6464601307232145
234,2011-09-20,STORE_2_043,0.0,0,0,0.0,0.0,0.0,0.0,0.0,0.0,,0.0,0.057991946977686754,0.02197530864197529,1.0,0.011111111111111112,0.0,0.0,1.0,0.0,0.0,0.0,0.0,0.0,0.10540925533894605,1.0,0.6464431596732771
235,2011-09-21,STORE_2_043,0.0,0,0,0.0,0.0,0.0,0.0,0.057991946977686754,0.0,,0.0,0.0,0.02197530864197529,1.0,0.011111111111111112,0.0,0.0,1.0,0.0,0.0,0.0,0.0,0.0,0.10540925533894605,1.0,0.6464261886233398
236,2011-09-22,STORE_2_043,0.0,0,0,0.0,0.0,0.0,0.0,0.15490195998574313,0.0,,0.0,0.0,0.02197530864197529,1.0,0.011111111111111112,0.0,0.0,1.0,0.0,0.0,0.0,0.0,0.0,0.10540925533894605,1.0,0.6464092175734024
237,2011-09-23,STORE_2_043,0.0,0,0,0.0,0.0,0.0,0.0,0.057991946977686754,0.0,,0.0,0.0,0.02197530864197529,1.0,0.011111111111111112,0.0,0.0,1.0,0.0,0.0,0.0,0.0,0.0,0.10540925533894603,1.0,0.646392246523465
238,2011-09-24,STORE_2_043,0.0,0,0,0.0,0.0,0.0,0.0,0.0,0.0,,0.0,0.0,0.02197530864197529,1.0,0.011111111111111112,0.0,0.0,1.0,0.0,0.0,0.0,0.0,0.0,0.10540925533894603,1.0,0.6463752754735278
239,2011-09-25,STORE_2_043,0.0,0,0,0.0,0.0,0.0,0.0,0.057991946977686754,0.0,,0.0,0.0,0.02197530864197529,1.0,0.011111111111111112,0.0,0.0,1.0,0.0,0.0,0.0,0.0,0.0,0.10540925533894603,1.0,0.6463583044235904
240,2011-09-26,STORE_2_043,0.0,0,0,0.0,0.0,0.0,0.0,0.0,0.0,,0.0,0.0,0.02197530864197529,1.0,0.011111111111111112,0.0,0.0,1.0,0.0,0.0,0.0,0.0,0.0,0.10540925533894603,1.0,0.6463413333736531
241,2011-09-27,STORE_2_043,0.0,0,0,0.0,0.0,0.0,0.0,0.1962946451439682,0.0,,0.0,0.0,0.02197530864197529,1.0,0.011111111111111112,0.0,0.0,1.0,0.0,0.0,0.0,0.0,0.0,0.10540925533894603,1.0,0.6463243623237158
242,2011-09-28,STORE_2_043,0.0,0,0,0.0,0.0,0.0,0.0,0.0,0.0,,0.0,0.0,0.02197530864197529,1.0,0.011111111111111112,0.0,0.0,1.0,0.0,0.0,0.0,0.0,0.0,0.10540925533894603,1.0,0.6463073912737785
243,2011-09-29,STORE_2_043,0.0,0,0,0.0,0.0,0.0,0.0,0.0,0.0,,0.0,0.0,0.02197530864197529,1.0,0.011111111111111112,0.0,0.0,1.0,0.0,0.0,0.0,0.0,0.0,0.10540925533894603,1.0,0.6462904202238411
244,2011-09-30,STORE_2_043,0.0,0,0,0.0,0.0,0.0,0.0,0.057991946977686754,0.0,,0.0,0.0,0.02197530864197529,1.0,0.011111111111111112,0.0,0.0,1.0,0.0,0.0,0.0,0.0,0.0,0.10540925533894603,1.0,0.6462734491739037
245,2011-10-01,STORE_2_043,0.0,0,0,0.0,0.0,0.0,0.0,0.0,0.0,,0.0,0.0,0.02197530864197529,1.0,0.011111111111111112,0.0,0.0,1.0,0.0,0.0,0.0,0.0,0.0,0.10540925533894603,1.0,0.6462564781239664
246,2011-10-02,STORE_2_043,0.0,0,0,0.0,0.0,0.0,0.0,0.15490195998574313,0.0,,0.0,0.0,0.02197530864197529,1.0,0.011111111111111112,0.0,0.0,1.0,0.0,0.0,0.0,0.0,0.0,0.10540925533894603,1.0,0.646239507074029
247,2011-10-03,STORE_2_043,0.0,0,0,0.0,0.0,0.0,0.0,0.0,0.0,,0.0,0.0,0.02197530864197529,1.0,0.011111111111111112,0.0,0.0,1.0,0.0,0.0,0.0,0.0,0.0,0.10540925533894603,1.0,0.6462225360240916
248,2011-10-04,STORE_2_043,0.0,0,0,0.0,0.0,0.0,0.0,0.0,0.0,,0.0,0.0,0.02197530864197529,1.0,0.011111111111111112,0.0,0.0,1.0,0.0,0.0,0.0,0.0,0.0,0.10540925533894602,1.0,0.6462055649741543
249,2011-10-05,STORE_2_043,0.0,0,0,0.0,0.0,0.0,0.0,0.0,0.0,,0.0,0.0,0.02197530864197529,1.0,0.011111111111111112,0.0,0.0,1.0,0.0,0.0,0.0,0.0,0.0,0.10540925533894602,1.0,0.646188593924217
250,2011-10-06,STORE_2_043,1.0,0,0,0.057991946977686754,0.057991946977686754,0.0,0.0,0.0,0.0,,0.0,0.0,0.04345679012345671,1.0,0.022222222222222223,0.0,0.0,1.0,0.0,0.0,0.0,0.0,0.0,0.14823135407896967,2.0,0.6461716228742796
251,2011-10-07,STORE_2_043,0.0,0,0,-0.057991946977686754,-0.11598389395537351,0.057991946977686754,0.0,0.10914446942506804,0.0,,0.0,0.0,0.04345679012345671,1.0,0.022222222222222223,0.0,0.0,1.0,0.0,0.0,0.0,0.0,0.0,0.14823135407896967,2.0,0.6461546518243424
252,2011-10-08,STORE_2_043,0.0,0,0,0.0,0.057991946977686754,0.0,0.0,0.0,0.0,,0.0,0.0,0.04345679012345671,1.0,0.022222222222222223,0.0,0.0,1.0,0.0,0.0,0.0,0.0,0.0,0.14823135407896967,2.0,0.646137680774405
253,2011-10-09,STORE_2_043,0.0,0,0,0.0,0.0,0.0,0.0,0.0,0.0,,0.0,0.0,0.04345679012345672,1.0,0.022222222222222223,0.0,0.0,1.0,0.0,0.0,0.0,0.0,0.0,0.1482313540789697,2.0,0.6461207097244677
254,2011-10-10,STORE_2_043,0.0,1,0,0.0,0.0,0.0,0.0,0.10914446942506804,0.0,,0.0,0.0,0.04345679012345672,1.0,0.022222222222222223,0.0,0.0,1.0,0.0,0.0,0.0,0.0,0.0,0.1482313540789697,2.0,0.6461037386745303
255,2011-10-11,STORE_2_043,0.0,0,0,0.0,0.0,0.0,0.0,0.0,0.0,,0.0,0.0,0.04345679012345672,1.0,0.022222222222222223,0.0,0.0,1.0,0.0,0.0,0.0,0.0,0.0,0.1482313540789697,2.0,0.6460867676245929
256,2011-10-12,STORE_2_043,2.999999999999999,0,0,0.15490195998574313,0.15490195998574313,0.0,0.0,0.10914446942506804,0.0,,0.0,0.0,0.10740740740740723,3.0,0.05555555555555555,0.0,0.0,3.0,0.0,0.0,0.0,0.0,0.0,0.34709423358975816,5.0,0.6460697965746556
257,2011-10-13,STORE_2_043,0.0,0,0,-0.15490195998574313,-0.30980391997148626,0.15490195998574313,0.0,0.057991946977686754,0.0,,0.057991946977686754,0.0,0.10740740740740723,3.0,0.05555555555555555,0.0,0.0,3.0,0.0,0.0,0.0,0.0,0.0,0.34709423358975816,5.0,0.6460528255247182
258,2011-10-14,STORE_2_043,0.0,0,0,0.0,0.15490195998574313,0.0,0.0,0.0,0.0,,0.0,0.0,0.10740740740740723,3.0,0.05555555555555555,0.0,0.0,3.0,0.0,0.0,0.0,0.0,0.0,0.3470942335897581,5.0,0.6460358544747808
259,2011-10-15,STORE_2_043,2.0000000000000004,0,0,0.10914446942506804,0.10914446942506804,0.0,0.0,0.057991946977686754,0.0,,0.0,0.0,0.14864197530864173,3.0,0.07777777777777778,0.0,0.0,3.0,0.0,0.0,0.0,0.0,0.0,0.40301609463436144,7.0,0.6460188834248436
260,2011-10-16,STORE_2_043,1.0,0,0,-0.05115252244738129,-0.16029699187244933,0.10914446942506804,0.0,0.0,0.0,,0.0,0.0,0.16790123456790096,3.0,0.08888888888888889,0.0,0.0,3.0,0.0,0.0,0.0,0.0,0.03189557083772755,0.41446986430195637,8.0,0.6460019123749062
261,2011-10-17,STORE_2_043,2.999999999999999,0,0,0.09691001300805638,0.14806253545543768,0.057991946977686754,0.0,0.0,0.0,,0.0,0.0,0.22814814814814832,3.0,0.12222222222222222,0.0,0.0,3.0,0.0,0.0,0.0,0.0,0.057991946977686754,0.5155509276988884,11.0,0.6459849413249689
262,2011-10-18,STORE_2_043,2.0000000000000004,0,0,-0.04575749056067509,-0.14266750356873148,0.15490195998574313,0.0,0.057991946977686754,0.0,,0.0,0.0,0.26641975308642024,3.0,0.14444444444444443,0.0,0.0,3.0,0.0,0.0,0.0,0.0,0.057991946977686754,0.5520362940175317,13.0,0.6459679702750316
263,2011-10-19,STORE_2_043,2.0000000000000004,0,0,0.0,0.04575749056067509,0.10914446942506804,0.0,0.0,0.0,,0.15490195998574313,0.0,0.3037037037037044,3.0,0.16666666666666666,0.0,0.0,3.0,0.0,0.0,0.0,0.0,0.08612583432374632,0.58540296310617,15.0,0.6459509992250942
264,2011-10-20,STORE_2_043,0.0,0,0,-0.10914446942506804,-0.10914446942506804,0.10914446942506804,0.057991946977686754,0.1962946451439682,0.0,,0.0,0.0,0.3037037037037044,3.0,0.16666666666666666,0.0,0.0,3.0,0.0,0.0,0.0,0.0,0.08612583432374632,0.58540296310617,15.0,0.6459340281751569
265,2011-10-21,STORE_2_043,1.0,0,0,0.057991946977686754,0.16713641640275478,0.0,0.0,0.057991946977686754,0.0,,0.0,0.0,0.3199999999999995,3.0,0.17777777777777778,0.0,0.0,3.0,0.0,0.0,0.0,0.005799194697769169,0.08612583432374632,0.591660732153601,16.0,0.6459170571252195
266,2011-10-22,STORE_2_043,1.0,0,0,0.0,-0.057991946977686754,0.057991946977686754,0.0,0.0,0.0,,0.10914446942506804,0.0,0.33580246913580325,3.0,0.18888888888888888,0.0,0.0,3.0,0.0,0.0,0.0,0.057991946977686754,0.08612583432374632,0.5976441473330494,17.0,0.6459000860752822
267,2011-10-23,STORE_2_043,1.0,0,0,0.0,0.0,0.057991946977686754,0.0,0.0,0.0,,0.057991946977686754,0.0,0.35111111111111054,3.0,0.2,0.0,0.0,3.0,0.0,0.0,0.0,0.057991946977686754,0.08612583432374632,0.6033613708385912,18.0,0.6458831150253448
268,2011-10-24,STORE_2_043,1.0,0,0,0.0,0.0,0.057991946977686754,0.0,0.057991946977686754,0.0,,0.15490195998574313,0.0,0.3659259259259266,3.0,0.2111111111111111,0.0,0.0,3.0,0.0,0.0,0.0,0.057991946977686754,0.08612583432374632,0.6088199018666063,19.0,0.6458661439754074
269,2011-10-25,STORE_2_043,1.0,0,0,0.0,0.0,0.057991946977686754,0.0,0.057991946977686754,0.0,,0.10914446942506804,0.0,0.38024691358024626,3.0,0.2222222222222222,0.0,0.0,3.0,0.0,0.0,0.0,0.057991946977686754,0.08612583432374632,0.614026639574673,20.0,0.6458491729254701
270,2011-10-26,STORE_2_043,0.0,0,0,-0.057991946977686754,-0.057991946977686754,0.057991946977686754,0.15490195998574313,0.057991946977686754,0.0,,0.10914446942506804,0.0,0.38024691358024626,3.0,0.2222222222222222,0.0,0.0,3.0,0.0,0.0,0.0,0.057991946977686754,0.08612583432374632,0.6140266395746729,20.0,0.6458322018755328
271,2011-10-27,STORE_2_043,0.0,0,0,0.0,0.057991946977686754,0.0,0.0,0.057991946977686754,0.0,,0.0,0.0,0.38024691358024637,3.0,0.2222222222222222,0.0,0.0,3.0,0.0,0.0,0.0,0.057991946977686754,0.08612583432374632,0.6140266395746729,20.0,0.6458152308255954
272,2011-10-28,STORE_2_043,0.0,0,0,0.0,0.0,0.0,0.0,0.0,0.0,,0.057991946977686754,0.057991946977686754,0.36592592592592654,3.0,0.2111111111111111,0.0,0.0,3.0,0.0,0.0,0.0,0.057991946977686754,0.08612583432374632,0.6088199018666057,19.0,0.6457982597756582
273,2011-10-29,STORE_2_043,0.0,0,0,0.0,0.0,0.0,0.10914446942506804,0.0,0.0,,0.057991946977686754,0.0,0.36592592592592654,3.0,0.2111111111111111,0.0,0.0,3.0,0.0,0.0,0.0,0.057991946977686754,0.08612583432374632,0.6088199018666057,19.0,0.6457812887257208
274,2011-10-30,STORE_2_043,2.0000000000000004,0,0,0.10914446942506804,0.10914446942506804,0.0,0.057991946977686754,0.0,0.0,,0.057991946977686754,0.0,0.3992592592592599,3.0,0.23333333333333334,0.0,0.0,3.0,0.0,0.0,0.0,0.057991946977686754,0.10914446942506804,0.6368814469962901,21.0,0.6457643176757835
275,2011-10-31,STORE_2_043,2.0000000000000004,0,0,0.0,-0.10914446942506804,0.10914446942506804,0.15490195998574313,0.0,0.0,,0.057991946977686754,0.0,0.4316049382716045,3.0,0.25555555555555554,0.0,0.0,3.0,0.0,0.0,0.0,0.057991946977686754,0.10914446942506804,0.6630049250094339,23.0,0.6457473466258461
276,2011-11-01,STORE_2_043,2.0000000000000004,0,0,0.0,0.0,0.10914446942506804,0.10914446942506804,0.0,0.0,,0.057991946977686754,0.0,0.46296296296296346,3.0,0.2777777777777778,0.0,0.0,3.0,0.0,0.0,0.0,0.057991946977686754,0.10914446942506804,0.6874113267068648,25.0,0.6457303755759087
277,2011-11-02,STORE_2_043,0.0,0,0,-0.10914446942506804,-0.10914446942506804,0.10914446942506804,0.10914446942506804,0.0,0.0,,0.0,0.0,0.46296296296296346,3.0,0.2777777777777778,0.0,0.0,3.0,0.0,0.0,0.0,0.057991946977686754,0.10914446942506804,0.6874113267068648,25.0,0.6457134045259714
278,2011-11-03,STORE_2_043,1.0,0,0,0.057991946977686754,0.16713641640275478,0.0,0.0,0.0,0.0,,0.0,0.0,0.4750617283950625,3.0,0.28888888888888886,0.0,0.0,3.0,0.0,0.0,0.0,0.057991946977686754,0.10914446942506804,0.6909437357285843,26.0,0.645696433476034
279,2011-11-04,STORE_2_043,2.0000000000000004,0,0,0.05115252244738129,-0.006839424530305463,0.057991946977686754,0.057991946977686754,0.0,0.0,,0.0,0.0,0.5046913580246906,3.0,0.3111111111111111,0.0,0.0,3.0,0.0,0.0,0.0,0.06310719922242532,0.10914446942506804,0.7133469843630632,28.0,0.6456794624260966
280,2011-11-05,STORE_2_043,1.0,0,0,-0.05115252244738129,-0.10230504489476258,0.10914446942506804,0.057991946977686754,0.057991946977686754,0.057991946977686754,,0.0,0.0,0.515555555555556,3.0,0.32222222222222224,0.0,0.0,3.0,0.0,0.0,0.0,0.06310719922242532,0.10914446942506804,0.7162288532914198,29.0,0.6456624913761594
281,2011-11-06,STORE_2_043,0.0,0,0,-0.057991946977686754,-0.006839424530305463,0.057991946977686754,0.057991946977686754,0.0,0.0,,0.10914446942506804,0.0,0.515555555555556,3.0,0.32222222222222224,0.0,0.0,3.0,0.0,0.0,0.0,0.06310719922242532,0.10914446942506804,0.7162288532914198,29.0,0.645645520326222
282,2011-11-07,STORE_2_043,2.999999999999999,0,0,0.15490195998574313,0.21289390696342989,0.0,0.057991946977686754,0.0,0.0,,0.10914446942506804,0.0,0.5609876543209869,3.0,0.35555555555555557,0.0,0.0,3.0,0.0,0.0,0.0,0.10914446942506804,0.10914446942506804,0.7689349282255236,32.0,0.6456285492762847
283,2011-11-08,STORE_2_043,2.999999999999999,0,0,0.0,-0.15490195998574313,0.15490195998574313,0.057991946977686754,0.0,0.0,,0.10914446942506804,0.0,0.6049382716049364,3.0,0.3888888888888889,0.0,0.0,3.0,0.0,0.0,0.0,0.10914446942506804,0.10914446942506804,0.8168787464440542,35.0,0.6456115782263474
284,2011-11-09,STORE_2_043,2.0000000000000004,0,0,-0.04575749056067509,-0.04575749056067509,0.15490195998574313,0.0,0.057991946977686754,0.0,,0.0,0.0,0.6303703703703706,3.0,0.4111111111111111,0.0,0.0,3.0,0.0,0.0,0.0,0.10914446942506804,0.10914446942506804,0.83322096620695,37.0,0.64559460717641
285,2011-11-10,STORE_2_043,2.0000000000000004,0,0,0.0,0.04575749056067509,0.10914446942506804,0.0,0.057991946977686754,0.0,,0.057991946977686754,0.0,0.6548148148148126,3.0,0.43333333333333335,0.0,0.0,3.0,0.0,0.0,0.0,0.10914446942506804,0.10914446942506804,0.8486605440935274,39.0,0.6455776361264727
286,2011-11-11,STORE_2_043,0.0,1,0,-0.10914446942506804,-0.10914446942506804,0.10914446942506804,0.0,0.057991946977686754,0.15490195998574313,,0.10914446942506804,0.0,0.6548148148148127,3.0,0.43333333333333335,0.0,0.0,3.0,0.0,0.0,0.0,0.10914446942506804,0.10914446942506804,0.8486605440935273,39.0,0.6455606650765353
287,2011-11-12,STORE_2_043,1.0,0,0,0.057991946977686754,0.16713641640275478,0.0,0.0,0.0,0.0,,0.057991946977686754,0.0,0.6617283950617274,3.0,0.4444444444444444,0.0,0.0,3.0,0.0,0.0,0.043493960233265065,0.10914446942506804,0.10914446942506804,0.8494692475286433,40.0,0.645543694026598
288,2011-11-13,STORE_2_043,2.0000000000000004,0,0,0.05115252244738129,-0.006839424530305463,0.057991946977686754,0.10914446942506804,0.0,0.0,,0.0,0.0,0.6844444444444455,3.0,0.4666666666666667,0.0,0.0,3.0,0.0,0.0,0.057991946977686754,0.10914446942506804,0.10914446942506804,0.8637519410862918,42.0,0.6455267229766606
289,2011-11-14,STORE_2_043,0.0,0,0,-0.10914446942506804,-0.16029699187244933,0.10914446942506804,0.10914446942506804,0.057991946977686754,0.10914446942506804,,0.15490195998574313,0.0,0.6844444444444455,3.0,0.4666666666666667,0.0,0.0,3.0,0.0,0.0,0.057991946977686754,0.10914446942506804,0.10914446942506804,0.8637519410862918,42.0,0.6455097519267232
290,2011-11-15,STORE_2_043,2.0000000000000004,0,0,0.10914446942506804,0.2182889388501361,0.0,0.10914446942506804,0.0,0.057991946977686754,,0.15490195998574313,0.0,0.7061728395061719,3.0,0.4888888888888889,0.0,0.0,3.0,0.0,0.0,0.057991946977686754,0.10914446942506804,0.10914446942506804,0.8772331944262299,44.0,0.645492780876786
291,2011-11-16,STORE_2_043,1.0,0,0,-0.05115252244738129,-0.16029699187244933,0.10914446942506804,0.0,0.057991946977686754,0.15490195998574313,,0.10914446942506804,0.0,0.7111111111111111,3.0,0.5,0.0,0.0,3.0,0.0,0.0,0.057991946977686754,0.10914446942506804,0.10914446942506804,0.877304349327139,45.0,0.6454758098268486
292,2011-11-17,STORE_2_043,1.0,0,0,0.0,0.05115252244738129,0.057991946977686754,0.057991946977686754,0.10914446942506804,0.10914446942506804,,0.10914446942506804,0.0,0.7155555555555564,3.0,0.5111111111111111,0.0,0.0,3.0,0.0,0.0,0.057991946977686754,0.10914446942506804,0.10914446942506804,0.8772331944262294,46.0,0.6454588387769112
293,2011-11-18,STORE_2_043,4.999999999999999,0,0,0.17609125905568118,0.17609125905568118,0.057991946977686754,0.10914446942506804,0.057991946977686754,0.10914446942506804,,0.0,0.0,0.7807407407407416,5.0,0.5666666666666667,0.0,0.0,5.0,0.0,0.0,0.057991946977686754,0.10914446942506804,0.1343110892334392,0.9949309727058636,51.0,0.645441867726974
294,2011-11-19,STORE_2_043,0.0,0,0,-0.23408320603336794,-0.4101744650890491,0.23408320603336794,0.057991946977686754,0.0,0.0,,0.057991946977686754,0.0,0.7807407407407416,5.0,0.5666666666666667,0.0,0.0,5.0,0.0,0.0,0.057991946977686754,0.10914446942506804,0.1343110892334392,0.9949309727058637,51.0,0.6454248966770366
295,2011-11-20,STORE_2_043,1.0,0,0,0.057991946977686754,0.2920751530110547,0.0,0.0,0.10914446942506804,0.057991946977686754,,0.10914446942506804,0.0,0.7832098765432097,5.0,0.5777777777777777,0.0,0.0,5.0,0.0,0.0,0.057991946977686754,0.10914446942506804,0.1343110892334392,0.9941150180756474,52.0,0.6454079256270993
296,2011-11-21,STORE_2_043,1.0,0,0,0.0,-0.057991946977686754,0.057991946977686754,0.15490195998574313,0.0,0.057991946977686754,,0.0,0.0,0.7851851851851851,5.0,0.5888888888888889,0.0,0.0,5.0,0.0,0.0,0.057991946977686754,0.10914446942506804,0.1343110892334392,0.9931726989741074,53.0,0.6453909545771619
297,2011-11-22,STORE_2_043,0.0,0,0,-0.057991946977686754,-0.057991946977686754,0.057991946977686754,0.15490195998574313,0.0,0.057991946977686754,,0.10914446942506804,0.0,0.7851851851851851,5.0,0.5888888888888889,0.0,0.0,5.0,0.0,0.0,0.057991946977686754,0.10914446942506804,0.1343110892334392,0.9931726989741074,53.0,0.6453739835272245
298,2011-11-23,STORE_2_043,1.0,0,0,0.057991946977686754,0.11598389395537351,0.0,0.10914446942506804,0.10914446942506804,0.057991946977686754,,0.057991946977686754,0.0,0.7866666666666663,5.0,0.6,0.0,0.0,5.0,0.0,0.0,0.057991946977686754,0.10914446942506804,0.1343110892334392,0.9921036553311089,54.0,0.6453570124772872
299,2011-11-24,STORE_2_043,0.0,1,0,-0.057991946977686754,-0.11598389395537351,0.057991946977686754,0.10914446942506804,0.0,0.057991946977686754,,0.057991946977686754,0.0,0.7866666666666663,5.0,0.6,0.0,0.0,5.0,0.0,0.0,0.057991946977686754,0.10914446942506804,0.1343110892334392,0.9921036553311089,54.0,0.6453400414273498
300,2011-11-25,STORE_2_043,0.0,0,0,0.0,0.057991946977686754,0.0,0.0,0.10914446942506804,0.0,,0.23408320603336794,0.0,0.7866666666666663,5.0,0.6,0.0,0.0,5.0,0.0,0.0,0.057991946977686754,0.10914446942506804,0.1343110892334392,0.9921036553311089,54.0,0.6453230703774124
301,2011-11-26,STORE_2_043,0.0,0,0,0.0,0.0,0.0,0.057991946977686754,0.0,0.0,,0.0,0.0,0.7866666666666663,5.0,0.6,0.0,0.0,5.0,0.0,0.0,0.057991946977686754,0.10914446942506804,0.1343110892334392,0.9921036553311089,54.0,0.6453060993274752
302,2011-11-27,STORE_2_043,1.0,0,0,0.057991946977686754,0.057991946977686754,0.0,0.10914446942506804,0.057991946977686754,0.0,,0.057991946977686754,0.0,0.7876543209876555,5.0,0.6111111111111112,0.0,0.0,5.0,0.0,0.0,0.057991946977686754,0.10914446942506804,0.1343110892334392,0.9909074769952253,55.0,0.6452891282775378
303,2011-11-28,STORE_2_043,1.0,0,0,0.0,-0.057991946977686754,0.057991946977686754,0.0,0.10914446942506804,0.0,,0.057991946977686754,0.0,0.7881481481481474,5.0,0.6222222222222222,0.0,0.0,5.0,0.0,0.0,0.057991946977686754,0.10914446942506804,0.1343110892334392,0.9895837029370508,56.0,0.6452721572276006
304,2011-11-29,STORE_2_043,1.0,0,0,0.0,0.0,0.057991946977686754,0.10914446942506804,0.10914446942506804,0.10914446942506804,,0.0,0.0,0.7881481481481488,5.0,0.6333333333333333,0.0,0.0,5.0,0.0,0.0,0.057991946977686754,0.10914446942506804,0.1343110892334392,0.9881318203468707,57.0,0.6452551861776632
305,2011-11-30,STORE_2_043,0.0,0,0,-0.057991946977686754,-0.057991946977686754,0.057991946977686754,0.057991946977686754,0.0,0.10914446942506804,,0.057991946977686754,0.0,0.7881481481481488,5.0,0.6333333333333333,0.0,0.0,5.0,0.0,0.0,0.057991946977686754,0.10914446942506804,0.1343110892334392,0.9881318203468707,57.0,0.6452382151277258
306,2011-12-01,STORE_2_043,0.0,0,0,0.0,0.057991946977686754,0.0,0.057991946977686754,0.0,0.10914446942506804,,0.0,0.0,0.7881481481481488,5.0,0.6333333333333333,0.0,0.0,5.0,0.0,0.0,0.057991946977686754,0.10914446942506804,0.1343110892334392,0.9881318203468707,57.0,0.6452212440777885
307,2011-12-02,STORE_2_043,2.0000000000000004,0,0,0.10914446942506804,0.10914446942506804,0.0,0.23408320603336794,0.0,0.0,,0.0,0.0,0.8012345679012347,5.0,0.6555555555555556,0.0,0.0,5.0,0.0,0.0,0.057991946977686754,0.10914446942506804,0.1343110892334392,0.9961849824961279,59.0,0.6452042730278511
308,2011-12-03,STORE_2_043,0.0,0,0,-0.10914446942506804,-0.2182889388501361,0.10914446942506804,0.0,0.0,0.057991946977686754,,0.0,0.0,0.8012345679012346,5.0,0.6555555555555556,0.0,0.0,5.0,0.0,0.0,0.057991946977686754,0.10914446942506804,0.1343110892334392,0.9961849824961279,59.0,0.6451873019779137
309,2011-12-04,STORE_2_043,1.0,0,0,0.057991946977686754,0.16713641640275478,0.0,0.057991946977686754,0.0,0.10914446942506804,,0.057991946977686754,0.0,0.8,5.0,0.6666666666666666,0.0,0.0,5.0,0.0,0.0,0.057991946977686754,0.10914446942506804,0.1343110892334392,0.9943661523522508,60.0,0.6451703309279764
310,2011-12-05,STORE_2_043,2.0000000000000004,0,0,0.05115252244738129,-0.006839424530305463,0.057991946977686754,0.057991946977686754,0.0,0.057991946977686754,,0.057991946977686754,0.0,0.8113580246913573,5.0,0.6888888888888889,0.0,0.0,5.0,0.0,0.0,0.057991946977686754,0.10914446942506804,0.1343110892334392,1.0016216564011502,62.0,0.645153359878039
311,2011-12-06,STORE_2_043,0.0,0,0,-0.10914446942506804,-0.16029699187244933,0.10914446942506804,0.0,0.0,0.0,,0.057991946977686754,0.0,0.8113580246913573,5.0,0.6888888888888889,0.0,0.0,5.0,0.0,0.0,0.057991946977686754,0.10914446942506804,0.1343110892334392,1.0016216564011502,62.0,0.6451363888281018
312,2011-12-07,STORE_2_043,2.0000000000000004,0,0,0.10914446942506804,0.2182889388501361,0.0,0.057991946977686754,0.1962946451439682,0.15490195998574313,,0.0,0.0,0.8217283950617277,5.0,0.7111111111111111,0.0,0.0,5.0,0.0,0.0,0.057991946977686754,0.10914446942506804,0.1343110892334392,1.0083298511098449,64.0,0.6451194177781644
313,2011-12-08,STORE_2_043,0.0,0,0,-0.10914446942506804,-0.2182889388501361,0.10914446942506804,0.0,0.0,0.15490195998574313,,0.0,0.0,0.8217283950617277,5.0,0.7111111111111111,0.0,0.0,5.0,0.0,0.0,0.057991946977686754,0.10914446942506804,0.1343110892334392,1.0083298511098446,64.0,0.645102446728227
314,2011-12-09,STORE_2_043,0.0,0,0,0.0,0.10914446942506804,0.0,0.0,0.10914446942506804,0.10914446942506804,,0.10914446942506804,0.0,0.8217283950617277,5.0,0.7111111111111111,0.0,0.0,5.0,0.0,0.0,0.057991946977686754,0.10914446942506804,0.1343110892334392,1.0083298511098446,64.0,0.6450854756782898
315,2011-12-10,STORE_2_043,2.0000000000000004,0,0,0.10914446942506804,0.10914446942506804,0.0,0.0,0.0,0.10914446942506804,,0.0,0.0,0.8311111111111112,5.0,0.7333333333333333,0.0,0.0,5.0,0.0,0.0,0.057991946977686754,0.10914446942506804,0.1343110892334392,1.0145015934664996,66.0,0.6450685046283524
316,2011-12-11,STORE_2_043,2.0000000000000004,0,0,0.0,-0.10914446942506804,0.10914446942506804,0.057991946977686754,0.0,0.0,,0.057991946977686754,0.0,0.8395061728395068,5.0,0.7555555555555555,0.0,0.0,5.0,0.0,0.0,0.057991946977686754,0.10914446942506804,0.1343110892334392,1.020146619899505,68.0,0.645051533578415
317,2011-12-12,STORE_2_043,0.0,0,0,-0.10914446942506804,-0.10914446942506804,0.10914446942506804,0.057991946977686754,0.0,0.057991946977686754,,0.10914446942506804,0.0,0.8395061728395068,5.0,0.7555555555555555,0.0,0.0,5.0,0.0,0.0,0.057991946977686754,0.10914446942506804,0.1343110892334392,1.020146619899505,68.0,0.6450345625284777
318,2011-12-13,STORE_2_043,0.0,0,0,0.0,0.10914446942506804,0.0,0.057991946977686754,0.057991946977686754,0.10914446942506804,,0.0,0.0,0.8395061728395068,5.0,0.7555555555555555,0.0,0.0,5.0,0.0,0.0,0.057991946977686754,0.10914446942506804,0.1343110892334392,1.020146619899505,68.0,0.6450175914785403
319,2011-12-14,STORE_2_043,0.0,0,0,0.0,0.0,0.0,0.0,0.057991946977686754,0.0,,0.10914446942506804,0.0,0.8395061728395068,5.0,0.7555555555555555,0.0,0.0,5.0,0.0,0.0,0.057991946977686754,0.10914446942506804,0.1343110892334392,1.020146619899505,68.0,0.645000620428603
320,2011-12-15,STORE_2_043,2.0000000000000004,0,0,0.10914446942506804,0.10914446942506804,0.0,0.0,0.10914446942506804,0.10914446942506804,,0.0,0.0,0.8469135802469124,5.0,0.7777777777777778,0.0,0.0,5.0,0.0,0.0,0.057991946977686754,0.10914446942506804,0.1343110892334392,1.0252736305387704,70.0,0.6449836493786656
321,2011-12-16,STORE_2_043,0.0,0,0,-0.10914446942506804,-0.2182889388501361,0.10914446942506804,0.10914446942506804,0.0,0.057991946977686754,,0.0,0.0,0.8469135802469124,5.0,0.7777777777777778,0.0,0.0,5.0,0.0,0.0,0.057991946977686754,0.10914446942506804,0.1343110892334392,1.0252736305387706,70.0,0.6449666783287282
322,2011-12-17,STORE_2_043,0.0,0,0,0.0,0.10914446942506804,0.0,0.0,0.0,0.057991946977686754,,0.10914446942506804,0.0,0.8469135802469124,5.0,0.7777777777777778,0.0,0.0,5.0,0.0,0.0,0.057991946977686754,0.10914446942506804,0.1343110892334392,1.0252736305387706,70.0,0.644949707278791
323,2011-12-18,STORE_2_043,0.0,0,0,0.0,0.0,0.0,0.057991946977686754,0.0,0.23408320603336794,,0.10914446942506804,0.0,0.8469135802469124,5.0,0.7777777777777778,0.0,0.0,5.0,0.0,0.0,0.057991946977686754,0.10914446942506804,0.1343110892334392,1.0252736305387706,70.0,0.6449327362288536
324,2011-12-19,STORE_2_043,0.0,0,0,0.0,0.0,0.0,0.10914446942506804,0.057991946977686754,0.0,,0.0,0.0,0.8469135802469125,5.0,0.7777777777777778,0.0,0.0,5.0,0.0,0.0,0.057991946977686754,0.10914446942506804,0.1343110892334392,1.0252736305387706,70.0,0.6449157651789164
325,2011-12-20,STORE_2_043,0.0,0,0,0.0,0.0,0.0,0.0,0.0,0.057991946977686754,,0.0,0.0,0.8469135802469124,5.0,0.7777777777777778,0.0,0.0,5.0,0.0,0.0,0.057991946977686754,0.10914446942506804,0.1343110892334392,1.0252736305387706,70.0,0.644898794128979
326,2011-12-21,STORE_2_043,1.0,0,0,0.057991946977686754,0.057991946977686754,0.0,0.10914446942506804,0.0,0.057991946977686754,,0.0,0.0,0.8414814814814816,5.0,0.7888888888888889,0.0,0.0,5.0,0.0,0.0,0.057991946977686754,0.10914446942506804,0.1343110892334392,1.022163869582392,71.0,0.6448818230790416
327,2011-12-22,STORE_2_043,2.0000000000000004,0,0,0.05115252244738129,-0.006839424530305463,0.057991946977686754,0.0,0.0,0.0,,0.10914446942506804,0.0,0.8471604938271615,5.0,0.8111111111111111,0.0,0.0,5.0,0.0,0.0,0.09635633881322272,0.10914446942506804,0.1343110892334392,1.026551382213572,73.0,0.6448648520291043
328,2011-12-23,STORE_2_043,2.999999999999999,0,0,0.04575749056067509,-0.005395031886706203,0.10914446942506804,0.0,0.0,0.057991946977686754,,0.0,0.0,0.8632098765432109,5.0,0.8444444444444444,0.0,0.0,5.0,0.0,0.0,0.10914446942506804,0.10914446942506804,0.15490195998574313,1.048392146281399,76.0,0.6448478809791669
329,2011-12-24,STORE_2_043,0.0,0,0,-0.15490195998574313,-0.2006594505464182,0.15490195998574313,0.10914446942506804,0.0,0.0,,0.0,0.0,0.8632098765432109,5.0,0.8444444444444444,0.0,0.0,5.0,0.0,0.0,0.10914446942506804,0.10914446942506804,0.15490195998574313,1.048392146281399,76.0,0.6448309099292295
330,2011-12-25,STORE_2_043,0.0,1,0,0.0,0.15490195998574313,0.0,0.10914446942506804,0.0,0.0,,0.0,0.0,0.8632098765432109,5.0,0.8444444444444444,0.0,0.0,5.0,0.0,0.0,0.10914446942506804,0.10914446942506804,0.15490195998574313,1.048392146281399,76.0,0.6448139388792922
331,2011-12-26,STORE_2_043,1.0,1,0,0.057991946977686754,0.057991946977686754,0.0,0.0,0.0,0.0,,0.0,0.0,0.8555555555555555,5.0,0.8555555555555555,0.5,0.0,5.0,0.0,0.028995973488843377,0.10914446942506804,0.10914446942506804,0.15490195998574313,1.0446343493515777,77.0,0.6447969678293548
332,2011-12-27,STORE_2_043,0.0,0,0,-0.057991946977686754,-0.11598389395537351,0.057991946977686754,0.0,0.0,0.057991946977686754,,0.0,0.0,0.8555555555555557,5.0,0.8555555555555555,0.5,0.0,5.0,0.0,0.028995973488843377,0.10914446942506804,0.10914446942506804,0.15490195998574313,1.0446343493515777,77.0,0.6447799967794176
333,2011-12-28,STORE_2_043,1.0,0,0,0.057991946977686754,0.11598389395537351,0.0,0.0,0.0,0.057991946977686754,,0.057991946977686754,0.0,0.8474074074074066,5.0,0.8666666666666667,1.0,0.0,5.0,0.0,0.057991946977686754,0.10914446942506804,0.10914446942506804,0.15490195998574313,1.040743036208137,78.0,0.6447630257294802
334,2011-12-29,STORE_2_043,2.999999999999999,0,0,0.09691001300805638,0.038918066030369625,0.057991946977686754,0.10914446942506804,0.0,0.057991946977686754,,0.10914446942506804,0.0,0.8600000000000009,5.0,0.9,1.0,0.0,5.0,0.0,0.057991946977686754,0.10914446942506804,0.10914446942506804,0.15490195998574313,1.0605277465128369,81.0,0.6447460546795428
335,2011-12-30,STORE_2_043,2.0000000000000004,0,0,-0.04575749056067509,-0.14266750356873148,0.15490195998574313,0.0,0.0,0.0,,0.15490195998574313,0.0,0.8607407407407399,5.0,0.9222222222222223,1.0,0.0,5.0,0.0,0.057991946977686754,0.10914446942506804,0.10914446942506804,0.15490195998574313,1.0624095760890861,83.0,0.6447290836296056
336,2011-12-31,STORE_2_043,1.0,0,0,-0.05115252244738129,-0.005395031886706203,0.10914446942506804,0.0,0.0,0.0,,0.0,0.0,0.850370370370371,5.0,0.9333333333333333,1.0,0.0,5.0,0.0,0.057991946977686754,0.10914446942506804,0.10914446942506804,0.15490195998574313,1.0578757599999653,84.0,0.6447121125796682
337,2012-01-01,STORE_2_043,0.0,1,0,-0.057991946977686754,-0.006839424530305463,0.057991946977686754,0.0,0.0,0.10914446942506804,,0.0,0.0,0.850370370370371,5.0,0.9333333333333333,1.0,0.0,5.0,0.0,0.057991946977686754,0.10914446942506804,0.10914446942506804,0.15490195998574313,1.0578757599999653,84.0,0.6446951415297308
338,2012-01-02,STORE_2_043,0.0,1,0,0.0,0.057991946977686754,0.0,0.0,0.0,0.0,,0.057991946977686754,0.0,0.8503703703703708,5.0,0.9333333333333333,1.0,0.0,5.0,0.0,0.057991946977686754,0.10914446942506804,0.10914446942506804,0.15490195998574313,1.0578757599999653,84.0,0.6446781704797935
339,2012-01-03,STORE_2_043,0.0,0,0,0.0,0.0,0.0,0.0,0.0,0.057991946977686754,,0.0,0.0,0.8503703703703708,5.0,0.9333333333333333,1.0,0.0,5.0,0.0,0.057991946977686754,0.10914446942506804,0.10914446942506804,0.15490195998574313,1.0578757599999653,84.0,0.6446611994298561
340,2012-01-04,STORE_2_043,0.0,0,0,0.0,0.0,0.0,0.057991946977686754,0.0,0.10914446942506804,,0.057991946977686754,0.057991946977686754,0.8607407407407403,5.0,0.9222222222222223,1.0,0.0,5.0,0.0,0.057991946977686754,0.10914446942506804,0.10914446942506804,0.15490195998574313,1.0624095760890861,83.0,0.6446442283799187
341,2012-01-05,STORE_2_043,0.0,0,0,0.0,0.0,0.0,0.10914446942506804,0.0,0.0,,0.15490195998574313,0.0,0.8607407407407405,5.0,0.9222222222222223,1.0,0.0,5.0,0.0,0.057991946977686754,0.10914446942506804,0.10914446942506804,0.15490195998574313,1.0624095760890861,83.0,0.6446272573299814
342,2012-01-06,STORE_2_043,1.0,0,0,0.057991946977686754,0.057991946977686754,0.0,0.15490195998574313,0.0,0.10914446942506804,,0.10914446942506804,0.0,0.8503703703703707,5.0,0.9333333333333333,1.0,0.0,5.0,0.0,0.057991946977686754,0.10914446942506804,0.10914446942506804,0.15490195998574313,1.0578757599999655,84.0,0.6446102862800441
343,2012-01-07,STORE_2_043,0.0,0,0,-0.057991946977686754,-0.11598389395537351,0.057991946977686754,0.0,0.0,0.0,,0.057991946977686754,0.0,0.8503703703703703,5.0,0.9333333333333333,1.0,0.0,5.0,0.0,0.057991946977686754,0.10914446942506804,0.10914446942506804,0.15490195998574313,1.0578757599999655,84.0,0.6445933152301068
344,2012-01-08,STORE_2_043,4.0,0,0,0.1962946451439682,0.25428659212165494,0.0,0.0,0.0,0.0,,0.0,0.0,0.8691358024691364,5.0,0.9777777777777777,1.0,0.0,5.0,0.0,0.057991946977686754,0.10914446942506804,0.10914446942506804,0.15490195998574313,1.1013554241420622,88.0,0.6445763441801694
345,2012-01-09,STORE_2_043,7.0,0,0,0.10473535052001295,-0.09155929462395523,0.1962946451439682,0.057991946977686754,0.0,0.10914446942506804,,0.0,0.0,0.9432098765432103,7.0,1.0555555555555556,1.0,0.0,7.0,0.0,0.057991946977686754,0.10914446942506804,0.11372021848113595,0.15490195998574313,1.2663413735667777,95.0,0.6445593731302321
346,2012-01-10,STORE_2_043,1.0,0,0,-0.2430380486862944,-0.34777339920630734,0.30102999566398114,0.0,0.0,0.10914446942506804,,0.0,0.15490195998574313,0.913333333333333,7.0,1.0333333333333334,1.0,0.0,7.0,0.0,0.057991946977686754,0.10914446942506804,0.10914446942506804,0.15490195998574313,1.2492694494396994,93.0,0.6445424020802948
347,2012-01-11,STORE_2_043,2.0000000000000004,0,0,0.05115252244738129,0.2941905711336757,0.057991946977686754,0.057991946977686754,0.0,0.0,,0.0,0.0,0.9209876543209883,7.0,1.0555555555555556,1.0,0.0,7.0,0.0,0.057991946977686754,0.10914446942506804,0.10914446942506804,0.15490195998574313,1.2484697249762504,95.0,0.6445254310303574
348,2012-01-12,STORE_2_043,2.999999999999999,0,0,0.04575749056067509,-0.005395031886706203,0.10914446942506804,0.15490195998574313,0.0,0.0,,0.0,0.0,0.9427160493827159,7.0,1.0888888888888888,1.0,0.0,7.0,0.0,0.057991946977686754,0.10914446942506804,0.11372021848113595,0.15490195998574313,1.2599665096712414,98.0,0.6445084599804201
349,2012-01-13,STORE_2_043,4.0,0,0,0.04139268515822506,-0.004364805402450031,0.15490195998574313,0.10914446942506804,0.0,0.0,,0.057991946977686754,0.10914446942506804,0.9728395061728403,7.0,1.1111111111111112,1.0,0.0,7.0,0.0,0.057991946977686754,0.10914446942506804,0.15490195998574313,0.15490195998574313,1.2934097819021242,100.0,0.6444914889304827
350,2012-01-14,STORE_2_043,2.0000000000000004,0,0,-0.08715017571890014,-0.1285428608771252,0.1962946451439682,0.057991946977686754,0.0,0.10914446942506804,,0.0,0.057991946977686754,0.9851851851851847,7.0,1.1222222222222222,1.0,0.0,7.0,0.0,0.057991946977686754,0.10914446942506804,0.15490195998574313,0.15490195998574313,1.2967355536615155,101.0,0.6444745178805453
351,2012-01-15,STORE_2_043,1.0,0,0,-0.05115252244738129,0.035997653271518854,0.10914446942506804,0.0,0.0,0.0,,0.1962946451439682,0.15490195998574313,0.9577777777777778,7.0,1.1,1.0,0.0,7.0,0.0,0.057991946977686754,0.10914446942506804,0.11372021848113595,0.15490195998574313,1.281238866764455,99.0,0.644457546830608
352,2012-01-16,STORE_2_043,9.0,1,0,-0.023025937018826444,0.028126585428554847,0.057991946977686754,0.0,0.0,0.0,,0.30102999566398114,0.10914446942506804,0.9475473954486294,7.0,1.084298828743273,1.0,0.0,7.0,0.0,0.057991946977686754,0.10914446942506804,0.11372021848113595,0.15490195998574313,1.2787418753456483,97.58689458689459,0.6444405757806706
353,2012-01-17,STORE_2_043,1.0,0,0,0.023025937018826444,0.04605187403765289,0.03496600995886031,0.0,0.0,0.0,,0.057991946977686754,0.10914446942506804,0.9338651471984802,7.0,1.073187717632162,1.0,0.0,7.0,0.0,0.057991946977686754,0.10914446942506804,0.11372021848113595,0.15490195998574313,1.2750350349944721,96.58689458689459,0.6444236047307333
354,2012-01-18,STORE_2_043,2.999999999999999,0,0,0.09691001300805638,0.07388407598922994,0.057991946977686754,0.0,0.0,0.0,,0.10914446942506804,0.0,0.9559424571770255,7.0,1.1065210509654955,1.0,0.0,7.0,0.0,0.057991946977686754,0.10914446942506804,0.15490195998574313,0.15490195998574313,1.2858322622684495,99.58689458689459,0.644406633680796
355,2012-01-19,STORE_2_043,1.0,0,0,-0.09691001300805638,-0.19382002601611276,0.15490195998574313,0.0,0.0,0.0,,0.15490195998574313,0.057991946977686754,0.9559424571770255,7.0,1.1065210509654955,1.0,0.0,7.0,0.0,0.057991946977686754,0.10914446942506804,0.15490195998574313,0.15490195998574313,1.2858322622684495,99.58689458689459,0.6443896626308587
356,2012-01-20,STORE_2_043,2.0000000000000004,0,0,0.05115252244738129,0.14806253545543768,0.057991946977686754,0.057991946977686754,0.0,0.057991946977686754,,0.1962946451439682,0.057991946977686754,0.968637051106186,7.0,1.1176321620766065,1.0,0.0,7.0,0.0,0.057991946977686754,0.10914446942506804,0.15490195998574313,0.15490195998574313,1.2892175868793985,100.58689458689459,0.6443726915809214
357,2012-01-21,STORE_2_043,2.999999999999999,0,0,0.04575749056067509,-0.005395031886706203,0.10914446942506804,0.0,0.0,0.10914446942506804,,0.10914446942506804,0.057991946977686754,0.9956526326896697,7.0,1.1398543842988287,1.0,0.0,7.0,0.0,0.057991946977686754,0.10914446942506804,0.15490195998574313,0.15490195998574313,1.3043157562563497,102.58689458689459,0.644355720530984
358,2012-01-22,STORE_2_043,0.0,0,0,-0.15490195998574313,-0.2006594505464182,0.15490195998574313,0.1962946451439682,0.0,0.15490195998574313,,0.057991946977686754,0.057991946977686754,1.003060040097077,7.0,1.1287432731877176,1.0,0.0,7.0,0.0,0.057991946977686754,0.10914446942506804,0.15490195998574313,0.15490195998574313,1.3097684903380686,101.58689458689459,0.6443387494810466
359,2012-01-23,STORE_2_043,4.0,0,0,0.1962946451439682,0.3511966051297113,0.0,0.30102999566398114,0.0,0.0,,0.03496600995886031,0.057991946977686754,1.043902782174388,7.0,1.162076606521051,1.0,0.0,7.0,0.0,0.057991946977686754,0.10914446942506804,0.15490195998574313,0.1776679368227668,1.344177881269635,104.58689458689459,0.6443217784311093
360,2012-01-24,STORE_2_043,1.0,0,0,-0.13830269816628143,-0.3345973433102496,0.1962946451439682,0.057991946977686754,0.0,0.0,,0.057991946977686754,0.0,1.0362484611867322,7.0,1.1731877176321621,1.0,0.0,7.0,0.0,0.057991946977686754,0.10914446942506804,0.15490195998574313,0.1776679368227668,1.3385855245594953,105.58689458689459,0.6443048073811719
361,2012-01-25,STORE_2_043,0.0,0,0,-0.057991946977686754,0.08031075118859468,0.057991946977686754,0.10914446942506804,0.0,0.057991946977686754,,0.15490195998574313,0.0,1.0362484611867322,7.0,1.1731877176321621,1.0,0.0,7.0,0.0,0.057991946977686754,0.10914446942506804,0.15490195998574313,0.1776679368227668,1.3385855245594953,105.58689458689459,0.6442878363312345
362,2012-01-26,STORE_2_043,1.0,0,0,0.057991946977686754,0.11598389395537351,0.0,0.15490195998574313,0.057991946977686754,0.0,,0.057991946977686754,0.0,1.0285941401990777,7.0,1.1842988287432732,1.0,0.0,7.0,0.0,0.057991946977686754,0.10914446942506804,0.15490195998574313,0.1776679368227668,1.332876044025015,106.58689458689459,0.6442708652812972
363,2012-01-27,STORE_2_043,1.0,0,0,0.0,-0.057991946977686754,0.057991946977686754,0.1962946451439682,0.0,0.057991946977686754,,0.10914446942506804,0.0,1.0209398192114247,7.0,1.1954099398543843,1.0,0.0,7.0,0.0,0.057991946977686754,0.10914446942506804,0.15490195998574313,0.1776679368227668,1.3270479279292042,107.58689458689459,0.6442538942313599
364,2012-01-28,STORE_2_043,2.999999999999999,0,0,0.09691001300805638,0.09691001300805638,0.057991946977686754,0.10914446942506804,0.0,0.15490195998574313,,0.15490195998574313,0.10914446942506804,1.035507720445991,7.0,1.2065210509654953,1.0,0.0,7.0,0.0,0.057991946977686754,0.10914446942506804,0.15490195998574313,0.1776679368227668,1.3380014908964781,108.58689458689459,0.6442369231814226
365,2012-01-29,STORE_2_043,0.0,0,0,-0.15490195998574313,-0.25181197299379954,0.15490195998574313,0.057991946977686754,0.0,0.10914446942506804,,0.0,0.10914446942506804,1.0326896697267058,7.0,1.1842988287432732,1.0,0.0,7.0,0.0,0.057991946977686754,0.10914446942506804,0.15490195998574313,0.1776679368227668,1.3412794111773032,106.58689458689459,0.6442199521314852
366,2012-01-30,STORE_2_043,0.0,0,0,0.0,0.15490195998574313,0.0,0.03496600995886031,0.0,0.057991946977686754,0.0,0.1962946451439682,0.10914446942506804,1.028883964686435,7.0,1.162076606521051,1.0,0.0,7.0,0.0,0.057991946977686754,0.10914446942506804,0.15490195998574313,0.1776679368227668,1.344177881269635,104.58689458689459,0.6442029810815479
367,2012-01-31,STORE_2_043,2.999999999999999,0,0,0.15490195998574313,0.15490195998574313,0.0,0.057991946977686754,0.0,0.0,0.0,0.057991946977686754,0.0,1.0475044845415222,7.0,1.1954099398543843,1.0,0.0,7.0,0.0,0.057991946977686754,0.10914446942506804,0.15490195998574313,0.1776679368227668,1.3522100182139878,107.58689458689459,0.6441860100316106
368,2012-02-01,STORE_2_043,0.0,0,0,-0.15490195998574313,-0.30980391997148626,0.15490195998574313,0.15490195998574313,0.0,0.0,0.057991946977686754,0.0,0.057991946977686754,1.054911891948928,7.0,1.1842988287432732,1.0,0.0,7.0,0.0,0.057991946977686754,0.10914446942506804,0.15490195998574313,0.1776679368227668,1.35793014513739,106.58689458689459,0.6441690389816732
