soundwave-77/time-series-mts-hse/models/STORE_2_586/train_data.csv
index,timestamp,segment,target,holiday,target_change_points,target_diff_1,target_diff_2,target_lag_1,target_lag_14,target_lag_180,target_lag_30,target_lag_365,target_lag_7,target_lag_90,target_mad,target_max,target_mean,target_median,target_min,target_minmax_diff,target_q_0.25,target_q_0.50,target_q_0.75,target_q_0.90,target_q_0.95,target_std,target_sum,target_trend
0,2011-01-29,STORE_2_586,56.0,0,0,,,,,,,,,,0.0,56.0,56.0,56.0,56.0,0.0,0.14437684587847466,0.14437684587847466,0.14437684587847466,0.14437684587847466,0.14437684587847466,0.0,56.0,64.90959353358349
1,2011-01-30,STORE_2_586,55.0,0,0,-0.0021989640999381943,,0.14437684587847466,,,,,,,0.5,56.0,55.5,55.5,55.0,1.0,0.14272762280352103,0.14327736382850556,0.1438271048534901,0.14415694946848084,0.14426689767347775,0.7071067811865476,111.0,64.9123398138741
2,2011-01-31,STORE_2_586,45.0,0,0,-0.022624619625093947,-0.020425655525155753,0.14217788177853646,,,,,,,4.666666666666667,56.0,52.0,55.0,45.0,11.0,0.1308655719659895,0.14217788177853646,0.14327736382850556,0.14393705305848703,0.14415694946848084,6.082762530298219,156.0,64.9150860941647
3,2011-02-01,STORE_2_586,57.0,0,0,0.02701146987320767,0.04963608949830162,0.11955326215344252,,,,,,,4.125,57.0,53.25,55.5,45.0,12.0,0.13652172687226297,0.14327736382850556,0.14492381741551855,0.14590836618219752,0.14623654910442385,5.560275772537426,213.0,64.91783237445532
4,2011-02-02,STORE_2_586,54.0,0,0,-0.0065970050532306035,-0.03360847492643827,0.14656473202665019,,,,,,,3.3600000000000008,57.0,53.4,55.0,45.0,12.0,0.13996772697341958,0.14217788177853646,0.14437684587847466,0.14568957756737996,0.14612715479701507,4.827007354458868,267.0,64.92057865474592
5,2011-02-03,STORE_2_586,67.0,0,0,0.027890214754577952,0.034487219807808556,0.13996772697341958,,,,,,,4.333333333333333,67.0,55.666666666666664,55.5,45.0,22.0,0.1405202656746988,0.14327736382850556,0.1460177604896063,0.15721133687732386,0.1625346393026607,7.033254343948231,334.0,64.92332493503653
6,2011-02-04,STORE_2_586,46.00000000000001,0,0,-0.04598843684737412,-0.07387865160195208,0.16785794172799753,,,,,,,5.1020408163265305,67.0,54.285714285714285,55.0,45.0,22.0,0.1309186159270215,0.14217788177853646,0.14547078895256244,0.15508201590718912,0.1614699788175933,7.387247699341655,380.0,64.92607121532714
7,2011-02-05,STORE_2_586,97.0,0,0,0.10424005168445781,0.15022848853183193,0.12186950488062341,,,,,0.14437684587847466,,11.1875,97.0,59.625,55.5,45.0,52.0,0.13544317145022053,0.14327736382850556,0.151888034451987,0.18533342617912263,0.2057214913721019,16.578277525553904,477.0,64.92881749561775
8,2011-02-06,STORE_2_586,76.0,0,0,-0.03994140734353285,-0.14418145902799068,0.22610955656508122,,,,,0.14217788177853646,,12.37037037037037,97.0,61.44444444444444,56.0,45.0,52.0,0.13996772697341958,0.14437684587847466,0.16785794172799753,0.19415643069025496,0.21013299362766807,16.440127060876925,553.0,64.93156377590836
9,2011-02-07,STORE_2_586,67.0,0,0,-0.018310207493550834,0.02163119984998202,0.18616814922154837,,,,,0.11955326215344252,,11.8,97.0,62.0,56.5,45.0,52.0,0.1405202656746988,0.14547078895256244,0.16785794172799753,0.19016228995590165,0.2081359232604914,15.599145275730121,620.0,64.93431005619897
10,2011-02-08,STORE_2_586,70.0,0,0,0.006189574817697441,0.024499782311248275,0.16785794172799753,,,,,0.14656473202665019,,11.52066115702479,97.0,62.72727272727273,57.0,45.0,52.0,0.14107280437597802,0.14656473202665019,0.17095272913684625,0.18616814922154837,0.2061388528933148,14.99393816907959,690.0,64.93705633648958
11,2011-02-09,STORE_2_586,64.00000000000001,0,0,-0.01246864055959801,-0.01865821537729545,0.17404751654569497,,,,,0.13996772697341958,,10.66666666666667,97.0,62.833333333333336,60.5,45.0,52.0,0.14162534307725724,0.15407180400637357,0.1694053354324219,0.18495608595396304,0.20414178252613813,14.300879396566895,754.0,64.93980261678018
12,2011-02-10,STORE_2_586,62.000000000000014,0,0,-0.00423705294325466,0.00823158761634335,0.16157887598609696,,,,,0.16785794172799753,,9.905325443786985,97.0,62.76923076923077,62.0,45.0,52.0,0.14217788177853646,0.1573418230428423,0.16785794172799753,0.1837440226863777,0.20214471215896146,13.69400018349792,816.0,64.9425488970708
13,2011-02-11,STORE_2_586,80.99999999999999,0,0,0.03867469562226189,0.04291174856551655,0.1573418230428423,,,,,0.12186950488062341,,10.51020408163265,97.0,64.07142857142857,63.0,45.0,52.0,0.14272762280352103,0.15946034951446963,0.17250012284127061,0.19306200783203745,0.20654908193009613,14.029991423399352,897.0,64.9452951773614
14,2011-02-12,STORE_2_586,93.0,0,0,0.02276299922357561,-0.01591169639868628,0.1960165186651042,0.14437684587847466,,,,0.22610955656508122,,11.866666666666667,97.0,66.0,64.0,45.0,52.0,0.14327736382850556,0.16157887598609696,0.18010783288362167,0.20967431819924956,0.2209785294916002,15.44575762374344,990.0,64.94804145765201
15,2011-02-13,STORE_2_586,110.0,0,0,0.03033267850980781,0.0075696792862322,0.2187795178886798,0.14217788177853646,,,,0.18616814922154837,,14.3125,110.0,68.75,65.5,45.0,65.0,0.1438271048534901,0.16471840885704725,0.18863024158243732,0.2224445372268805,0.2318602165234328,18.538248748645778,1100.0,64.95078773794262
16,2011-02-14,STORE_2_586,63.0,0,0,-0.08964667972578977,-0.11997935823559758,0.2491121963984876,0.11955326215344252,,,,0.16785794172799753,,13.709342560553631,110.0,68.41176470588235,64.0,45.0,65.0,0.14437684587847466,0.16157887598609696,0.18616814922154837,0.22171153335924038,0.23071008453176248,18.00367609520835,1163.0,64.95353401823323
17,2011-02-15,STORE_2_586,51.999999999999986,0,0,-0.02395213112552827,0.0656945486002615,0.15946551667269784,0.14656473202665019,,,,0.17404751654569497,,13.555555555555555,110.0,67.5,63.5,45.0,65.0,0.14272762280352103,0.1605221963293974,0.18313799105258502,0.22097852949160024,0.22955995254009215,17.889365884924647,1215.0,64.95628029852384
18,2011-02-16,STORE_2_586,46.00000000000001,0,0,-0.013643880666546163,0.010308250458982107,0.13551338554716957,0.13996772697341958,,,,0.16157887598609696,,13.689750692520773,110.0,66.36842105263158,63.0,45.0,65.0,0.14107280437597802,0.15946551667269784,0.18010783288362167,0.22024552562396008,0.22840982054842182,18.071495438076536,1261.0,64.95902657881444
19,2011-02-17,STORE_2_586,54.0,0,0,0.01809822209279617,0.03174210275934233,0.12186950488062341,0.16785794172799753,,,,0.1573418230428423,,13.5,110.0,65.75,62.5,45.0,65.0,0.13996772697341958,0.15840366985777007,0.17707767471465832,0.21951252175631997,0.22725968855675155,17.80560231175038,1315.0,64.96177285910505
20,2011-02-18,STORE_2_586,51.0,0,0,-0.006698762348702286,-0.024796984441498457,0.13996772697341958,0.12186950488062341,,,,0.1960165186651042,,13.392290249433106,110.0,65.04761904761905,62.0,45.0,65.0,0.13996772697341958,0.1573418230428423,0.17404751654569497,0.2187795178886798,0.22610955656508122,17.65071157340743,1366.0,64.96451913939566
21,2011-02-19,STORE_2_586,64.00000000000001,0,0,0.02830991136137967,0.035008673710081956,0.1332689646247173,0.22610955656508122,,,,0.2187795178886798,,12.818181818181818,110.0,65.0,62.5,45.0,65.0,0.13996772697341958,0.15840366985777007,0.17250012284127061,0.2165032179663223,0.22574305463126115,17.226778711120218,1430.0,64.96726541968627
22,2011-02-20,STORE_2_586,80.99999999999999,0,0,0.03443764267900723,0.0061277313176275605,0.16157887598609696,0.18616814922154837,,,,0.2491121963984876,,13.107750472589794,110.0,65.69565217391305,63.0,45.0,65.0,0.13996772697341958,0.15946551667269784,0.18010783288362167,0.2142269180439647,0.22537655269744106,17.158180616118248,1511.0,64.97001169997688
23,2011-02-21,STORE_2_586,61.0,1,0,-0.04080882513494774,-0.07524646781395497,0.1960165186651042,0.16785794172799753,,,,0.15946551667269784,,12.708333333333334,110.0,65.5,62.5,45.0,65.0,0.13996772697341958,0.15840366985777007,0.17707767471465832,0.2119506181216071,0.225010050763621,16.808383001658274,1572.0,64.97275798026749
24,2011-02-22,STORE_2_586,51.999999999999986,0,0,-0.01969430798298688,0.02111451715196086,0.15520769353015645,0.17404751654569497,,,,0.13551338554716957,,12.588799999999997,110.0,64.96,62.0,45.0,65.0,0.13996772697341958,0.1573418230428423,0.17404751654569497,0.2096743181992496,0.22464354882980092,16.674531477675767,1624.0,64.9755042605581
25,2011-02-23,STORE_2_586,32.99999999999999,0,0,-0.0447636812439316,-0.025069373260944716,0.13551338554716957,0.16157887598609696,,,,0.12186950488062341,,12.997041420118343,110.0,63.73076923076923,61.5,33.0,77.0,0.13662697090373208,0.1562747582864994,0.17250012284127061,0.207398018276892,0.22427704689598088,17.49870324865861,1657.0,64.9782505408487
26,2011-02-24,STORE_2_586,45.0,0,0,0.02880355785020454,0.07356723909413614,0.09074970430323798,0.1573418230428423,,,,0.13996772697341958,,13.080932784636493,110.0,63.03703703703704,61.0,33.0,77.0,0.13551338554716957,0.15520769353015645,0.17095272913684625,0.2051217183545345,0.22391054496216078,17.53344382663179,1702.0,64.98099682113931
27,2011-02-25,STORE_2_586,59.0,0,0,0.0313544508839899,0.002550893033785362,0.11955326215344252,0.1960165186651042,,,,0.1332689646247173,,12.734693877551026,110.0,62.892857142857146,60.0,33.0,77.0,0.13551338554716957,0.15305770328379442,0.1694053354324219,0.2028454184321769,0.22354404302834072,17.22259344197978,1761.0,64.98374310142992
28,2011-02-26,STORE_2_586,78.00000000000001,0,0,0.03922662340171737,0.007872172517727469,0.15090771303743242,0.2187795178886798,,,,0.16157887598609696,,12.898929845422115,110.0,63.41379310344828,61.0,33.0,77.0,0.13551338554716957,0.15520769353015645,0.17404751654569497,0.2005691185098193,0.22317754109452065,17.143339484183084,1839.0,64.98648938172053
29,2011-02-27,STORE_2_586,53.000000000000014,0,0,-0.052388069459688213,-0.09161469286140558,0.1901343364391498,0.2491121963984876,,,,0.1960165186651042,,12.746666666666666,110.0,63.06666666666667,60.0,33.0,77.0,0.1360716059052426,0.15305770328379442,0.17250012284127061,0.19829281858746178,0.22281103916070055,16.95213003264422,1892.0,64.98923566201114
30,2011-02-28,STORE_2_586,40.0,0,0,-0.029963223377443227,0.022424846082244987,0.13774626697946157,0.15946551667269784,,0.14437684587847466,,0.15520769353015645,,12.955254942767949,110.0,62.32258064516129,59.0,33.0,77.0,0.13551338554716957,0.15090771303743242,0.17095272913684625,0.1960165186651042,0.2224445372268805,17.17437450927824,1932.0,64.99198194230175
31,2011-03-01,STORE_2_586,56.0,0,0,0.03659380227645631,0.06655702565389954,0.10778304360201835,0.13551338554716957,,0.14217788177853646,,0.13551338554716957,,12.7109375,110.0,62.125,58.0,33.0,77.0,0.13551338554716957,0.1487362225320413,0.1694053354324219,0.1960165186651042,0.22207803529306044,16.93202729702196,1988.0,64.99472822259236
32,2011-03-02,STORE_2_586,50.0,0,0,-0.01336396155798153,-0.04995776383443784,0.14437684587847466,0.12186950488062341,,0.11955326215344252,,0.09074970430323798,,12.629935720844811,110.0,61.75757575757576,57.0,33.0,77.0,0.13551338554716957,0.14656473202665019,0.16785794172799753,0.1960165186651042,0.22171153335924035,16.798493799724838,2038.0,64.99747450288297
33,2011-03-03,STORE_2_586,59.0,0,0,0.01989482871693929,0.03325879027492082,0.13101288432049313,0.13996772697341958,,0.14656473202665019,,0.11955326215344252,,12.325259515570936,110.0,61.6764705882353,58.0,33.0,77.0,0.13551338554716957,0.1487362225320413,0.16785794172799753,0.1960165186651042,0.22134503142542028,16.548771973546618,2097.0,65.00022078317357
34,2011-03-04,STORE_2_586,55.0,0,0,-0.008729831258895954,-0.028624659975835243,0.15090771303743242,0.1332689646247173,,0.13996772697341958,,0.15090771303743242,,12.125714285714288,110.0,61.48571428571429,57.0,33.0,77.0,0.13551338554716957,0.14656473202665019,0.16785794172799753,0.1960165186651042,0.2209785294916002,16.342602983273736,2152.0,65.00296706346418
35,2011-03-05,STORE_2_586,96.0,0,0,0.08211073089491902,0.09084056215381497,0.14217788177853646,0.16157887598609696,,0.16785794172799753,,0.1901343364391498,,12.932098765432098,110.0,62.44444444444444,58.0,33.0,77.0,0.13551338554716957,0.1487362225320413,0.1694053354324219,0.207398018276892,0.22474384864636193,17.103791466797137,2248.0,65.00571334375479
36,2011-03-06,STORE_2_586,98.0,0,0,0.0036342846550940777,-0.07847644623982494,0.22428861267345548,0.1960165186651042,,0.12186950488062341,,0.13774626697946157,,13.747260774287803,110.0,63.4054054054054,59.0,33.0,77.0,0.13551338554716957,0.15090771303743242,0.17404751654569497,0.22098315580259006,0.2264722247177749,17.848839768485824,2346.0,65.0084596240454
37,2011-03-07,STORE_2_586,63.0,0,0,-0.06845738065585172,-0.0720916653109458,0.22792289732854956,0.15520769353015645,,0.22610955656508122,,0.10778304360201835,,13.393351800554015,110.0,63.39473684210526,59.0,33.0,77.0,0.1360716059052426,0.15090771303743242,0.17250012284127061,0.22043224632411254,0.22638155767960147,17.60610992484237,2409.0,65.01120590433601
38,2011-03-08,STORE_2_586,75.0,0,0,0.024705872792775224,0.09316325344862694,0.15946551667269784,0.13551338554716957,,0.18616814922154837,,0.14437684587847466,,13.416173570019724,110.0,63.69230769230769,59.0,33.0,77.0,0.13662982626331557,0.15090771303743242,0.179109453005584,0.21988133684563496,0.22629089064142804,17.47201348044148,2484.0,65.01395218462662
39,2011-03-09,STORE_2_586,55.0,0,0,-0.041993507686936604,-0.06669938047971183,0.18417138946547307,0.09074970430323798,,0.16785794172799753,,0.13101288432049313,,13.24375,110.0,63.475,59.0,33.0,77.0,0.13718804662138856,0.15090771303743242,0.1765784847756395,0.21933042736715738,0.22620022360325465,17.301233837726496,2539.0,65.01669846491723
40,2011-03-10,STORE_2_586,64.00000000000001,0,0,0.0194009942075605,0.061394501894497105,0.14217788177853646,0.11955326215344252,,0.17404751654569497,,0.15090771303743242,,12.93634741225461,110.0,63.48780487804878,59.0,33.0,77.0,0.13774626697946157,0.15090771303743242,0.17404751654569497,0.2187795178886798,0.22610955656508122,17.083796345103615,2603.0,65.01944474520784
41,2011-03-11,STORE_2_586,48.0,0,0,-0.03511361941632446,-0.05451461362388496,0.16157887598609696,0.15090771303743242,,0.16157887598609696,,0.14217788177853646,,12.909297052154194,110.0,63.11904761904762,59.0,33.0,77.0,0.1360716059052426,0.15090771303743242,0.17250012284127061,0.21650321796632221,0.22601850937049991,17.042561328386743,2651.0,65.02219102549844
42,2011-03-12,STORE_2_586,72.0,0,0,0.051660172396361864,0.08677379181268632,0.1264652565697725,0.1901343364391498,,0.1573418230428423,,0.22428861267345548,,12.858842617631154,110.0,63.325581395348834,59.0,33.0,77.0,0.13662982626331557,0.15090771303743242,0.17608647275591466,0.21422691804396476,0.22592746217591864,16.89282875496012,2723.0,65.02493730578905
43,2011-03-13,STORE_2_586,64.00000000000001,0,0,-0.016546552980037404,-0.06820672537639927,0.17812542896613437,0.13774626697946157,,0.1960165186651042,,0.22792289732854956,,12.584710743801653,110.0,63.34090909090909,60.0,33.0,77.0,0.13718804662138856,0.15305770328379442,0.17506699465080483,0.21195061812160718,0.22583641498133736,16.695554598167156,2787.0,65.02768358607966
44,2011-03-14,STORE_2_586,67.0,0,0,0.006279065741900569,0.022825618721937974,0.16157887598609696,0.10778304360201835,,0.2187795178886798,,0.15946551667269784,,12.399012345679012,110.0,63.422222222222224,61.0,33.0,77.0,0.13774626697946157,0.15520769353015645,0.17404751654569497,0.2096743181992496,0.22574536778675608,16.513753068398486,2854.0,65.03042986637027
45,2011-03-15,STORE_2_586,55.0,0,0,-0.02568005994946107,-0.03195912569136164,0.16785794172799753,0.14437684587847466,,0.2491121963984876,,0.18417138946547307,,12.280718336483934,110.0,63.23913043478261,60.0,33.0,77.0,0.1383016319779511,0.15305770328379442,0.17250012284127061,0.207398018276892,0.22565432059217477,16.376385142581505,2909.0,65.03317614666088
46,2011-03-16,STORE_2_586,42.0,0,0,-0.029648403152056454,-0.003968343202595384,0.14217788177853646,0.13101288432049313,,0.15946551667269784,,0.14217788177853646,,12.402897238569489,110.0,62.787234042553195,59.0,33.0,77.0,0.13662982626331557,0.15090771303743242,0.17095272913684625,0.2051217183545344,0.2255632733975935,16.491020178599925,2951.0,65.03592242695149
47,2011-03-17,STORE_2_586,63.0,0,0,0.046936038046217834,0.07658444119827429,0.11252947862648001,0.15090771303743242,,0.13551338554716957,,0.16157887598609696,,12.14930555555555,110.0,62.791666666666664,60.0,33.0,77.0,0.13718804662138856,0.15305770328379442,0.1694053354324219,0.20284541843217696,0.22547222620301222,16.31466946390003,3014.0,65.0386687072421
48,2011-03-18,STORE_2_586,56.0,0,0,-0.015088670794223186,-0.06202470884044102,0.15946551667269784,0.14217788177853646,,0.12186950488062341,,0.1264652565697725,,12.025822573927524,110.0,62.6530612244898,59.0,33.0,77.0,0.13774626697946157,0.15090771303743242,0.16785794172799753,0.20056911850981937,0.2253811790084309,16.17295971213495,3070.0,65.0414149875327
49,2011-03-19,STORE_2_586,58.0,0,0,0.004364805402450073,0.01945347619667326,0.14437684587847466,0.22428861267345548,,0.13996772697341958,,0.17812542896613437,,11.867199999999993,110.0,62.56,59.0,33.0,77.0,0.1383016319779511,0.15090771303743242,0.16785794172799753,0.19829281858746178,0.22529013181384963,16.0205989849548,3128.0,65.04416126782331
50,2011-03-20,STORE_2_586,78.00000000000001,0,0,0.04139268515822506,0.037027879755774984,0.14874165128092473,0.22792289732854956,,0.1332689646247173,,0.16157887598609696,,11.966935793925417,110.0,62.86274509803921,59.0,33.0,77.0,0.13885699697644058,0.15090771303743242,0.17095272913684625,0.1960165186651042,0.22519908461926835,16.006273279990115,3206.0,65.04690754811392
51,2011-03-21,STORE_2_586,45.0,0,0,-0.07058107428570727,-0.11197375944393233,0.1901343364391498,0.15946551667269784,,0.16157887598609696,,0.16785794172799753,,12.040680473372777,110.0,62.51923076923077,59.0,33.0,77.0,0.13718804662138856,0.15090771303743242,0.1694053354324219,0.1960165186651042,0.22510803742468705,16.040989633320308,3251.0,65.04965382840453
52,2011-03-22,STORE_2_586,51.0,0,0,0.01371570247127478,0.08429677675698205,0.11955326215344252,0.18417138946547307,,0.1960165186651042,,0.14217788177853646,,12.002135991456033,110.0,62.301886792452834,59.0,33.0,77.0,0.13551338554716957,0.15090771303743242,0.16785794172799753,0.1960165186651042,0.22501699023010577,15.964606171707048,3302.0,65.05240010869514
53,2011-03-23,STORE_2_586,44.0,0,0,-0.016044364789857435,-0.029760067261132214,0.1332689646247173,0.14217788177853646,,0.15520769353015645,,0.11252947862648001,,12.069958847736624,110.0,61.96296296296296,58.5,33.0,77.0,0.13551338554716957,0.14982468215917857,0.16785794172799753,0.1960165186651042,0.2249259430355245,16.00820893539802,3346.0,65.05514638898575
54,2011-03-24,STORE_2_586,45.0,0,0,0.0023286623185826555,0.01837302710844009,0.11722459983485986,0.16157887598609696,,0.13551338554716957,,0.15946551667269784,,12.119669421487602,110.0,61.654545454545456,58.0,33.0,77.0,0.13439117508594345,0.14874165128092473,0.16785794172799753,0.1960165186651042,0.2248348958409432,16.023383586147514,3391.0,65.05789266927636
55,2011-03-25,STORE_2_586,45.0,0,0,0.0,-0.0023286623185826555,0.11955326215344252,0.1264652565697725,,0.09074970430323798,,0.14437684587847466,,12.158163265306117,110.0,61.357142857142854,57.5,33.0,77.0,0.1332689646247173,0.14765319165378746,0.16785794172799753,0.1960165186651042,0.22474384864636193,16.032272647187803,3436.0,65.06063894956696
56,2011-03-26,STORE_2_586,58.0,0,0,0.029188389127482214,0.029188389127482214,0.11955326215344252,0.17812542896613437,,0.11955326215344252,,0.14874165128092473,,11.99445983379501,110.0,61.29824561403509,58.0,33.0,77.0,0.1332689646247173,0.14874165128092473,0.16785794172799753,0.1960165186651042,0.22465280145178063,15.89470364649889,3494.0,65.06338522985756
57,2011-03-27,STORE_2_586,59.0,0,0,0.0021660617565076867,-0.027022327370974528,0.14874165128092473,0.16157887598609696,,0.15090771303743242,,0.1901343364391498,,11.820451843043998,110.0,61.258620689655174,58.0,33.0,77.0,0.13383006985533036,0.14874165128092473,0.16785794172799753,0.1960165186651042,0.22456175425719935,15.757549396286421,3553.0,65.06613151014817
58,2011-03-28,STORE_2_586,61.0,0,0,0.004299980492724037,0.0021339187362163503,0.15090771303743242,0.16785794172799753,,0.1901343364391498,,0.11955326215344252,,11.62367135880494,110.0,61.25423728813559,58.0,33.0,77.0,0.13439117508594345,0.14874165128092473,0.16785794172799753,0.1960165186651042,0.22447070706261804,15.621154114653567,3614.0,65.06887779043878
59,2011-03-29,STORE_2_586,43.0,0,0,-0.04032430951019911,-0.044624290002923145,0.15520769353015645,0.14217788177853646,,0.13774626697946157,,0.1332689646247173,,11.676666666666664,110.0,60.95,58.0,33.0,77.0,0.1332689646247173,0.14874165128092473,0.16785794172799753,0.1960165186651042,0.22437965986803676,15.666465319057147,3657.0,65.07162407072938
60,2011-03-30,STORE_2_586,60.0,0,0,0.03817964104360996,0.07850395055380907,0.11488338401995735,0.11252947862648001,,0.10778304360201835,,0.11722459983485986,,11.498521902714321,110.0,60.9344262295082,58.0,33.0,77.0,0.1332689646247173,0.14874165128092473,0.16785794172799753,0.1960165186651042,0.22428861267345548,15.535839053040142,3717.0,65.07437035102
61,2011-03-31,STORE_2_586,54.0,0,0,-0.013095298090147728,-0.05127493913375769,0.1530630250635673,0.15946551667269784,,0.14437684587847466,,0.11955326215344252,,11.406867845993753,110.0,60.82258064516129,58.0,33.0,77.0,0.13383006985533036,0.14874165128092473,0.16628817529252238,0.19542830044250875,0.22401315793421667,15.433117672717561,3771.0,65.0771166313106
62,2011-04-01,STORE_2_586,72.0,0,0,0.03815770199271479,0.051253000082862515,0.13996772697341958,0.14437684587847466,,0.13101288432049313,,0.11955326215344252,,11.428571428571429,110.0,61.0,58.0,33.0,77.0,0.13439117508594345,0.14874165128092473,0.16785794172799753,0.19484008221991334,0.2237377031949779,15.372787016190697,3843.0,65.07986291160121
63,2011-04-02,STORE_2_586,84.0,0,0,0.023694665798210057,-0.01446303619450473,0.17812542896613437,0.14874165128092473,,0.15090771303743242,,0.14874165128092473,,11.6767578125,110.0,61.359375,58.5,33.0,77.0,0.1349522803165565,0.14982468215917857,0.16785794172799753,0.1960165186651042,0.2234622484557391,15.518925657771177,3927.0,65.08260919189182
64,2011-04-03,STORE_2_586,84.0,0,0,0.0,-0.023694665798210057,0.20182009476434443,0.1901343364391498,,0.14217788177853646,,0.15090771303743242,,11.90437869822485,110.0,61.707692307692305,59.0,33.0,77.0,0.13551338554716957,0.15090771303743242,0.16785794172799753,0.19949866432464836,0.22318679371650033,15.651201108983493,4011.0,65.08535547218243
65,2011-04-04,STORE_2_586,99.0,0,0,0.02790860342746751,0.02790860342746751,0.20182009476434443,0.11955326215344252,,0.22428861267345548,,0.15520769353015645,,12.382920110192837,110.0,62.27272727272727,59.0,33.0,77.0,0.13551338554716957,0.15090771303743242,0.17250012284127061,0.20182009476434443,0.22565432059217477,16.19453417245884,4110.0,65.08810175247304
66,2011-04-05,STORE_2_586,55.0,0,0,-0.08755081641327547,-0.11545941984074298,0.22972869819181194,0.1332689646247173,,0.22792289732854956,,0.11488338401995735,,12.285586990421033,110.0,62.16417910447761,59.0,33.0,77.0,0.13551338554716957,0.15090771303743242,0.17095272913684625,0.20182009476434443,0.2255632733975935,16.095921763663647,4165.0,65.09084803276365
67,2011-04-06,STORE_2_586,57.0,0,0,0.004386850248113722,0.0919376666613892,0.14217788177853646,0.11722459983485986,,0.15946551667269784,,0.1530630250635673,,12.16522491349481,110.0,62.088235294117645,58.5,33.0,77.0,0.13551338554716957,0.14982468215917857,0.1694053354324219,0.20182009476434443,0.22547222620301222,15.987621418784515,4222.0,65.09359431305425
68,2011-04-07,STORE_2_586,46.00000000000001,0,0,-0.024695227146026774,-0.029082077394140496,0.14656473202665019,0.11955326215344252,,0.18417138946547307,,0.13996772697341958,,12.175593362738923,110.0,61.85507246376812,58.0,33.0,77.0,0.13551338554716957,0.14874165128092473,0.16785794172799753,0.20182009476434443,0.2253811790084309,15.987380466663334,4268.0,65.09634059334486
69,2011-04-08,STORE_2_586,42.0,0,0,-0.009340026254143402,0.015355200891883372,0.12186950488062341,0.11955326215344252,,0.14217788177853646,,0.17812542896613437,,12.228571428571426,110.0,61.57142857142857,58.0,33.0,77.0,0.13383006985533036,0.14874165128092473,0.16785794172799753,0.20182009476434443,0.22529013181384963,16.047548396057557,4310.0,65.09908687363547
70,2011-04-09,STORE_2_586,73.0,0,0,0.06762063690606886,0.07696066316021226,0.11252947862648001,0.14874165128092473,,0.16157887598609696,,0.20182009476434443,,12.246776433247373,110.0,61.732394366197184,58.0,33.0,77.0,0.13439117508594345,0.14874165128092473,0.17095272913684625,0.20182009476434443,0.22519908461926835,15.99013780560548,4383.0,65.10183315392608
71,2011-04-10,STORE_2_586,80.0,0,0,0.013914514535033284,-0.05370612237103557,0.18015011553254887,0.15090771303743242,,0.1264652565697725,,0.20182009476434443,,12.372685185185183,110.0,61.986111111111114,58.5,33.0,77.0,0.1349522803165565,0.14982468215917857,0.17506699465080483,0.2012397371544204,0.22510803742468707,16.022425354514894,4463.0,65.10457943421669
72,2011-04-11,STORE_2_586,66.0,0,0,-0.028289639487877077,-0.04220415402291036,0.19406463006758215,0.15520769353015645,,0.17812542896613437,,0.22972869819181194,,12.267592418840305,110.0,62.04109589041096,59.0,33.0,77.0,0.13551338554716957,0.15090771303743242,0.17404751654569497,0.20065937954449636,0.22501699023010577,15.91770359289407,4529.0,65.1073257145073
73,2011-04-12,STORE_2_586,58.0,0,0,-0.017033339298780342,0.011256300189096735,0.16577499057970507,0.11488338401995735,,0.16157887598609696,,0.14217788177853646,,12.146457268078887,110.0,61.986486486486484,58.5,33.0,77.0,0.13551338554716957,0.14982468215917857,0.17250012284127061,0.20007902193457236,0.2249259430355245,15.81528066632424,4587.0,65.1100719947979
74,2011-04-13,STORE_2_586,50.0,0,0,-0.017728766960431602,-0.00069542766165126,0.14874165128092473,0.1530630250635673,,0.16785794172799753,,0.14656473202665019,,12.116622222222222,110.0,61.82666666666667,58.0,33.0,77.0,0.13439117508594345,0.14874165128092473,0.17095272913684625,0.19949866432464838,0.2248348958409432,15.768916853694762,4637.0,65.11281827508851
75,2011-04-14,STORE_2_586,42.0,0,0,-0.01848340569401312,-0.0007546387335815169,0.13101288432049313,0.13996772697341958,,0.14217788177853646,,0.12186950488062341,,12.170013850415511,110.0,61.56578947368421,58.0,33.0,77.0,0.1332689646247173,0.14874165128092473,0.1694053354324219,0.19891830671472432,0.22474384864636193,15.827685049781845,4679.0,65.11556455537912
76,2011-04-15,STORE_2_586,66.0,0,0,0.053245511953225064,0.07172891764723818,0.11252947862648001,0.17812542896613437,,0.11252947862648001,,0.11252947862648001,,12.07927137797268,110.0,61.62337662337662,58.0,33.0,77.0,0.1332689646247173,0.14874165128092473,0.16785794172799753,0.19833794910480032,0.22465280145178063,15.731328917196576,4745.0,65.11831083566973
77,2011-04-16,STORE_2_586,86.00000000000001,0,0,0.039871512037692264,-0.0133739999155328,0.16577499057970507,0.20182009476434443,,0.15946551667269784,,0.18015011553254887,,12.285009861932943,110.0,61.93589743589744,58.5,33.0,77.0,0.13383006985533036,0.14982468215917857,0.17250012284127061,0.20182009476434443,0.22456175425719932,15.870694829746881,4831.0,65.12105711596034
78,2011-04-17,STORE_2_586,96.0,0,0,0.018642110056058148,-0.021229401981634116,0.20564650261739734,0.20182009476434443,,0.14437684587847466,,0.19406463006758215,,12.630027239224487,110.0,62.36708860759494,59.0,33.0,77.0,0.13439117508594345,0.15090771303743242,0.17608647275591466,0.20258537633495502,0.22447070706261804,16.22768860043108,4927.0,65.12380339625093
79,2011-04-18,STORE_2_586,45.0,0,0,-0.10473535052001297,-0.12337746057607112,0.22428861267345548,0.22972869819181194,,0.14874165128092473,,0.16577499057970507,,12.651249999999996,110.0,62.15,58.5,33.0,77.0,0.1332689646247173,0.14982468215917857,0.17506699465080483,0.20220273554964974,0.22437965986803676,16.241141694607055,4972.0,65.12654967654154
80,2011-04-19,STORE_2_586,56.0,0,0,0.02482358372503214,0.1295589342450451,0.11955326215344252,0.14217788177853646,,0.1901343364391498,,0.14874165128092473,,12.556927297668043,110.0,62.074074074074076,58.0,33.0,77.0,0.1332689646247173,0.14874165128092473,0.17404751654569497,0.20182009476434443,0.22428861267345548,16.15377492861791,5028.0,65.12929595683215
81,2011-04-20,STORE_2_586,59.0,0,0,0.006530867158957759,-0.018292716566074382,0.14437684587847466,0.14656473202665019,,0.11955326215344252,,0.13101288432049313,,12.433967876264129,110.0,62.03658536585366,58.5,33.0,77.0,0.13383006985533036,0.14982468215917857,0.17250012284127061,0.20182009476434443,0.22428861267345548,16.057339479480696,5087.0,65.13204223712276
82,2011-04-21,STORE_2_586,48.0,0,0,-0.024442456467659912,-0.03097332362661767,0.15090771303743242,0.12186950488062341,,0.1332689646247173,,0.11252947862648001,,12.421831905936997,110.0,61.86746987951807,58.0,33.0,77.0,0.1332689646247173,0.14874165128092473,0.17095272913684625,0.20182009476434443,0.22428861267345548,16.033327397108252,5135.0,65.13478851741337
83,2011-04-22,STORE_2_586,57.0,0,0,0.02009947545687768,0.04454193192453759,0.1264652565697725,0.11252947862648001,,0.11722459983485986,,0.16577499057970507,,12.320861678004535,110.0,61.80952380952381,58.0,33.0,77.0,0.1332689646247173,0.14874165128092473,0.1694053354324219,0.20182009476434443,0.22428861267345548,15.945295178350495,5192.0,65.13753479770398
84,2011-04-23,STORE_2_586,86.00000000000001,0,0,0.05908177059074715,0.03898229513386947,0.14656473202665019,0.18015011553254887,,0.11955326215344252,,0.20564650261739734,,12.512941176470587,110.0,62.09411764705882,58.0,33.0,77.0,0.1332689646247173,0.14874165128092473,0.17404751654569497,0.2041159394761762,0.22428861267345548,16.065804805038976,5278.0,65.14028107799459
85,2011-04-24,STORE_2_586,98.0,0,0,0.022276394711152225,-0.036805375879594926,0.20564650261739734,0.19406463006758215,,0.11955326215344252,,0.22428861267345548,,12.862628447809621,110.0,62.51162790697674,58.5,33.0,77.0,0.13383006985533036,0.14982468215917857,0.1771059508610245,0.20564650261739734,0.22565432059217477,16.433641382342728,5376.0,65.1430273582852
86,2011-04-25,STORE_2_586,47.0,0,0,-0.10374943753836188,-0.1260258322495141,0.22792289732854956,0.16577499057970507,,0.14874165128092473,,0.11955326215344252,,12.858237547892715,110.0,62.333333333333336,58.0,33.0,77.0,0.1332689646247173,0.14874165128092473,0.17608647275591466,0.20564650261739734,0.2255632733975935,16.422238656182667,5423.0,65.1457736385758
87,2011-04-26,STORE_2_586,45.0,0,0,-0.004620197636745163,0.09912923990161672,0.12417345979018768,0.14874165128092473,,0.15090771303743242,,0.14437684587847466,,12.868801652892564,110.0,62.13636363636363,58.0,33.0,77.0,0.13270494454866125,0.14874165128092473,0.17506699465080483,0.20564650261739734,0.2254722262030122,16.4318039097452,5468.0,65.14851991886641
88,2011-04-27,STORE_2_586,55.0,0,0,0.022624619625093947,0.02724481726183911,0.11955326215344252,0.13101288432049313,,0.15520769353015645,,0.15090771303743242,,12.787274334048735,110.0,62.056179775280896,58.0,33.0,77.0,0.1332689646247173,0.14874165128092473,0.17404751654569497,0.20564650261739734,0.2253811790084309,16.35567704510202,5523.0,65.15126619915702
89,2011-04-28,STORE_2_586,30.0,0,0,-0.05893777925404399,-0.08156239887913794,0.14217788177853646,0.11252947862648001,,0.11488338401995735,,0.1264652565697725,,12.928888888888894,110.0,61.7,58.0,30.0,80.0,0.13157690439654918,0.14874165128092473,0.17250012284127061,0.20564650261739734,0.22529013181384963,16.61084659850609,5553.0,65.15401247944763
90,2011-04-29,STORE_2_586,59.0,0,0,0.06766761051293994,0.12660538976698393,0.08324010252449247,0.16577499057970507,,0.1530630250635673,,0.14656473202665019,0.14437684587847466,12.902222222222225,110.0,61.733333333333334,58.0,30.0,80.0,0.13157690439654918,0.14874165128092473,0.17250012284127061,0.20564650261739734,0.22529013181384963,16.602287645266838,5556.0,65.15675875973824
91,2011-04-30,STORE_2_586,67.0,0,0,0.016950228690565117,-0.05071738182237483,0.15090771303743242,0.20564650261739734,,0.13996772697341958,,0.20564650261739734,0.14217788177853646,12.909629629629636,110.0,61.86666666666667,58.5,30.0,80.0,0.13157690439654918,0.14982468215917857,0.17250012284127061,0.20564650261739734,0.22529013181384963,16.595789367158805,5568.0,65.15950504002885
92,2011-05-01,STORE_2_586,87.0,0,0,0.03968919622883402,0.0227389675382689,0.16785794172799753,0.22428861267345548,,0.17812542896613437,,0.22792289732854956,0.11955326215344252,13.081481481481491,110.0,62.333333333333336,59.0,30.0,80.0,0.1332689646247173,0.15090771303743242,0.1771059508610245,0.20583656615134077,0.22529013181384963,16.706319869902696,5610.0,65.16225132031946
93,2011-05-02,STORE_2_586,73.0,0,0,-0.027397022424282685,-0.0670862186531167,0.20754713795683155,0.11955326215344252,,0.20182009476434443,,0.12417345979018768,0.14656473202665019,13.168395061728383,110.0,62.51111111111111,59.0,30.0,80.0,0.1332689646247173,0.15090771303743242,0.17812542896613437,0.20583656615134077,0.22529013181384963,16.734036125325396,5626.0,65.16499760061006
94,2011-05-03,STORE_2_586,64.00000000000001,0,0,-0.0185712395464519,0.008825782877830785,0.18015011553254887,0.14437684587847466,,0.20182009476434443,,0.11955326215344252,0.13996772697341958,13.105185185185189,110.0,62.62222222222222,59.0,30.0,80.0,0.1332689646247173,0.15090771303743242,0.17812542896613437,0.20583656615134077,0.22529013181384963,16.710070823199835,5636.0,65.16774388090067
95,2011-05-04,STORE_2_586,58.0,0,0,-0.012837224705172234,0.0057340148412796665,0.16157887598609696,0.15090771303743242,,0.22972869819181194,,0.14217788177853646,0.16785794172799753,13.092345679012356,110.0,62.522222222222226,59.0,30.0,80.0,0.1332689646247173,0.15090771303743242,0.17812542896613437,0.20583656615134077,0.22529013181384963,16.710507881507596,5627.0,65.17049016119128
96,2011-05-05,STORE_2_586,66.0,0,0,0.017033339298780342,0.029870564003952577,0.14874165128092473,0.1264652565697725,,0.14217788177853646,,0.08324010252449247,0.12186950488062341,12.977037037037025,110.0,62.74444444444445,59.0,30.0,80.0,0.13383006985533036,0.15090771303743242,0.17812542896613437,0.20583656615134077,0.22529013181384963,16.621064955341698,5647.0,65.17323644148189
97,2011-05-06,STORE_2_586,61.0,0,0,-0.010567297049548618,-0.02760063634832896,0.16577499057970507,0.14656473202665019,,0.14656473202665019,,0.15090771303743242,0.22610955656508122,12.55358024691358,110.0,62.34444444444444,59.0,30.0,80.0,0.13383006985533036,0.15090771303743242,0.1771059508610245,0.20564650261739734,0.22428861267345548,16.215654186591614,5611.0,65.1759827217725
98,2011-05-07,STORE_2_586,66.0,0,0,0.010567297049548618,0.021134594099097237,0.15520769353015645,0.20564650261739734,,0.12186950488062341,,0.16785794172799753,0.18616814922154837,12.425185185185187,110.0,62.233333333333334,59.0,30.0,80.0,0.13383006985533036,0.15090771303743242,0.17250012284127061,0.20564650261739734,0.22428861267345548,16.155181448700894,5601.0,65.17872900206311
99,2011-05-08,STORE_2_586,62.000000000000014,0,0,-0.008433167536862768,-0.019000464586411386,0.16577499057970507,0.22792289732854956,,0.11252947862648001,,0.20754713795683155,0.16785794172799753,12.364938271604945,110.0,62.17777777777778,59.0,30.0,80.0,0.13383006985533036,0.15090771303743242,0.17250012284127061,0.20564650261739734,0.22428861267345548,16.147200528075526,5596.0,65.18147528235372
100,2011-05-09,STORE_2_586,67.0,0,0,0.010516118685155229,0.018949286222017997,0.1573418230428423,0.12417345979018768,,0.18015011553254887,,0.18015011553254887,0.17404751654569497,12.325679012345672,110.0,62.144444444444446,59.0,30.0,80.0,0.13383006985533036,0.15090771303743242,0.16785794172799753,0.20564650261739734,0.22428861267345548,16.133962441691523,5593.0,65.18422156264432
101,2011-05-10,STORE_2_586,67.0,0,0,0.0,-0.010516118685155229,0.16785794172799753,0.11955326215344252,,0.19406463006758215,,0.16157887598609696,0.16157887598609696,12.364938271604945,110.0,62.17777777777778,59.0,30.0,80.0,0.13383006985533036,0.15090771303743242,0.16785794172799753,0.20564650261739734,0.22428861267345548,16.14093670462998,5596.0,65.18696784293493
102,2011-05-11,STORE_2_586,60.0,0,0,-0.014794916664430224,-0.014794916664430224,0.16785794172799753,0.14217788177853646,,0.16577499057970507,,0.14874165128092473,0.1573418230428423,12.383209876543214,110.0,62.15555555555556,59.0,30.0,80.0,0.13383006985533036,0.15090771303743242,0.16785794172799753,0.20564650261739734,0.22428861267345548,16.14256089224384,5594.0,65.18971412322554
103,2011-05-12,STORE_2_586,61.0,0,0,0.0021446684665891447,0.01693958513101937,0.1530630250635673,0.08324010252449247,,0.14874165128092473,,0.16577499057970507,0.1960165186651042,12.143703703703695,110.0,61.93333333333333,59.0,30.0,80.0,0.13383006985533036,0.15090771303743242,0.16785794172799753,0.20564650261739734,0.22428861267345548,16.01740626227563,5574.0,65.19246040351615
104,2011-05-13,STORE_2_586,67.0,0,0,0.01265024819784108,0.010505579731251935,0.15520769353015645,0.15090771303743242,,0.13101288432049313,,0.15520769353015645,0.2187795178886798,11.803456790123446,110.0,61.644444444444446,59.0,30.0,80.0,0.13383006985533036,0.15090771303743242,0.16785794172799753,0.20220273554964974,0.22428861267345548,15.681744278634131,5548.0,65.19520668380676
105,2011-05-14,STORE_2_586,60.0,0,0,-0.014794916664430224,-0.027445164862271304,0.16785794172799753,0.16785794172799753,,0.11252947862648001,,0.16577499057970507,0.2491121963984876,11.173333333333327,99.0,61.08888888888889,59.0,30.0,69.0,0.13383006985533036,0.15090771303743242,0.16785794172799753,0.20182009476434443,0.21675494905097467,14.81090127252118,5498.0,65.19795296409737
106,2011-05-15,STORE_2_586,56.0,0,0,-0.008686179185092652,0.006108737479337573,0.1530630250635673,0.20754713795683155,,0.16577499057970507,,0.1573418230428423,0.15946551667269784,11.191358024691349,99.0,61.01111111111111,59.0,30.0,69.0,0.13383006985533036,0.15090771303743242,0.16785794172799753,0.20182009476434443,0.21675494905097467,14.819130093534122,5491.0,65.20069924438798
107,2011-05-16,STORE_2_586,46.00000000000001,0,0,-0.022507340997851247,-0.013821161812758595,0.14437684587847466,0.18015011553254887,,0.20564650261739734,,0.16785794172799753,0.13551338554716957,11.24814814814815,99.0,60.94444444444444,59.0,30.0,69.0,0.1332689646247173,0.15090771303743242,0.16785794172799753,0.20182009476434443,0.21675494905097467,14.87352002730009,5485.0,65.20344552467859
108,2011-05-17,STORE_2_586,39.0,0,0,-0.01647927439449537,0.006028066603355878,0.12186950488062341,0.16157887598609696,,0.22428861267345548,,0.16785794172799753,0.12186950488062341,11.315555555555557,99.0,60.86666666666667,59.0,30.0,69.0,0.1332689646247173,0.15090771303743242,0.16785794172799753,0.20182009476434443,0.21675494905097467,14.970532853996357,5478.0,65.2061918049692
109,2011-05-18,STORE_2_586,55.0,0,0,0.03678765129240842,0.05326692568690379,0.10539023048612804,0.14874165128092473,,0.11955326215344252,,0.1530630250635673,0.13996772697341958,11.305925925925923,99.0,60.87777777777778,59.0,30.0,69.0,0.1332689646247173,0.15090771303743242,0.16785794172799753,0.20182009476434443,0.21675494905097467,14.965749494348435,5479.0,65.2089380852598
110,2011-05-19,STORE_2_586,51.999999999999986,0,0,-0.00666449623136689,-0.04345214752377531,0.14217788177853646,0.16577499057970507,,0.14437684587847466,,0.15520769353015645,0.1332689646247173,11.2962962962963,99.0,60.888888888888886,59.0,30.0,69.0,0.13383006985533036,0.15090771303743242,0.16785794172799753,0.20182009476434443,0.21675494905097467,14.958703035503097,5480.0,65.21168436555041
111,2011-05-20,STORE_2_586,61.0,0,0,0.01969430798298688,0.02635880421435377,0.13551338554716957,0.15520769353015645,,0.15090771303743242,,0.16785794172799753,0.16157887598609696,11.258518518518523,99.0,60.855555555555554,59.0,30.0,69.0,0.13383006985533036,0.15090771303743242,0.16785794172799753,0.20182009476434443,0.21675494905097467,14.955034559527244,5477.0,65.21443064584102
112,2011-05-21,STORE_2_586,76.0,0,0,0.030960455691391914,0.011266147708405033,0.15520769353015645,0.16577499057970507,,0.1264652565697725,,0.1530630250635673,0.1960165186651042,11.195555555555552,99.0,60.8,59.0,30.0,69.0,0.13383006985533036,0.15090771303743242,0.16785794172799753,0.20182009476434443,0.21675494905097467,14.8884994452207,5472.0,65.21717692613163
113,2011-05-22,STORE_2_586,70.99999999999999,0,0,-0.01007689016586713,-0.041037345857259044,0.18616814922154837,0.1573418230428423,,0.14656473202665019,,0.14437684587847466,0.15520769353015645,11.321481481481486,99.0,60.91111111111111,59.0,30.0,69.0,0.13383006985533036,0.15090771303743242,0.16785794172799753,0.20182009476434443,0.21675494905097467,14.927272713448792,5482.0,65.21992320642224
114,2011-05-23,STORE_2_586,75.0,0,0,0.00808013040979183,0.01815702057565896,0.17609125905568124,0.16785794172799753,,0.20564650261739734,,0.12186950488062341,0.13551338554716957,11.422222222222217,99.0,61.166666666666664,59.0,30.0,69.0,0.13383006985533036,0.15090771303743242,0.16785794172799753,0.20182009476434443,0.21675494905097467,14.969819825835497,5505.0,65.22266948671285
115,2011-05-24,STORE_2_586,66.0,0,0,-0.018396398885767995,-0.026476529295559825,0.18417138946547307,0.16785794172799753,,0.22792289732854956,,0.10539023048612804,0.09074970430323798,11.228148148148144,99.0,61.53333333333333,59.0,30.0,69.0,0.1360716059052426,0.15090771303743242,0.16785794172799753,0.20182009476434443,0.21675494905097467,14.673372658272509,5538.0,65.22541576700345
116,2011-05-25,STORE_2_586,58.0,0,0,-0.017033339298780342,0.0013630595869876527,0.16577499057970507,0.1530630250635673,,0.12417345979018768,,0.14217788177853646,0.11955326215344252,11.109382716049387,99.0,61.67777777777778,59.0,30.0,69.0,0.1383016319779511,0.15090771303743242,0.16785794172799753,0.20182009476434443,0.21675494905097467,14.57242877489887,5551.0,65.22816204729406
117,2011-05-26,STORE_2_586,49.0,0,0,-0.01999662841625366,-0.0029632891174733167,0.14874165128092473,0.15520769353015645,,0.11955326215344252,,0.13551338554716957,0.15090771303743242,11.200740740740748,99.0,61.56666666666667,59.0,30.0,69.0,0.1360716059052426,0.15090771303743242,0.16785794172799753,0.20182009476434443,0.21675494905097467,14.631081276715086,5541.0,65.23090832758467
118,2011-05-27,STORE_2_586,56.0,0,0,0.015631823013803586,0.035628451430057245,0.12874502286467107,0.16785794172799753,,0.14217788177853646,,0.15520769353015645,0.1901343364391498,11.031111111111107,99.0,61.32222222222222,59.0,30.0,69.0,0.1360716059052426,0.15090771303743242,0.16785794172799753,0.20182009476434443,0.21675494905097467,14.536917573348624,5519.0,65.23365460787528
119,2011-05-28,STORE_2_586,56.0,0,0,0.0,-0.015631823013803586,0.14437684587847466,0.1530630250635673,,0.08324010252449247,,0.18616814922154837,0.13774626697946157,11.00444444444445,99.0,61.355555555555554,59.0,30.0,69.0,0.13662697090373208,0.15090771303743242,0.16785794172799753,0.20182009476434443,0.21675494905097467,14.52105105855611,5522.0,65.23640088816589
120,2011-05-29,STORE_2_586,66.0,0,0,0.021398144701230415,0.021398144701230415,0.14437684587847466,0.14437684587847466,,0.15090771303743242,,0.17609125905568124,0.10778304360201835,10.870123456790116,99.0,61.644444444444446,59.0,30.0,69.0,0.1405202656746988,0.15090771303743242,0.16785794172799753,0.20182009476434443,0.21675494905097467,14.349028946599907,5548.0,65.2391471684565
121,2011-05-30,STORE_2_586,73.0,1,0,0.014375124952843793,-0.007023019748386622,0.16577499057970507,0.12186950488062341,,0.16785794172799753,,0.18417138946547307,0.14437684587847466,10.962962962962965,99.0,61.833333333333336,59.5,30.0,69.0,0.1405202656746988,0.15198536905049986,0.16785794172799753,0.20182009476434443,0.21675494905097467,14.385737318686425,5565.0,65.2418934487471
122,2011-05-31,STORE_2_586,45.0,0,0,-0.06059685337910635,-0.07497197833195014,0.18015011553254887,0.10539023048612804,,0.20754713795683155,,0.16577499057970507,0.13101288432049313,11.009876543209879,99.0,61.77777777777778,59.5,30.0,69.0,0.1405202656746988,0.15198536905049986,0.16785794172799753,0.20182009476434443,0.21675494905097467,14.441495905722727,5560.0,65.24463972903771
123,2011-06-01,STORE_2_586,67.0,0,0,0.04830467957455502,0.10890153295366137,0.11955326215344252,0.14217788177853646,,0.18015011553254887,,0.14874165128092473,0.15090771303743242,11.04888888888889,99.0,61.86666666666667,60.0,30.0,69.0,0.1405202656746988,0.1530630250635673,0.16785794172799753,0.20182009476434443,0.21675494905097467,14.448824842382258,5568.0,65.24738600932832
124,2011-06-02,STORE_2_586,59.0,0,0,-0.016950228690565117,-0.06525490826512013,0.16785794172799753,0.13551338554716957,,0.16157887598609696,,0.12874502286467107,0.14217788177853646,11.010370370370373,99.0,61.91111111111111,60.0,30.0,69.0,0.1405202656746988,0.1530630250635673,0.16785794172799753,0.20182009476434443,0.21675494905097467,14.43360968847367,5572.0,65.25013228961893
125,2011-06-03,STORE_2_586,55.0,0,0,-0.008729831258895954,0.008220397431669163,0.15090771303743242,0.15520769353015645,,0.14874165128092473,,0.14437684587847466,0.22428861267345548,10.63753086419753,99.0,61.455555555555556,59.5,30.0,69.0,0.1405202656746988,0.15198536905049986,0.16785794172799753,0.19484017653725844,0.20669185205408616,13.985675746719732,5531.0,65.25287856990954
126,2011-06-04,STORE_2_586,74.0,0,0,0.03998752498933797,0.04871735624823392,0.14217788177853646,0.18616814922154837,,0.16577499057970507,,0.14437684587847466,0.22792289732854956,10.32938271604938,99.0,61.18888888888889,59.5,30.0,69.0,0.1405202656746988,0.15198536905049986,0.16785794172799753,0.19052736580199306,0.20564650261739734,13.501472615848405,5507.0,65.25562485020015
127,2011-06-05,STORE_2_586,78.00000000000001,0,0,0.007968929671275354,-0.032018595318062615,0.18216540676787443,0.17609125905568124,,0.15520769353015645,,0.16577499057970507,0.15946551667269784,10.52197530864198,99.0,61.355555555555554,59.5,30.0,69.0,0.1405202656746988,0.15198536905049986,0.16785794172799753,0.19052736580199306,0.20564650261739734,13.616176030291696,5522.0,65.25837113049076
128,2011-06-06,STORE_2_586,70.0,0,0,-0.016086819893454812,-0.024055749564730167,0.1901343364391498,0.18417138946547307,,0.16577499057970507,,0.18015011553254887,0.18417138946547307,10.457777777777773,99.0,61.3,59.5,30.0,69.0,0.1405202656746988,0.15198536905049986,0.16785794172799753,0.19052736580199306,0.20564650261739734,13.570001614599194,5517.0,65.26111741078137
129,2011-06-07,STORE_2_586,72.0,0,0,0.004077912420439395,0.020164732313894207,0.17404751654569497,0.16577499057970507,,0.1573418230428423,,0.11955326215344252,0.14217788177853646,10.531851851851856,99.0,61.48888888888889,60.0,30.0,69.0,0.1405202656746988,0.1530630250635673,0.16785794172799753,0.19052736580199306,0.20564650261739734,13.599607103085813,5534.0,65.26386369107198
130,2011-06-08,STORE_2_586,67.0,0,0,-0.010267487238136835,-0.01434539965857623,0.17812542896613437,0.14874165128092473,,0.16785794172799753,,0.16785794172799753,0.16157887598609696,10.569629629629633,99.0,61.522222222222226,60.0,30.0,69.0,0.1405202656746988,0.1530630250635673,0.16785794172799753,0.19052736580199306,0.20564650261739734,13.609504096322365,5537.0,65.26660997136258
131,2011-06-09,STORE_2_586,78.00000000000001,0,0,0.022276394711152253,0.03254388194928909,0.16785794172799753,0.12874502286467107,,0.16785794172799753,,0.15090771303743242,0.1264652565697725,10.639506172839512,99.0,61.855555555555554,60.0,30.0,69.0,0.14217788177853646,0.1530630250635673,0.17250012284127061,0.19052736580199306,0.20564650261739734,13.64193889734525,5567.0,65.26935625165319
132,2011-06-10,STORE_2_586,75.0,0,0,-0.005962946973676719,-0.028239341684828972,0.1901343364391498,0.14437684587847466,,0.1530630250635673,,0.14217788177853646,0.17812542896613437,10.676543209876545,99.0,61.888888888888886,60.0,30.0,69.0,0.14217788177853646,0.1530630250635673,0.17250012284127061,0.19052736580199306,0.20564650261739734,13.670639780565775,5570.0,65.2721025319438
133,2011-06-11,STORE_2_586,69.0,0,0,-0.012177278550836862,-0.006214331577160143,0.18417138946547307,0.14437684587847466,,0.15520769353015645,,0.18216540676787443,0.16157887598609696,10.738271604938275,99.0,61.94444444444444,60.0,30.0,69.0,0.14217788177853646,0.1530630250635673,0.1735341651379303,0.19052736580199306,0.20564650261739734,13.689462125423182,5575.0,65.27484881223441
134,2011-06-12,STORE_2_586,63.0,0,0,-0.012528594241938362,-0.0003513156911015003,0.1719941109146362,0.16577499057970507,,0.16785794172799753,,0.1901343364391498,0.16785794172799753,10.688888888888886,99.0,61.9,60.0,30.0,69.0,0.14217788177853646,0.1530630250635673,0.1735341651379303,0.19052736580199306,0.20564650261739734,13.679353753051478,5571.0,65.27759509252502
135,2011-06-13,STORE_2_586,61.0,0,0,-0.004257823142541389,0.008270771099396973,0.15946551667269784,0.18015011553254887,,0.1530630250635673,,0.17404751654569497,0.14217788177853646,10.629629629629635,99.0,61.96666666666667,60.5,30.0,69.0,0.14217788177853646,0.1541353592968619,0.1735341651379303,0.19052736580199306,0.20564650261739734,13.659955418026515,5577.0,65.28034137281563
136,2011-06-14,STORE_2_586,59.0,0,0,-0.004299980492724037,-4.215735018264777e-05,0.15520769353015645,0.11955326215344252,,0.14437684587847466,,0.17812542896613437,0.11252947862648001,10.465185185185186,99.0,62.15555555555556,60.5,30.0,69.0,0.14217788177853646,0.1541353592968619,0.1735341651379303,0.19052736580199306,0.20564650261739734,13.497324837825373,5594.0,65.28308765310624
137,2011-06-15,STORE_2_586,86.00000000000001,0,0,0.05473878957996492,0.059038770072688956,0.15090771303743242,0.16785794172799753,,0.12186950488062341,,0.16785794172799753,0.15946551667269784,10.75481481481482,99.0,62.41111111111111,60.5,30.0,69.0,0.14217788177853646,0.1541353592968619,0.17558032342818466,0.19484017653725844,0.20564650261739734,13.72923923557003,5617.0,65.28583393339684
138,2011-06-16,STORE_2_586,47.0,0,0,-0.08147304282720966,-0.13621183240717458,0.20564650261739734,0.15090771303743242,,0.10539023048612804,,0.1901343364391498,0.14437684587847466,10.841481481481486,99.0,62.31111111111111,60.5,30.0,69.0,0.14217788177853646,0.1541353592968619,0.17558032342818466,0.19484017653725844,0.20564650261739734,13.809005728183285,5608.0,65.28858021368745
139,2011-06-17,STORE_2_586,70.99999999999999,0,0,0.05191779926549356,0.13339084209270322,0.12417345979018768,0.14217788177853646,,0.14217788177853646,,0.18417138946547307,0.14874165128092473,10.906172839506171,99.0,62.455555555555556,61.0,30.0,69.0,0.14217788177853646,0.15520769353015645,0.17609125905568124,0.19484017653725844,0.20564650261739734,13.83137705584386,5621.0,65.29132649397806
140,2011-06-18,STORE_2_586,68.0,0,0,-0.006160308704818429,-0.05807810797031199,0.17609125905568124,0.18216540676787443,,0.13551338554716957,,0.1719941109146362,0.1901343364391498,10.782716049382714,99.0,62.34444444444444,61.0,30.0,69.0,0.14217788177853646,0.15520769353015645,0.17558032342818466,0.19484017653725844,0.20564650261739734,13.744997955220427,5611.0,65.29407277426867
141,2011-06-19,STORE_2_586,80.99999999999999,0,0,0.026085568314241386,0.032245877019059815,0.1699309503508628,0.1901343364391498,,0.15520769353015645,,0.15946551667269784,0.11955326215344252,10.832839506172839,99.0,62.74444444444445,61.0,30.0,69.0,0.14217788177853646,0.15520769353015645,0.17609125905568124,0.19659687627502825,0.20564650261739734,13.758397730653686,5647.0,65.29681905455928
142,2011-06-20,STORE_2_586,89.00000000000003,0,0,0.01530711684398367,-0.010778451470257716,0.1960165186651042,0.17404751654569497,,0.18616814922154837,,0.15520769353015645,0.1332689646247173,11.025925925925922,99.0,63.166666666666664,61.0,30.0,69.0,0.14217788177853646,0.15520769353015645,0.1776168864885211,0.20182009476434443,0.20669185205408616,13.975299237012598,5685.0,65.29956533484987
143,2011-06-21,STORE_2_586,83.0,0,0,-0.01142946178078183,-0.0267365786247655,0.21132363550908786,0.17812542896613437,,0.17609125905568124,,0.15090771303743242,0.11722459983485986,11.062222222222227,99.0,63.6,61.0,30.0,69.0,0.14272762280352103,0.15520769353015645,0.17812542896613437,0.20182009476434443,0.20669185205408616,13.978956897961169,5724.0,65.30231161514048
144,2011-06-22,STORE_2_586,57.0,0,0,-0.05332944170165585,-0.04189997992087402,0.19989417372830603,0.16785794172799753,,0.18417138946547307,,0.20564650261739734,0.11955326215344252,10.937777777777779,99.0,63.733333333333334,61.0,30.0,69.0,0.14437684587847466,0.15520769353015645,0.17812542896613437,0.20182009476434443,0.20669185205408616,13.856244282560032,5736.0,65.30505789543109
145,2011-06-23,STORE_2_586,49.0,0,0,-0.017819709161979114,0.035509732539676736,0.14656473202665019,0.1901343364391498,,0.16577499057970507,,0.12417345979018768,0.11955326215344252,10.896296296296303,99.0,63.77777777777778,61.0,30.0,69.0,0.14437684587847466,0.15520769353015645,0.17812542896613437,0.20182009476434443,0.20669185205408616,13.801789313877721,5740.0,65.3078041757217
146,2011-06-24,STORE_2_586,55.0,0,0,0.013432858913865392,0.031252568075844506,0.12874502286467107,0.18417138946547307,,0.14874165128092473,,0.17609125905568124,0.14874165128092473,10.927407407407404,99.0,63.74444444444445,61.0,30.0,69.0,0.14272762280352103,0.15520769353015645,0.17812542896613437,0.20182009476434443,0.20669185205408616,13.819511618479263,5737.0,65.31055045601231
147,2011-06-25,STORE_2_586,66.0,0,0,0.02359710880116861,0.010164249887303217,0.14217788177853646,0.1719941109146362,,0.12874502286467107,,0.1699309503508628,0.15090771303743242,10.903209876543206,99.0,63.82222222222222,61.5,30.0,69.0,0.14272762280352103,0.1562747582864994,0.17812542896613437,0.20182009476434443,0.20669185205408616,13.812205787422494,5744.0,65.31329673630292
148,2011-06-26,STORE_2_586,70.0,0,0,0.008272525965989902,-0.015324582835178707,0.16577499057970507,0.15946551667269784,,0.14437684587847466,,0.1960165186651042,0.15520769353015645,10.942716049382716,99.0,63.922222222222224,62.5,30.0,69.0,0.14272762280352103,0.15840366985777007,0.17812542896613437,0.20182009476434443,0.20669185205408616,13.824118134523205,5753.0,65.31604301659353
149,2011-06-27,STORE_2_586,39.0,0,0,-0.06865728605956693,-0.07692981202555683,0.17404751654569497,0.15520769353015645,,0.14437684587847466,,0.21132363550908786,0.11488338401995735,10.986172839506171,99.0,63.87777777777778,62.5,30.0,69.0,0.14272762280352103,0.15840366985777007,0.17812542896613437,0.20182009476434443,0.20669185205408616,13.898369298717945,5749.0,65.31878929688413
150,2011-06-28,STORE_2_586,42.0,0,0,0.007139248140351967,0.0757965341999189,0.10539023048612804,0.15090771303743242,,0.16577499057970507,,0.19989417372830603,0.1530630250635673,11.181728395061732,99.0,63.67777777777778,62.5,30.0,69.0,0.14217788177853646,0.15840366985777007,0.17812542896613437,0.20182009476434443,0.20669185205408616,14.083082350444032,5731.0,65.32153557717474
151,2011-06-29,STORE_2_586,45.0,0,0,0.007023783526962507,-0.0001154646133894599,0.11252947862648001,0.20564650261739734,,0.18015011553254887,,0.14656473202665019,0.13996772697341958,11.279506172839506,99.0,63.577777777777776,62.5,30.0,69.0,0.14217788177853646,0.15840366985777007,0.17812542896613437,0.20182009476434443,0.20669185205408616,14.184164122717094,5722.0,65.32428185746535
152,2011-06-30,STORE_2_586,40.0,0,0,-0.01177021855142417,-0.018794002078386676,0.11955326215344252,0.12417345979018768,,0.11955326215344252,,0.12874502286467107,0.17812542896613437,11.432098765432096,99.0,63.22222222222222,61.5,30.0,69.0,0.14217788177853646,0.1562747582864994,0.1776168864885211,0.20182009476434443,0.20669185205408616,14.370520525533568,5690.0,65.32702813775596
153,2011-07-01,STORE_2_586,104.0,0,0,0.13086371911830433,0.14263393766972848,0.10778304360201835,0.17609125905568124,,0.16785794172799753,,0.14217788177853646,0.20182009476434443,11.664197530864199,104.0,63.44444444444444,61.5,30.0,74.0,0.14217788177853646,0.1562747582864994,0.1776168864885211,0.20220273554964974,0.20962421161057251,14.842325684014687,5710.0,65.32977441804657
154,2011-07-02,STORE_2_586,78.00000000000001,0,0,-0.04851242628117289,-0.17937614539947722,0.23864676272032267,0.1699309503508628,,0.15090771303743242,,0.16577499057970507,0.20182009476434443,11.594567901234564,104.0,63.37777777777778,61.5,30.0,74.0,0.14217788177853646,0.1562747582864994,0.1776168864885211,0.2004694066172152,0.20962421161057251,14.762218536854062,5704.0,65.33252069833718
155,2011-07-03,STORE_2_586,61.0,0,0,-0.03492664290899333,0.013585783372179555,0.1901343364391498,0.1960165186651042,,0.14217788177853646,,0.17404751654569497,0.22972869819181194,11.19802469135802,104.0,62.955555555555556,61.0,30.0,74.0,0.14217788177853646,0.15520769353015645,0.17609125905568124,0.19640428417142441,0.20669185205408616,14.26704469379106,5666.0,65.33526697862779
156,2011-07-04,STORE_2_586,77.0,1,0,0.032948076926905434,0.06787471983589877,0.15520769353015645,0.21132363550908786,,0.18216540676787443,,0.10539023048612804,0.14217788177853646,11.275555555555561,104.0,63.2,61.5,30.0,74.0,0.14217788177853646,0.1562747582864994,0.1776168864885211,0.19640428417142441,0.20669185205408616,14.317585635398391,5688.0,65.3380132589184
157,2011-07-05,STORE_2_586,70.99999999999999,0,0,-0.012064511401380651,-0.045012588328286085,0.1881557704570619,0.19989417372830603,,0.1901343364391498,,0.11252947862648001,0.14656473202665019,11.296790123456796,104.0,63.355555555555554,62.5,30.0,74.0,0.14217788177853646,0.15840366985777007,0.1776168864885211,0.19640428417142441,0.20669185205408616,14.325518294532705,5702.0,65.340759539209
158,2011-07-06,STORE_2_586,65.0,0,0,-0.012409257981819938,-0.00034474658043928685,0.17609125905568124,0.14656473202665019,,0.17404751654569497,,0.11955326215344252,0.12186950488062341,11.122222222222227,104.0,63.56666666666667,63.5,30.0,74.0,0.14272762280352103,0.1605221963293974,0.1776168864885211,0.19640428417142441,0.20669185205408616,14.206384068953183,5721.0,65.34350581949961
159,2011-07-07,STORE_2_586,70.99999999999999,0,0,0.012409257981819938,0.024818515963639876,0.1636820010738613,0.12874502286467107,,0.17812542896613437,,0.10778304360201835,0.11252947862648001,10.958024691358025,104.0,63.888888888888886,64.5,30.0,74.0,0.14437684587847466,0.16263043852997913,0.1776168864885211,0.19640428417142441,0.20669185205408616,14.03962645910179,5750.0,65.34625209979022
160,2011-07-08,STORE_2_586,62.000000000000014,0,0,-0.018749436012838933,-0.03115869399465887,0.17609125905568124,0.14217788177853646,,0.16785794172799753,,0.23864676272032267,0.18015011553254887,10.877777777777778,104.0,63.766666666666666,63.5,30.0,74.0,0.14437684587847466,0.1605221963293974,0.17609125905568124,0.19640428417142441,0.20669185205408616,14.007261359256375,5739.0,65.34899838008083
161,2011-07-09,STORE_2_586,101.0,0,0,0.07597610617241343,0.09472554218525236,0.1573418230428423,0.16577499057970507,,0.1901343364391498,,0.1901343364391498,0.19406463006758215,11.11111111111111,104.0,64.0,63.5,30.0,74.0,0.14437684587847466,0.1605221963293974,0.17609125905568124,0.2004694066172152,0.20962421161057251,14.448669313947919,5760.0,65.35174466037144
162,2011-07-10,STORE_2_586,70.0,0,0,-0.05927041266956076,-0.1352465188419742,0.23331792921525574,0.17404751654569497,,0.18417138946547307,,0.15520769353015645,0.16577499057970507,11.156543209876544,104.0,64.04444444444445,63.5,30.0,74.0,0.14437684587847466,0.1605221963293974,0.17609125905568124,0.2004694066172152,0.20962421161057251,14.46103723812704,5764.0,65.35449094066205
163,2011-07-11,STORE_2_586,48.0,0,0,-0.04758225997592247,0.011688152693638293,0.17404751654569497,0.10539023048612804,,0.1719941109146362,,0.1881557704570619,0.14874165128092473,11.26666666666666,104.0,63.93333333333333,63.5,30.0,74.0,0.14272762280352103,0.1605221963293974,0.17609125905568124,0.2004694066172152,0.20962421161057251,14.546168266452684,5754.0,65.35723722095265
164,2011-07-12,STORE_2_586,53.000000000000014,0,0,0.011281010409689068,0.05886327038561154,0.1264652565697725,0.11252947862648001,,0.15946551667269784,,0.17609125905568124,0.13101288432049313,11.233333333333333,104.0,63.96666666666667,63.5,30.0,74.0,0.14272762280352103,0.1605221963293974,0.17609125905568124,0.2004694066172152,0.20962421161057251,14.517289188869196,5757.0,65.35998350124325
165,2011-07-13,STORE_2_586,51.999999999999986,0,0,-0.002232881432292,-0.013513891841981068,0.13774626697946157,0.11955326215344252,,0.15520769353015645,,0.1636820010738613,0.11252947862648001,11.12395061728395,104.0,64.07777777777778,63.5,30.0,74.0,0.14272762280352103,0.1605221963293974,0.17609125905568124,0.2004694066172152,0.20962421161057251,14.384938891644781,5767.0,65.36272978153386
166,2011-07-14,STORE_2_586,51.999999999999986,0,0,0.0,0.002232881432292,0.13551338554716957,0.10778304360201835,,0.15090771303743242,,0.17609125905568124,0.16577499057970507,11.231604938271605,104.0,63.922222222222224,62.5,30.0,74.0,0.14217788177853646,0.15840366985777007,0.17609125905568124,0.2004694066172152,0.20962421161057251,14.439511786214226,5753.0,65.36547606182447
167,2011-07-15,STORE_2_586,59.0,0,0,0.015394327490262844,0.015394327490262844,0.13551338554716957,0.23864676272032267,,0.20564650261739734,,0.1573418230428423,0.20564650261739734,11.02765432098766,104.0,63.62222222222222,62.0,30.0,74.0,0.14217788177853646,0.1573418230428423,0.17609125905568124,0.19640428417142441,0.20962421161057251,14.254963872498664,5726.0,65.36822234211508
168,2011-07-16,STORE_2_586,80.0,0,0,0.04315691703014973,0.02776258953988689,0.15090771303743242,0.1901343364391498,,0.12417345979018768,,0.23331792921525574,0.22428861267345548,10.841975308641976,104.0,63.44444444444444,62.0,30.0,74.0,0.14217788177853646,0.1573418230428423,0.17609125905568124,0.19425981892733438,0.20669185205408616,13.942990757399354,5710.0,65.37096862240568
169,2011-07-17,STORE_2_586,77.0,0,0,-0.005908859610520262,-0.049065776640669995,0.19406463006758215,0.15520769353015645,,0.17609125905568124,,0.17404751654569497,0.11955326215344252,10.79555555555555,104.0,63.8,62.5,30.0,74.0,0.14272762280352103,0.15840366985777007,0.17609125905568124,0.19425981892733438,0.20669185205408616,13.875206244038566,5742.0,65.37371490269629
170,2011-07-18,STORE_2_586,64.00000000000001,0,0,-0.026576894470964924,-0.020668034860444662,0.1881557704570619,0.1881557704570619,,0.1699309503508628,,0.1264652565697725,0.14437684587847466,10.71111111111111,104.0,63.888888888888886,63.5,30.0,74.0,0.14272762280352103,0.1605221963293974,0.17609125905568124,0.19425981892733438,0.20669185205408616,13.85027841722709,5750.0,65.3764611829869
171,2011-07-19,STORE_2_586,65.0,0,0,0.002103125087764335,0.02868001955872926,0.16157887598609696,0.17609125905568124,,0.1960165186651042,,0.13774626697946157,0.15090771303743242,10.667654320987651,104.0,63.955555555555556,64.0,30.0,74.0,0.14272762280352103,0.16157887598609696,0.17609125905568124,0.19425981892733438,0.20669185205408616,13.840918907527204,5756.0,65.37920746327751
172,2011-07-20,STORE_2_586,82.0,0,0,0.034277672877245036,0.0321745477894807,0.1636820010738613,0.1636820010738613,,0.21132363550908786,,0.13551338554716957,0.1264652565697725,10.688888888888892,104.0,64.33333333333333,64.5,30.0,74.0,0.14437684587847466,0.16263043852997913,0.1776168864885211,0.19621083419370441,0.20669185205408616,13.864512941359449,5790.0,65.38195374356812
173,2011-07-21,STORE_2_586,74.0,0,0,-0.015794267183231903,-0.05007194006047694,0.19795967395110634,0.17609125905568124,,0.19989417372830603,,0.13551338554716957,0.14656473202665019,10.710617283950617,104.0,64.52222222222223,65.0,30.0,74.0,0.14437684587847466,0.1636820010738613,0.17964394389094523,0.19621083419370441,0.20669185205408616,13.879277073568852,5807.0,65.38470002385873
174,2011-07-22,STORE_2_586,75.0,0,0,0.002005982697598635,0.017800249880830538,0.18216540676787443,0.1573418230428423,,0.14656473202665019,,0.15090771303743242,0.20564650261739734,10.591111111111111,104.0,64.4,65.0,30.0,74.0,0.14437684587847466,0.1636820010738613,0.17964394389094523,0.19425981892733438,0.20669185205408616,13.73570758721036,5796.0,65.38744630414934
175,2011-07-23,STORE_2_586,73.0,0,0,-0.004021273932924202,-0.006027256630522837,0.18417138946547307,0.23331792921525574,,0.12874502286467107,,0.19406463006758215,0.22792289732854956,10.319506172839509,104.0,64.12222222222222,65.0,30.0,74.0,0.14437684587847466,0.1636820010738613,0.17964394389094523,0.19052736580199306,0.20305795461730625,13.294273311144565,5771.0,65.39019258443994
176,2011-07-24,STORE_2_586,80.99999999999999,0,0,0.01586640313255533,0.01988767706547953,0.18015011553254887,0.17404751654569497,,0.14217788177853646,,0.1881557704570619,0.12417345979018768,10.3,104.0,64.5,65.5,30.0,74.0,0.14437684587847466,0.16472849582678317,0.18015011553254887,0.19425981892733438,0.20305795461730625,13.285330255586423,5805.0,65.39293886473055
177,2011-07-25,STORE_2_586,56.0,0,0,-0.05163967278662954,-0.06750607591918487,0.1960165186651042,0.1264652565697725,,0.16577499057970507,,0.16157887598609696,0.11955326215344252,10.172345679012349,104.0,64.62222222222222,65.5,30.0,74.0,0.14437684587847466,0.16472849582678317,0.18015011553254887,0.19425981892733438,0.20305795461730625,13.15386710155395,5816.0,65.39568514502116
178,2011-07-26,STORE_2_586,59.0,0,0,0.006530867158957759,0.058170539945587296,0.14437684587847466,0.13774626697946157,,0.17404751654569497,,0.1636820010738613,0.14217788177853646,10.125925925925923,104.0,64.66666666666667,65.5,30.0,74.0,0.14492381741551855,0.16472849582678317,0.18015011553254887,0.19425981892733438,0.20305795461730625,13.127721761664723,5820.0,65.39843142531177
179,2011-07-27,STORE_2_586,57.0,0,0,-0.004342981010782232,-0.010873848169739991,0.15090771303743242,0.13551338554716957,,0.10539023048612804,,0.19795967395110634,0.08324010252449247,9.812592592592592,104.0,64.96666666666667,65.5,39.0,65.0,0.14656473202665019,0.16472849582678317,0.18015011553254887,0.19425981892733438,0.20305795461730625,12.625504773533484,5847.0,65.40117770560238
180,2011-07-28,STORE_2_586,60.0,0,0,0.006498293036917124,0.010841274047699356,0.14656473202665019,0.13551338554716957,0.14437684587847466,0.11252947862648001,,0.18216540676787443,0.15090771303743242,9.800987654320988,104.0,64.97777777777777,65.5,39.0,65.0,0.14656473202665019,0.16472849582678317,0.18015011553254887,0.19425981892733438,0.20305795461730625,12.620633878717191,5848.0,65.40392398589299
181,2011-07-29,STORE_2_586,51.999999999999986,0,0,-0.017549639516397736,-0.02404793255331486,0.1530630250635673,0.15090771303743242,0.14217788177853646,0.11955326215344252,,0.18417138946547307,0.16785794172799753,9.926419753086419,104.0,64.81111111111112,65.0,39.0,65.0,0.14492381741551855,0.1636820010738613,0.18015011553254887,0.19425981892733438,0.20305795461730625,12.692468300553266,5833.0,65.4066702661836
182,2011-07-30,STORE_2_586,86.00000000000001,0,0,0.07013311707022776,0.0876827565866255,0.13551338554716957,0.19406463006758215,0.11955326215344252,0.10778304360201835,,0.18015011553254887,0.20754713795683155,9.915555555555557,104.0,64.8,65.0,39.0,65.0,0.14492381741551855,0.1636820010738613,0.18015011553254887,0.19425981892733438,0.20305795461730625,12.673248831892169,5832.0,65.4094165464742
183,2011-07-31,STORE_2_586,67.0,0,0,-0.0377885608893998,-0.10792167795962757,0.20564650261739734,0.1881557704570619,0.14656473202665019,0.23864676272032267,,0.1960165186651042,0.18015011553254887,9.85037037037037,104.0,64.73333333333333,65.0,39.0,65.0,0.14492381741551855,0.1636820010738613,0.17964394389094523,0.19425981892733438,0.20305795461730625,12.645379313311569,5826.0,65.41216282676481
184,2011-08-01,STORE_2_586,74.0,0,0,0.014307465039876899,0.0520960259292767,0.16785794172799753,0.16157887598609696,0.13996772697341958,0.1901343364391498,,0.14437684587847466,0.16157887598609696,9.940246913580246,104.0,64.84444444444445,65.5,39.0,65.0,0.14492381741551855,0.16472849582678317,0.18015011553254887,0.19425981892733438,0.20305795461730625,12.682741623211777,5836.0,65.41490910705542
185,2011-08-02,STORE_2_586,61.0,0,0,-0.02695771323771798,-0.04126517827759488,0.18216540676787443,0.1636820010738613,0.16785794172799753,0.15520769353015645,,0.15090771303743242,0.14874165128092473,9.905432098765434,104.0,64.87777777777778,65.5,39.0,65.0,0.14492381741551855,0.16472849582678317,0.18015011553254887,0.19425981892733438,0.20305795461730625,12.668484986776232,5839.0,65.41765538734603
186,2011-08-03,STORE_2_586,74.0,0,0,0.02695771323771798,0.05391542647543596,0.15520769353015645,0.19795967395110634,0.12186950488062341,0.1881557704570619,,0.14656473202665019,0.16577499057970507,9.99037037037037,104.0,64.96666666666667,65.5,39.0,65.0,0.14492381741551855,0.16472849582678317,0.18166158395904303,0.19425981892733438,0.20305795461730625,12.704462632733303,5847.0,65.42040166763664
187,2011-08-04,STORE_2_586,64.00000000000001,0,0,-0.020586530781777468,-0.047544244019495446,0.18216540676787443,0.18216540676787443,0.22610955656508122,0.17609125905568124,,0.1530630250635673,0.15520769353015645,9.955555555555556,104.0,65.0,65.5,39.0,65.0,0.14492381741551855,0.16472849582678317,0.18166158395904303,0.19425981892733438,0.20305795461730625,12.697872068034854,5850.0,65.42314794792725
188,2011-08-05,STORE_2_586,68.0,0,0,0.008352074364765844,0.02893860514654331,0.16157887598609696,0.18417138946547307,0.18616814922154837,0.1636820010738613,,0.13551338554716957,0.16577499057970507,9.97777777777778,104.0,65.02222222222223,65.5,39.0,65.0,0.14492381741551855,0.16472849582678317,0.18166158395904303,0.19425981892733438,0.20305795461730625,12.70139139310528,5852.0,65.42589422821786
189,2011-08-06,STORE_2_586,91.0,0,0,0.04513662629209969,0.03678455192733385,0.1699309503508628,0.18015011553254887,0.16785794172799753,0.17609125905568124,,0.20564650261739734,0.1573418230428423,10.22567901234568,104.0,65.34444444444445,66.0,39.0,65.0,0.14492381741551855,0.16577499057970507,0.18216540676787443,0.1960165186651042,0.20564650261739734,12.988466025204444,5881.0,65.42864050850847
190,2011-08-07,STORE_2_586,108.0,0,0,0.03058408764601861,-0.014552538646081081,0.2150675766429625,0.1960165186651042,0.17404751654569497,0.1573418230428423,,0.16785794172799753,0.16785794172799753,10.671111111111113,108.0,65.8,66.0,39.0,69.0,0.14492381741551855,0.16577499057970507,0.18216540676787443,0.19621083419370441,0.20876892570782712,13.74421226504149,5922.0,65.43138678879907
191,2011-08-08,STORE_2_586,98.0,0,0,-0.017728766960431547,-0.048312854606450156,0.2456516642889811,0.14437684587847466,0.16157887598609696,0.23331792921525574,,0.18216540676787443,0.16785794172799753,11.017530864197528,108.0,66.14444444444445,66.0,39.0,69.0,0.14492381741551855,0.16577499057970507,0.18216540676787443,0.1981531239288263,0.2133828031327189,14.15687478296232,5953.0,65.43413306908968
192,2011-08-09,STORE_2_586,92.0,0,0,-0.010995384301463185,0.006733382658968362,0.22792289732854956,0.15090771303743242,0.1573418230428423,0.17404751654569497,,0.15520769353015645,0.1530630250635673,11.244444444444444,108.0,66.5,66.0,39.0,69.0,0.14492381741551855,0.16577499057970507,0.1836698937910734,0.2004694066172152,0.21609054165423064,14.40056958923438,5985.0,65.43687934938029
193,2011-08-10,STORE_2_586,83.0,0,0,-0.017033339298780342,-0.006037954997317158,0.21692751302708638,0.14656473202665019,0.1960165186651042,0.1264652565697725,,0.18216540676787443,0.15520769353015645,11.366666666666664,108.0,66.74444444444444,66.5,39.0,69.0,0.14492381741551855,0.16681646615385132,0.18417138946547307,0.2004694066172152,0.21609054165423064,14.492587110263104,6007.0,65.4396256296709
194,2011-08-11,STORE_2_586,64.00000000000001,0,0,-0.03831529774220907,-0.021281958443428728,0.19989417372830603,0.1530630250635673,0.2187795178886798,0.13774626697946157,,0.16157887598609696,0.16785794172799753,11.39358024691358,108.0,66.71111111111111,66.0,39.0,69.0,0.14492381741551855,0.16577499057970507,0.18417138946547307,0.2004694066172152,0.21609054165423064,14.49544247976394,6004.0,65.44237190996151
195,2011-08-12,STORE_2_586,84.0,0,0,0.04024121877824746,0.07855651652045653,0.16157887598609696,0.13551338554716957,0.2491121963984876,0.13551338554716957,,0.1699309503508628,0.1530630250635673,11.511111111111111,108.0,66.97777777777777,66.5,39.0,69.0,0.14492381741551855,0.16681646615385132,0.18417138946547307,0.20220273554964974,0.21609054165423064,14.59103755833402,6028.0,65.44511819025212
196,2011-08-13,STORE_2_586,106.99999999999999,0,0,0.04209090794833545,0.001849689170087987,0.20182009476434443,0.20564650261739734,0.15946551667269784,0.13551338554716957,,0.2150675766429625,0.14437684587847466,11.857530864197532,108.0,67.54444444444445,67.0,39.0,69.0,0.14656473202665019,0.16785794172799753,0.18566895928252955,0.20564650261739734,0.2229749743928911,15.13991755659437,6079.0,65.44786447054273
197,2011-08-14,STORE_2_586,113.99999999999999,0,0,0.012040618216113214,-0.030050289732222235,0.24391100271267988,0.16785794172799753,0.13551338554716957,0.15090771303743242,,0.2456516642889811,0.12186950488062341,12.164444444444438,114.0,68.3,67.0,39.0,75.0,0.14710896184021882,0.16785794172799753,0.1876588651481835,0.20621421590656644,0.23089016486623795,15.737631133937066,6147.0,65.45061075083333
198,2011-08-15,STORE_2_586,89.00000000000003,0,0,-0.044627985419705224,-0.05666860363581844,0.2559516209287931,0.18216540676787443,0.12186950488062341,0.19406463006758215,,0.22792289732854956,0.10539023048612804,12.093580246913586,114.0,68.85555555555555,67.5,39.0,75.0,0.14928316672005165,0.16889444603943016,0.1881557704570619,0.21132363550908786,0.23089016486623795,15.573357479074195,6197.0,65.45335703112394
199,2011-08-16,STORE_2_586,87.0,0,0,-0.003776497552256314,0.04085148786744891,0.21132363550908786,0.15520769353015645,0.13996772697341958,0.1881557704570619,,0.21692751302708638,0.14217788177853646,12.153827160493828,114.0,69.21111111111111,68.0,39.0,75.0,0.15090771303743242,0.1699309503508628,0.1896396949436278,0.21132363550908786,0.23089016486623795,15.61869698088717,6229.0,65.45610331141455
200,2011-08-17,STORE_2_586,67.0,0,0,-0.03968919622883402,-0.0359126986765777,0.20754713795683155,0.18216540676787443,0.1332689646247173,0.16157887598609696,,0.19989417372830603,0.13551338554716957,11.994567901234566,114.0,69.37777777777778,68.0,39.0,75.0,0.15090771303743242,0.1699309503508628,0.1896396949436278,0.21132363550908786,0.23089016486623795,15.512646365254168,6244.0,65.45884959170516
201,2011-08-18,STORE_2_586,67.0,0,0,0.0,0.03968919622883402,0.16785794172799753,0.16157887598609696,0.16157887598609696,0.1636820010738613,,0.16157887598609696,0.15520769353015645,11.930864197530864,114.0,69.44444444444444,68.0,39.0,75.0,0.15090771303743242,0.1699309503508628,0.1896396949436278,0.21132363550908786,0.23089016486623795,15.489112603324054,6250.0,65.46159587199577
202,2011-08-19,STORE_2_586,70.0,0,0,0.006189574817697441,0.006189574817697441,0.16785794172799753,0.1699309503508628,0.1960165186651042,0.19795967395110634,,0.20182009476434443,0.18616814922154837,11.861234567901233,114.0,69.37777777777778,68.0,39.0,75.0,0.15090771303743242,0.1699309503508628,0.1896396949436278,0.21132363550908786,0.23089016486623795,15.473484226487773,6244.0,65.46434215228638
203,2011-08-20,STORE_2_586,95.00000000000003,0,0,0.048412485081352485,0.042222910263655045,0.17404751654569497,0.2150675766429625,0.15520769353015645,0.18216540676787443,,0.24391100271267988,0.17609125905568124,12.139753086419748,114.0,69.64444444444445,68.0,39.0,75.0,0.15090771303743242,0.1699309503508628,0.1901343364391498,0.21169802962247536,0.23089016486623795,15.706801726462547,6268.0,65.46708843257699
204,2011-08-21,STORE_2_586,84.0,0,0,-0.020639906862703034,-0.06905239194405552,0.22246000162704746,0.2456516642889811,0.13551338554716957,0.18417138946547307,,0.2559516209287931,0.18417138946547307,12.2441975308642,114.0,69.74444444444444,68.0,39.0,75.0,0.15090771303743242,0.1699309503508628,0.1901343364391498,0.21169802962247536,0.23089016486623795,15.76980553278393,6277.0,65.4698347128676
205,2011-08-22,STORE_2_586,91.0,0,0,0.013247481878618073,0.033887388741321106,0.20182009476434443,0.22792289732854956,0.09074970430323798,0.18015011553254887,,0.21132363550908786,0.16577499057970507,12.446913580246909,114.0,70.02222222222223,68.5,39.0,75.0,0.15090771303743242,0.17096253063274952,0.19308205666047407,0.2150675766429625,0.23089016486623795,15.922549749077882,6302.0,65.4725809931582
206,2011-08-23,STORE_2_586,73.0,0,0,-0.03491746111041363,-0.048164942989031706,0.2150675766429625,0.21692751302708638,0.11955326215344252,0.1960165186651042,,0.20754713795683155,0.14874165128092473,12.361234567901233,114.0,70.18888888888888,69.5,39.0,75.0,0.15090771303743242,0.1730208137301656,0.19308205666047407,0.2150675766429625,0.23089016486623795,15.873725336383117,6317.0,65.47532727344881
207,2011-08-24,STORE_2_586,59.0,0,0,-0.02924240249511645,0.005675058615297185,0.18015011553254887,0.19989417372830603,0.15090771303743242,0.14437684587847466,,0.16785794172799753,0.12874502286467107,12.259999999999993,114.0,70.3,69.5,39.0,75.0,0.15090771303743242,0.1730208137301656,0.19308205666047407,0.2150675766429625,0.23089016486623795,15.75832221720078,6327.0,65.47807355373942
208,2011-08-25,STORE_2_586,56.0,0,0,-0.006530867158957759,0.02271153533615869,0.15090771303743242,0.16157887598609696,0.1901343364391498,0.15090771303743242,,0.16785794172799753,0.14437684587847466,12.259999999999991,114.0,70.3,69.5,39.0,75.0,0.15090771303743242,0.1730208137301656,0.19308205666047407,0.2150675766429625,0.23089016486623795,15.758322217200778,6327.0,65.48081983403003
209,2011-08-26,STORE_2_586,60.0,0,0,0.008686179185092652,0.015217046344050411,0.14437684587847466,0.20182009476434443,0.13774626697946157,0.14656473202665019,,0.17404751654569497,0.14437684587847466,12.219506172839505,114.0,70.34444444444445,69.5,39.0,75.0,0.15144654104396615,0.1730208137301656,0.19308205666047407,0.2150675766429625,0.23089016486623795,15.723139114708438,6331.0,65.48356611432064
210,2011-08-27,STORE_2_586,87.0,0,0,0.05448411289326424,0.04579793370817159,0.1530630250635673,0.24391100271267988,0.10778304360201835,0.1530630250635673,,0.22246000162704746,0.16577499057970507,12.371851851851853,114.0,70.57777777777778,70.0,39.0,75.0,0.15144654104396615,0.17404751654569497,0.19552854651572368,0.2150675766429625,0.23089016486623795,15.813504240191568,6352.0,65.48631239461125
211,2011-08-28,STORE_2_586,86.00000000000001,0,0,-0.0019006353394342146,-0.056384748232698456,0.20754713795683155,0.2559516209287931,0.14437684587847466,0.13551338554716957,,0.20182009476434443,0.18015011553254887,12.52592592592592,114.0,70.72222222222223,70.0,39.0,75.0,0.15144654104396615,0.17404751654569497,0.1960165186651042,0.2150675766429625,0.23089016486623795,15.895040409290687,6365.0,65.48905867490186
212,2011-08-29,STORE_2_586,51.999999999999986,0,0,-0.07013311707022776,-0.06823248173079355,0.20564650261739734,0.21132363550908786,0.13101288432049313,0.20564650261739734,,0.2150675766429625,0.11955326215344252,12.453333333333328,114.0,70.8,70.0,39.0,75.0,0.15144654104396615,0.17404751654569497,0.1960165186651042,0.2150675766429625,0.23089016486623795,15.784503850224526,6372.0,65.49180495519246
213,2011-08-30,STORE_2_586,51.999999999999986,0,0,0.0,0.07013311707022776,0.13551338554716957,0.20754713795683155,0.15090771303743242,0.16785794172799753,,0.18015011553254887,0.16785794172799753,12.608888888888892,114.0,70.63333333333334,70.0,39.0,75.0,0.15090771303743242,0.17404751654569497,0.1960165186651042,0.2150675766429625,0.23089016486623795,15.903819059400707,6357.0,65.49455123548307
214,2011-08-31,STORE_2_586,53.000000000000014,0,0,0.002232881432292,0.002232881432292,0.13551338554716957,0.16785794172799753,0.14217788177853646,0.18216540676787443,,0.15090771303743242,0.15090771303743242,12.671111111111104,114.0,70.56666666666666,70.0,39.0,75.0,0.15090771303743242,0.17404751654569497,0.1960165186651042,0.2150675766429625,0.23089016486623795,15.965587994182991,6351.0,65.49729751577368
215,2011-09-01,STORE_2_586,69.0,0,0,0.03424784393517463,0.03201496250288263,0.13774626697946157,0.16785794172799753,0.22428861267345548,0.15520769353015645,,0.14437684587847466,0.14217788177853646,12.525925925925922,114.0,70.72222222222223,70.0,39.0,75.0,0.15144654104396615,0.17404751654569497,0.1960165186651042,0.2150675766429625,0.23089016486623795,15.880188900029632,6365.0,65.50004379606429
216,2011-09-02,STORE_2_586,85.0,0,0,0.03174340189543001,-0.00250444203974462,0.1719941109146362,0.17404751654569497,0.22792289732854956,0.18216540676787443,,0.1530630250635673,0.18216540676787443,12.656296296296295,114.0,70.84444444444445,70.0,39.0,75.0,0.15144654104396615,0.17404751654569497,0.1974738851296058,0.2150675766429625,0.23089016486623795,15.947886416342584,6376.0,65.5027900763549
217,2011-09-03,STORE_2_586,94.0,0,0,0.016886145776983885,-0.014857256118446127,0.20373751281006622,0.22246000162704746,0.15946551667269784,0.16157887598609696,,0.20754713795683155,0.1901343364391498,12.847407407407408,114.0,71.02222222222223,70.0,39.0,75.0,0.15144654104396615,0.17404751654569497,0.1994105487840061,0.2152535702813749,0.23089016486623795,16.11683311364189,6392.0,65.50553635664551
218,2011-09-04,STORE_2_586,73.0,0,0,-0.04047354305450124,-0.05735968883148512,0.2206236585870501,0.20182009476434443,0.18417138946547307,0.1699309503508628,,0.20564650261739734,0.17404751654569497,12.86172839506173,114.0,71.05555555555556,70.0,39.0,75.0,0.15144654104396615,0.17404751654569497,0.1994105487840061,0.2152535702813749,0.23089016486623795,16.117797484622574,6395.0,65.50828263693612
219,2011-09-05,STORE_2_586,89.00000000000003,1,0,0.031173519976539,0.07164706303104024,0.18015011553254887,0.2150675766429625,0.14217788177853646,0.2150675766429625,,0.13551338554716957,0.17812542896613437,13.071604938271607,114.0,71.24444444444444,70.0,39.0,75.0,0.15144654104396615,0.17404751654569497,0.19989417372830603,0.2152535702813749,0.23089016486623795,16.228225592086932,6412.0,65.51102891722672
220,2011-09-06,STORE_2_586,69.0,0,0,-0.03932952459445166,-0.07050304457099066,0.21132363550908786,0.18015011553254887,0.16157887598609696,0.2456516642889811,,0.13551338554716957,0.16785794172799753,13.05185185185185,114.0,71.26666666666667,70.0,39.0,75.0,0.15144654104396615,0.17404751654569497,0.19989417372830603,0.2152535702813749,0.23089016486623795,16.223716860326583,6414.0,65.51377519751733
221,2011-09-07,STORE_2_586,62.000000000000014,0,0,-0.014652287871793901,0.024677236722657758,0.1719941109146362,0.15090771303743242,0.1264652565697725,0.22792289732854956,,0.13774626697946157,0.1901343364391498,13.05629629629629,114.0,71.08888888888889,69.5,39.0,75.0,0.15144654104396615,0.1730208137301656,0.19989417372830603,0.2152535702813749,0.23089016486623795,16.23676259066806,6398.0,65.51652147780794
222,2011-09-08,STORE_2_586,66.0,0,0,0.008433167536862768,0.02308545540865667,0.1573418230428423,0.14437684587847466,0.17812542896613437,0.21692751302708638,,0.1719941109146362,0.18417138946547307,13.054567901234572,114.0,70.9888888888889,69.0,39.0,75.0,0.15144654104396615,0.1719941109146362,0.19989417372830603,0.2152535702813749,0.23089016486623795,16.240118478316678,6389.0,65.51926775809855
223,2011-09-09,STORE_2_586,89.00000000000003,0,0,0.04554864492938279,0.037115477392520024,0.16577499057970507,0.1530630250635673,0.16157887598609696,0.19989417372830603,,0.20373751281006622,0.1719941109146362,13.261481481481486,114.0,71.21111111111111,69.5,39.0,75.0,0.15144654104396615,0.1730208137301656,0.20133861450533483,0.2152535702813749,0.23089016486623795,16.349067557127395,6409.0,65.52201403838916
224,2011-09-10,STORE_2_586,98.0,0,0,0.016599261819461697,-0.028949383109921095,0.21132363550908786,0.20754713795683155,0.16785794172799753,0.16157887598609696,,0.2206236585870501,0.15946551667269784,13.511111111111106,114.0,71.6,70.0,39.0,75.0,0.15144654104396615,0.17404751654569497,0.20182009476434443,0.21729712758308278,0.23089016486623795,16.566379925023597,6444.0,65.52476031867977
225,2011-09-11,STORE_2_586,96.0,0,0,-0.0036342846550940777,-0.020233546474555775,0.22792289732854956,0.20564650261739734,0.14217788177853646,0.20182009476434443,,0.18015011553254887,0.15520769353015645,13.699012345679012,114.0,71.9888888888889,70.0,39.0,75.0,0.15144654104396615,0.17404751654569497,0.20325815829863578,0.22080729289104986,0.23089016486623795,16.724801232889153,6479.0,65.52750659897038
226,2011-09-12,STORE_2_586,53.000000000000014,0,0,-0.08654234569399391,-0.08290806103889983,0.22428861267345548,0.13551338554716957,0.11252947862648001,0.24391100271267988,,0.21132363550908786,0.15090771303743242,13.759753086419753,114.0,71.92222222222222,70.0,39.0,75.0,0.15144654104396615,0.17404751654569497,0.20325815829863578,0.22080729289104986,0.23089016486623795,16.78899303535128,6473.0,65.53025287926098
227,2011-09-13,STORE_2_586,58.0,0,0,0.010995384301463157,0.09753772999545707,0.13774626697946157,0.13551338554716957,0.15946551667269784,0.2559516209287931,,0.1719941109146362,0.20564650261739734,13.723456790123453,114.0,71.61111111111111,70.0,39.0,75.0,0.15090771303743242,0.17404751654569497,0.20182009476434443,0.22080729289104986,0.23089016486623795,16.784620063071817,6445.0,65.5329991595516
228,2011-09-14,STORE_2_586,57.0,0,0,-0.0021769192542745452,-0.013172303555737702,0.14874165128092473,0.13774626697946157,0.14437684587847466,0.21132363550908786,,0.1573418230428423,0.12417345979018768,13.624691358024686,114.0,71.72222222222223,70.0,39.0,75.0,0.15090771303743242,0.17404751654569497,0.20182009476434443,0.22080729289104986,0.23089016486623795,16.652447117653374,6455.0,65.5357454398422
229,2011-09-15,STORE_2_586,42.0,0,0,-0.034035253400170176,-0.03185833414589563,0.14656473202665019,0.1719941109146362,0.14874165128092473,0.20754713795683155,,0.16577499057970507,0.17609125905568124,13.911111111111119,114.0,71.4,69.5,39.0,75.0,0.15090771303743242,0.1730208137301656,0.20182009476434443,0.22080729289104986,0.23089016486623795,16.944589140005597,6426.0,65.5384917201328
230,2011-09-16,STORE_2_586,50.0,0,0,0.01848340569401312,0.052518659094183295,0.11252947862648001,0.20373751281006622,0.1901343364391498,0.16785794172799753,,0.21132363550908786,0.1699309503508628,14.088888888888894,114.0,71.2,69.5,39.0,75.0,0.14928316672005165,0.1730208137301656,0.20182009476434443,0.22080729289104986,0.23089016486623795,17.090768912558378,6408.0,65.5412380004234
231,2011-09-17,STORE_2_586,70.99999999999999,0,0,0.04507837473518811,0.02659496904117499,0.13101288432049313,0.2206236585870501,0.11955326215344252,0.16785794172799753,,0.22792289732854956,0.1960165186651042,13.967407407407412,114.0,71.08888888888889,69.5,39.0,75.0,0.14928316672005165,0.1730208137301656,0.20182009476434443,0.22080729289104986,0.23089016486623795,17.058817249228383,6398.0,65.54398428071401
232,2011-09-18,STORE_2_586,100.0,0,0,0.05543576254169358,0.01035738780650547,0.17609125905568124,0.18015011553254887,0.1332689646247173,0.17404751654569497,,0.22428861267345548,0.21132363550908786,14.105925925925936,114.0,71.21111111111111,69.5,39.0,75.0,0.14928316672005165,0.1730208137301656,0.20182009476434443,0.2226428627316883,0.2325120207872093,17.227163320028378,6409.0,65.54673056100462
233,2011-09-19,STORE_2_586,66.0,0,0,-0.06575203101766974,-0.12118779355936332,0.23152702159737482,0.21132363550908786,0.11722459983485986,0.22246000162704746,,0.13774626697946157,0.19989417372830603,14.00345679012345,114.0,71.02222222222223,69.0,39.0,75.0,0.14928316672005165,0.1719941109146362,0.20182009476434443,0.2226428627316883,0.2325120207872093,17.189608683493507,6392.0,65.54947684129523
234,2011-09-20,STORE_2_586,80.99999999999999,0,0,0.030241528085399122,0.09599355910306887,0.16577499057970507,0.1719941109146362,0.11955326215344252,0.20182009476434443,,0.14874165128092473,0.14656473202665019,13.994074074074064,114.0,71.28888888888889,69.5,39.0,75.0,0.15090771303743242,0.1730208137301656,0.20182009476434443,0.2226428627316883,0.2325120207872093,17.15575996204062,6416.0,65.55222312158584
235,2011-09-21,STORE_2_586,65.0,0,0,-0.032334517591242895,-0.06257604567664202,0.1960165186651042,0.1573418230428423,0.11955326215344252,0.2150675766429625,,0.14656473202665019,0.12874502286467107,13.840000000000003,114.0,71.46666666666667,69.5,39.0,75.0,0.15090771303743242,0.1730208137301656,0.20182009476434443,0.2226428627316883,0.2325120207872093,17.004427711562442,6432.0,65.55496940187645
236,2011-09-22,STORE_2_586,36.99999999999999,0,0,-0.06311731447702458,-0.030782796885781685,0.1636820010738613,0.16577499057970507,0.14874165128092473,0.18015011553254887,,0.11252947862648001,0.14217788177853646,14.013333333333334,114.0,71.26666666666667,69.5,37.0,77.0,0.15090771303743242,0.1730208137301656,0.20182009476434443,0.2226428627316883,0.2325120207872093,17.30350357456709,6414.0,65.55771568216706
237,2011-09-23,STORE_2_586,54.0,0,0,0.03940304037658286,0.10252035485360744,0.10056468659683672,0.21132363550908786,0.15090771303743242,0.15090771303743242,,0.13101288432049313,0.16577499057970507,14.128888888888898,114.0,71.13333333333334,69.5,37.0,77.0,0.15090771303743242,0.1730208137301656,0.20182009476434443,0.2226428627316883,0.2325120207872093,17.390556652222415,6402.0,65.56046196245767
238,2011-09-24,STORE_2_586,75.0,0,0,0.044203662492053486,0.0048006221154706236,0.13996772697341958,0.22792289732854956,0.15520769353015645,0.14437684587847466,,0.17609125905568124,0.17404751654569497,14.16543209876543,114.0,71.18888888888888,69.5,37.0,77.0,0.15090771303743242,0.1730208137301656,0.20182009476434443,0.2226428627316883,0.2325120207872093,17.39488136285974,6407.0,65.56320824274827
239,2011-09-25,STORE_2_586,70.0,0,0,-0.010123872919778093,-0.05432753541183158,0.18417138946547307,0.22428861267345548,0.11488338401995735,0.1530630250635673,,0.23152702159737482,0.10539023048612804,13.85925925925926,114.0,71.53333333333333,70.0,37.0,77.0,0.15090771303743242,0.17404751654569497,0.20182009476434443,0.2226428627316883,0.2325120207872093,17.053913188948158,6438.0,65.56595452303888
240,2011-09-26,STORE_2_586,68.0,0,0,-0.004116566194832166,0.006007306724945927,0.17404751654569497,0.13774626697946157,0.1530630250635673,0.20754713795683155,,0.16577499057970507,0.11252947862648001,13.602469135802476,114.0,71.82222222222222,70.0,37.0,77.0,0.15144654104396615,0.17404751654569497,0.20182009476434443,0.2226428627316883,0.2325120207872093,16.765787647935912,6464.0,65.56870080332949
241,2011-09-27,STORE_2_586,66.0,0,0,-0.004155959771157736,-3.939357632556928e-05,0.1699309503508628,0.14874165128092473,0.13996772697341958,0.20564650261739734,,0.1960165186651042,0.11955326215344252,13.395061728395067,114.0,72.05555555555556,70.0,37.0,77.0,0.1530630250635673,0.17404751654569497,0.20182009476434443,0.2226428627316883,0.2325120207872093,16.532814568398774,6485.0,65.5714470836201
242,2011-09-28,STORE_2_586,56.0,0,0,-0.021398144701230415,-0.01724218493007268,0.16577499057970507,0.14656473202665019,0.17812542896613437,0.13551338554716957,,0.1636820010738613,0.10778304360201835,13.23703703703704,114.0,72.23333333333333,70.0,37.0,77.0,0.1530630250635673,0.17404751654569497,0.20182009476434443,0.2226428627316883,0.2325120207872093,16.268153213833582,6501.0,65.57419336391071
243,2011-09-29,STORE_2_586,42.0,0,0,-0.03184736725199465,-0.010449222550764234,0.14437684587847466,0.11252947862648001,0.20182009476434443,0.13551338554716957,,0.10056468659683672,0.23864676272032267,13.128148148148147,114.0,71.54444444444445,69.5,37.0,77.0,0.15144654104396615,0.1730208137301656,0.20133861450533483,0.22080729289104986,0.22990516567640343,16.220503816771927,6439.0,65.57693964420132
244,2011-09-30,STORE_2_586,56.0,0,0,0.03184736725199465,0.0636947345039893,0.11252947862648001,0.13101288432049313,0.20182009476434443,0.13774626697946157,,0.13996772697341958,0.1901343364391498,13.191111111111109,114.0,71.3,69.0,37.0,77.0,0.15090771303743242,0.1719941109146362,0.20133861450533483,0.22080729289104986,0.22990516567640343,16.28775648258394,6417.0,65.57968592449193
245,2011-10-01,STORE_2_586,80.0,0,0,0.04968778418910749,0.017840416937112843,0.14437684587847466,0.17609125905568124,0.22972869819181194,0.1719941109146362,,0.18417138946547307,0.15520769353015645,13.201481481481487,114.0,71.5111111111111,69.5,37.0,77.0,0.15090771303743242,0.1730208137301656,0.20133861450533483,0.22080729289104986,0.22990516567640343,16.275883064770323,6436.0,65.58243220478253
246,2011-10-02,STORE_2_586,99.0,0,0,0.035664068124229786,-0.014023716064877706,0.19406463006758215,0.23152702159737482,0.14217788177853646,0.20373751281006622,,0.17404751654569497,0.1881557704570619,13.478518518518515,114.0,71.75555555555556,69.5,37.0,77.0,0.15090771303743242,0.1730208137301656,0.20182009476434443,0.2226428627316883,0.2307177760648715,16.52258319107117,6458.0,65.58517848507314
247,2011-10-03,STORE_2_586,73.0,0,0,-0.04957858265926307,-0.08524265078349286,0.22972869819181194,0.16577499057970507,0.14656473202665019,0.2206236585870501,,0.1699309503508628,0.17609125905568124,13.48641975308642,114.0,71.77777777777777,69.5,37.0,77.0,0.15090771303743242,0.1730208137301656,0.20182009476434443,0.2226428627316883,0.2307177760648715,16.522900538260625,6460.0,65.58792476536375
248,2011-10-04,STORE_2_586,69.0,0,0,-0.00815600461791266,0.04142257804135041,0.18015011553254887,0.1960165186651042,0.12186950488062341,0.18015011553254887,,0.16577499057970507,0.1636820010738613,13.446913580246916,114.0,71.82222222222222,69.5,37.0,77.0,0.15090771303743242,0.1730208137301656,0.20182009476434443,0.2226428627316883,0.2307177760648715,16.509838930864714,6464.0,65.59067104565436
249,2011-10-05,STORE_2_586,60.0,0,0,-0.018931085851068896,-0.010775081233156236,0.1719941109146362,0.1636820010738613,0.11252947862648001,0.21132363550908786,,0.14437684587847466,0.17609125905568124,13.555555555555554,114.0,71.7,69.0,37.0,77.0,0.15090771303743242,0.1719941109146362,0.20182009476434443,0.2226428627316883,0.2307177760648715,16.556644343287452,6453.0,65.59341732594497
250,2011-10-06,STORE_2_586,63.0,0,0,0.006402491609130534,0.02533357746019943,0.1530630250635673,0.10056468659683672,0.18015011553254887,0.1719941109146362,,0.11252947862648001,0.1573418230428423,13.545679012345682,114.0,71.71111111111111,69.0,37.0,77.0,0.15090771303743242,0.1719941109146362,0.20182009476434443,0.2226428627316883,0.2307177760648715,16.55039593161244,6454.0,65.59616360623556
251,2011-10-07,STORE_2_586,83.0,0,0,0.04042865705560819,0.03402616544647766,0.15946551667269784,0.13996772697341958,0.19406463006758215,0.1573418230428423,,0.14437684587847466,0.23331792921525574,13.323456790123462,114.0,71.5111111111111,69.0,37.0,77.0,0.15090771303743242,0.1719941109146362,0.20133861450533483,0.22080729289104986,0.22891608780334385,16.299337854093878,6436.0,65.59890988652617
252,2011-10-08,STORE_2_586,68.0,0,0,-0.029963223377443227,-0.07039188043305142,0.19989417372830603,0.18417138946547307,0.16577499057970507,0.16577499057970507,,0.19406463006758215,0.17404751654569497,13.343209876543208,114.0,71.4888888888889,69.0,37.0,77.0,0.15090771303743242,0.1719941109146362,0.20133861450533483,0.22080729289104986,0.22891608780334385,16.302784241731818,6434.0,65.60165616681678
253,2011-10-09,STORE_2_586,112.0,0,0,0.08261442188601881,0.11257764526346203,0.1699309503508628,0.17404751654569497,0.14874165128092473,0.21132363550908786,,0.22972869819181194,0.1264652565697725,13.595555555555553,114.0,72.2,69.0,37.0,77.0,0.15144654104396615,0.1719941109146362,0.20182009476434443,0.2226428627316883,0.2307177760648715,16.658634768778345,6498.0,65.60440244710739
254,2011-10-10,STORE_2_586,79.0,1,0,-0.060441442934827394,-0.1430558648208462,0.2525453722368816,0.1699309503508628,0.13101288432049313,0.22792289732854956,,0.18015011553254887,0.13774626697946157,13.477037037037032,114.0,72.4888888888889,69.5,37.0,77.0,0.1530630250635673,0.1730208137301656,0.20182009476434443,0.2226428627316883,0.2307177760648715,16.54700111629209,6524.0,65.607148727398
255,2011-10-11,STORE_2_586,78.00000000000001,0,0,-0.0019695928629044346,0.05847185007192296,0.19210392930205422,0.16577499057970507,0.11252947862648001,0.22428861267345548,,0.1719941109146362,0.13551338554716957,13.323456790123455,114.0,72.77777777777777,70.0,37.0,77.0,0.1530630250635673,0.17404751654569497,0.20182009476434443,0.2226428627316883,0.2307177760648715,16.41168245028336,6550.0,65.6098950076886
256,2011-10-12,STORE_2_586,82.0,0,0,0.007825337511956548,0.009794930374860983,0.1901343364391498,0.14437684587847466,0.16577499057970507,0.13774626697946157,,0.1530630250635673,0.13551338554716957,13.212345679012346,114.0,73.11111111111111,70.5,37.0,77.0,0.1535991921802146,0.1750693878006881,0.20182009476434443,0.2226428627316883,0.2307177760648715,16.289132273151775,6580.0,65.61264128797922
257,2011-10-13,STORE_2_586,65.0,0,0,-0.034277672877245036,-0.042103010389201584,0.19795967395110634,0.11252947862648001,0.20564650261739734,0.14874165128092473,,0.15946551667269784,0.15090771303743242,13.153086419753084,114.0,73.17777777777778,70.5,37.0,77.0,0.15574122590832792,0.1750693878006881,0.20182009476434443,0.2226428627316883,0.2307177760648715,16.2429433444,6586.0,65.61538756826982
258,2011-10-14,STORE_2_586,86.00000000000001,0,0,0.04196450154353604,0.07624217442078107,0.1636820010738613,0.14437684587847466,0.22428861267345548,0.14656473202665019,,0.19989417372830603,0.19406463006758215,13.227160493827162,114.0,73.24444444444444,70.5,37.0,77.0,0.15574122590832792,0.1750693878006881,0.20325815829863578,0.2226428627316883,0.2307177760648715,16.283521077354685,6592.0,65.61813384856043
259,2011-10-15,STORE_2_586,61.0,0,0,-0.05043880908724088,-0.09240331063077692,0.20564650261739734,0.19406463006758215,0.11955326215344252,0.11252947862648001,,0.1699309503508628,0.1881557704570619,13.297777777777775,114.0,73.06666666666666,70.0,37.0,77.0,0.15520769353015645,0.17404751654569497,0.20325815829863578,0.2226428627316883,0.2307177760648715,16.329335289938655,6576.0,65.62088012885104
260,2011-10-16,STORE_2_586,92.0,0,0,0.06171981949692992,0.1121586285841708,0.15520769353015645,0.22972869819181194,0.14437684587847466,0.13101288432049313,,0.2525453722368816,0.16157887598609696,13.441975308641975,114.0,73.37777777777778,70.5,37.0,77.0,0.15520769353015645,0.1750693878006881,0.20516925516556456,0.2226428627316883,0.2307177760648715,16.421127647286877,6604.0,65.62362640914165
261,2011-10-17,STORE_2_586,79.0,0,0,-0.024823583725032156,-0.08654340322196208,0.21692751302708638,0.18015011553254887,0.15090771303743242,0.17609125905568124,,0.19210392930205422,0.1636820010738613,13.425185185185182,114.0,73.53333333333333,72.0,37.0,77.0,0.15520769353015645,0.17812068729411507,0.20516925516556456,0.2226428627316883,0.2307177760648715,16.407178478275217,6618.0,65.62637268943226
262,2011-10-18,STORE_2_586,58.0,0,0,-0.04336227802112949,-0.018538694296097336,0.19210392930205422,0.1719941109146362,0.1264652565697725,0.23152702159737482,,0.1901343364391498,0.19795967395110634,13.47407407407407,114.0,73.26666666666667,70.5,37.0,77.0,0.1535991921802146,0.1750693878006881,0.20516925516556456,0.2226428627316883,0.2307177760648715,16.46296490560391,6594.0,65.62911896972287
263,2011-10-19,STORE_2_586,62.000000000000014,0,0,0.008600171761917574,0.051962449783047066,0.14874165128092473,0.1530630250635673,0.14656473202665019,0.16577499057970507,,0.19795967395110634,0.18216540676787443,13.573333333333334,114.0,73.13333333333334,70.0,37.0,77.0,0.1535991921802146,0.17404751654569497,0.20516925516556456,0.2226428627316883,0.2307177760648715,16.50549789234355,6582.0,65.63186525001348
264,2011-10-20,STORE_2_586,36.99999999999999,0,0,-0.056777136446005586,-0.06537730820792316,0.1573418230428423,0.15946551667269784,0.20564650261739734,0.1960165186651042,,0.1636820010738613,0.18417138946547307,13.914074074074076,114.0,72.71111111111111,69.5,37.0,77.0,0.1530630250635673,0.1730208137301656,0.20516925516556456,0.2226428627316883,0.2307177760648715,16.937588306130394,6544.0,65.63461153030408
265,2011-10-21,STORE_2_586,56.0,0,0,0.04381215928163794,0.10058929572764352,0.10056468659683672,0.19989417372830603,0.22792289732854956,0.1636820010738613,,0.20564650261739734,0.18015011553254887,14.079753086419752,114.0,72.52222222222223,69.0,37.0,77.0,0.1530630250635673,0.1719941109146362,0.20516925516556456,0.2226428627316883,0.2307177760648715,17.028876847626666,6527.0,65.6373578105947
