soundwave-77/time-series-mts-hse/models/STORE_2_054/train_data.csv
index,timestamp,segment,target,holiday,target_change_points,target_diff_1,target_diff_2,target_lag_1,target_lag_14,target_lag_180,target_lag_30,target_lag_365,target_lag_7,target_lag_90,target_mad,target_max,target_mean,target_median,target_min,target_minmax_diff,target_q_0.25,target_q_0.50,target_q_0.75,target_q_0.90,target_q_0.95,target_std,target_sum,target_trend
0,2011-01-29,STORE_2_054,6.0,0,0,,,,,,,,,,0.0,6.0,6.0,6.0,6.0,0.0,0.07255066714861173,0.07255066714861173,0.07255066714861173,0.07255066714861173,0.07255066714861173,0.0,6.0,10.545454545454959
1,2011-01-30,STORE_2_054,12.0,0,0,0.06214790674884445,,0.07255066714861173,,,,,,,3.0,12.0,9.0,9.0,6.0,6.0,0.08808764383582285,0.10362462052303395,0.11916159721024507,0.12848378322257173,0.13159117856001395,4.242640687119285,18.0,10.181818181818016
2,2011-01-31,STORE_2_054,5.0,0,0,-0.0734289171585335,-0.13557682390737796,0.13469857389745618,,,,,,,2.8888888888888893,12.0,7.666666666666667,6.0,5.0,7.0,0.0669101619437672,0.07255066714861173,0.10362462052303395,0.12226899254768729,0.12848378322257173,3.7859388972001824,23.0,9.818181818181984
3,2011-02-01,STORE_2_054,10.0,0,0,0.053684858962776374,0.12711377612130986,0.06126965673892268,,,,,,,2.75,12.0,8.25,8.0,5.0,7.0,0.06973041454618947,0.0937525914251554,0.11989053025063834,0.12877535643872903,0.1317369651680926,3.304037933599835,33.0,9.454545454545041
4,2011-02-02,STORE_2_054,19.000000000000004,0,0,0.08253488805521263,0.028850029092436252,0.11495451570169905,,,,,,,4.08,19.0,10.4,10.0,5.0,14.0,0.07255066714861173,0.11495451570169905,0.13469857389745618,0.1723730718131295,0.18493123778502057,5.594640292279746,52.0,9.090909090909008
5,2011-02-03,STORE_2_054,18.0,0,0,-0.008433167536862823,-0.09096805559207545,0.19748940375691168,,,,,,,4.666666666666667,19.0,11.666666666666666,11.0,5.0,14.0,0.08315162928688356,0.12482654479957761,0.1754668206394007,0.19327281998848028,0.19538111187269597,5.8878405775518985,70.0,8.727272727272975
6,2011-02-04,STORE_2_054,2.0,0,0,-0.1635021317476607,-0.15506896421079788,0.18905623622004886,,,,,,,5.183673469387755,19.0,10.285714285714286,10.0,2.0,17.0,0.0669101619437672,0.11495451570169905,0.16187740505875253,0.192429503234794,0.19495945349585284,6.4990841845674865,72.0,8.363636363636033
7,2011-02-05,STORE_2_054,5.0,0,0,0.035715552266534514,0.1992176840141952,0.02555410447238816,,,,,0.07255066714861173,,5.125,19.0,9.625,8.0,2.0,17.0,0.06126965673892268,0.0937525914251554,0.14828798947810434,0.1915861864811077,0.19453779511900968,6.300510183423924,77.0,8.0
8,2011-02-06,STORE_2_054,4.0,0,0,-0.011581872549815159,-0.04729742481634967,0.06126965673892268,,,,,0.13469857389745618,,5.111111111111111,19.0,9.0,6.0,2.0,17.0,0.06126965673892268,0.07255066714861173,0.13469857389745618,0.1907428697274214,0.19411613674216655,6.18465843842649,81.0,7.636363636363967
9,2011-02-07,STORE_2_054,7.0,0,0,0.033858267260967384,0.04544013981078254,0.04968778418910752,,,,,0.06126965673892268,,4.76,19.0,8.8,6.5,2.0,17.0,0.06126965673892268,0.07804835929934331,0.1297625593485169,0.18989955297373515,0.1936944783653234,5.865151319446072,88.0,7.272727272727025
10,2011-02-08,STORE_2_054,8.0,0,1,0.010723865391773113,-0.02313440186919427,0.0835460514500749,,,,,0.11495451570169905,,4.380165289256198,19.0,8.727272727272727,7.0,2.0,17.0,0.06126965673892268,0.0835460514500749,0.12482654479957761,0.18905623622004886,0.19327281998848028,5.569396898963282,96.0,13.551692226335263
11,2011-02-09,STORE_2_054,33.0,0,1,0.20676007882213313,0.19603621343036,0.09426991684184802,,,,,0.19748940375691168,,6.5,33.0,10.75,7.5,2.0,31.0,0.06126965673892268,0.08890798414596146,0.14828798947810434,0.1966460870032254,0.24408267011509288,8.791783354101405,129.0,13.538630354309902
12,2011-02-10,STORE_2_054,40.0,0,1,-0.17856587818353659,-0.38532595700566974,0.30102999566398114,,,,,0.18905623622004886,,6.0,33.0,10.75,8.0,2.0,31.0,0.06126965673892268,0.09426991684184802,0.13469857389745618,0.19580277024953913,0.2389056405197393,8.417491708737625,139.75,13.525568482284513
13,2011-02-11,STORE_2_054,12.0,0,1,0.01223445641701161,0.19080033460054818,0.12246411748044457,,,,,0.02555410447238816,,5.686224489795918,33.0,10.839285714285714,9.0,2.0,31.0,0.06408990934134494,0.10461221627177353,0.13469857389745618,0.19495945349585284,0.23372861092438596,8.094161679674016,151.75,13.512506610259123
14,2011-02-12,STORE_2_054,25.000000000000007,0,1,0.11021547978759363,0.09798102337058202,0.13469857389745618,0.07255066714861173,,,,0.06126965673892268,,6.4399999999999995,33.0,11.783333333333333,10.0,2.0,31.0,0.0669101619437672,0.11495451570169905,0.16187740505875253,0.22594419371379454,0.26174883627872914,8.61418403951684,176.75,13.499444738233734
15,2011-02-13,STORE_2_054,10.0,0,1,-0.12995953798335075,-0.24017501777094438,0.24491405368504982,0.13469857389745618,,,,0.04968778418910752,,6.12109375,33.0,11.671875,10.0,2.0,31.0,0.06973041454618947,0.11495451570169905,0.14828798947810434,0.22120172872098076,0.2589430391797827,8.33402601287837,186.75,13.486382866208373
16,2011-02-14,STORE_2_054,7.0,0,1,-0.03140846425162415,0.0985510737317266,0.11495451570169905,0.06126965673892268,,,,0.0835460514500749,,5.955017301038062,33.0,11.397058823529411,10.0,2.0,31.0,0.07255066714861173,0.11495451570169905,0.13469857389745618,0.21645926372816696,0.25613724208083605,8.148551838138085,193.75,13.473320994182984
17,2011-02-15,STORE_2_054,13.999999999999998,0,1,0.07003786660775504,0.1014463308593792,0.0835460514500749,0.11495451570169905,,,,0.09426991684184802,,5.8009259259259265,33.0,11.541666666666666,10.0,2.0,31.0,0.07529951322397753,0.11495451570169905,0.1488625820177365,0.21171679873535315,0.2533314449818894,7.929028016984026,207.75,13.460259122157595
18,2011-02-16,STORE_2_054,21.000000000000007,0,1,0.06029590188725106,-0.009741964720503982,0.15358391805782995,0.19748940375691168,,,,0.30102999566398114,,6.080332409972297,33.0,12.039473684210526,10.0,2.0,31.0,0.07804835929934331,0.11495451570169905,0.1713200771389394,0.22008666669307475,0.25052564788294285,8.005320781749688,228.75,13.447197250132206
19,2011-02-17,STORE_2_054,11.0,0,1,-0.08894108333678108,-0.14923698522403214,0.213879819945081,0.18905623622004886,,,,0.12246411748044457,,5.81,33.0,11.9875,10.375,2.0,31.0,0.08079720537470911,0.11870931659107181,0.1624519975983847,0.21698324331907792,0.24771985078399641,7.795273112260842,239.75,13.434135378106816
20,2011-02-18,STORE_2_054,15.0,0,1,0.037788560889399775,0.12672964422618085,0.12493873660829993,0.02555410447238816,,,,0.13469857389745618,,5.722222222222221,33.0,12.130952380952381,10.75,2.0,31.0,0.0835460514500749,0.12246411748044457,0.1627272974976997,0.213879819945081,0.24491405368504982,7.62627819107191,254.75,13.421073506081456
21,2011-02-19,STORE_2_054,10.0,0,1,-0.047772781796000655,-0.08556134268540043,0.1627272974976997,0.06126965673892268,,,,0.24491405368504982,,5.5237603305785115,33.0,12.034090909090908,10.375,2.0,31.0,0.0835460514500749,0.11870931659107181,0.16044145263773227,0.21224077832626412,0.24336234199805135,7.456339366823828,264.75,13.408011634056066
22,2011-02-20,STORE_2_054,13.0,0,1,0.02928937610198752,0.07706215789798818,0.11495451570169905,0.04968778418910752,,,,0.11495451570169905,,5.3383742911153105,33.0,12.076086956521738,10.75,2.0,31.0,0.0835460514500749,0.12246411748044457,0.15815560777776483,0.21060173670744717,0.2418106303110529,7.287689956439267,277.75,13.394949762030677
23,2011-02-21,STORE_2_054,9.000000000000002,1,1,-0.03950854128367359,-0.06879791738566111,0.14424389180368657,0.0835460514500749,,,,0.0835460514500749,,5.2100694444444455,33.0,11.947916666666666,10.375,2.0,31.0,0.0835460514500749,0.11870931659107181,0.1558697629177974,0.2089626950886302,0.24025891862405443,7.155105795812901,286.75,13.381887890005288
24,2011-02-22,STORE_2_054,3.0000000000000004,0,1,-0.06694678963061318,-0.027438248346939587,0.10473535052001298,0.09426991684184802,,,,0.15358391805782995,,5.288,33.0,11.59,10.0,2.0,31.0,0.0835460514500749,0.11495451570169905,0.15358391805782995,0.2073236534698133,0.23870720693705597,7.229453644640099,289.75,13.368826017979899
25,2011-02-23,STORE_2_054,5.0,0,1,0.023481095849522883,0.09042788548013606,0.037788560889399796,0.30102999566398114,,,,0.213879819945081,,5.279585798816569,33.0,11.336538461538462,10.0,2.0,31.0,0.07529951322397753,0.11495451570169905,0.1512489114942941,0.20568461185099635,0.2371554952500576,7.200327182737014,294.75,13.355764145954538
26,2011-02-24,STORE_2_054,10.0,0,1,0.053684858962776374,0.03020376311325349,0.06126965673892268,0.12246411748044457,,,,0.12493873660829993,,5.120713305898492,33.0,11.287037037037036,10.0,2.0,31.0,0.07804835929934331,0.11495451570169905,0.14891390493075826,0.20404557023217945,0.23560378356305917,7.065185399502602,304.75,13.342702273929149
27,2011-02-25,STORE_2_054,13.999999999999998,0,1,0.038629402356130896,-0.015055456606645479,0.11495451570169905,0.13469857389745618,,,,0.1627272974976997,,5.055484693877552,33.0,11.383928571428571,10.0,2.0,31.0,0.08079720537470911,0.11495451570169905,0.15358391805782995,0.2024065286133625,0.2340520718760607,6.952045443361317,318.75,13.32964040190376
28,2011-02-26,STORE_2_054,17.0,0,1,0.02687214640030136,-0.011757255955829535,0.15358391805782995,0.24491405368504982,,,,0.11495451570169905,,5.10820451843044,33.0,11.577586206896552,10.0,2.0,31.0,0.0835460514500749,0.11495451570169905,0.15358391805782995,0.20076748699454552,0.23250036018906223,6.905970323450166,335.75,13.31657852987837
29,2011-02-27,STORE_2_054,6.0,0,1,-0.10790539730951958,-0.13477754370982092,0.1804560644581313,0.11495451570169905,,,,0.14424389180368657,,5.086666666666667,33.0,11.391666666666667,10.0,2.0,31.0,0.07529951322397753,0.11495451570169905,0.15358391805782995,0.19912844537572863,0.23094864850206376,6.861839545925203,341.75,13.303516657852981
30,2011-02-28,STORE_2_054,17.0,0,1,0.10790539730951958,0.21581079461903915,0.07255066714861173,0.0835460514500749,,0.07255066714861173,,0.10473535052001298,,5.13267429760666,33.0,11.57258064516129,10.0,2.0,31.0,0.07804835929934331,0.11495451570169905,0.15815560777776483,0.19748940375691168,0.2293969368150654,6.8212882301131055,358.75,13.29045478582762
31,2011-03-01,STORE_2_054,7.0,0,1,-0.0969100130080564,-0.204815410317576,0.1804560644581313,0.15358391805782995,,0.13469857389745618,,0.037788560889399796,,5.08837890625,33.0,11.4296875,10.0,2.0,31.0,0.08079720537470911,0.11495451570169905,0.1558697629177974,0.19664608700322542,0.22784522512806696,6.758875400048968,365.75,13.277392913802231
32,2011-03-02,STORE_2_054,12.0,0,1,0.05115252244738128,0.14806253545543768,0.0835460514500749,0.213879819945081,,0.06126965673892268,,0.06126965673892268,,4.954086317722682,33.0,11.446969696969697,10.0,2.0,31.0,0.0835460514500749,0.11495451570169905,0.15358391805782995,0.19580277024953913,0.2262935134410685,6.653170524667396,377.75,13.264331041776842
33,2011-03-03,STORE_2_054,21.000000000000007,0,1,0.07918124604762483,0.028028723600243555,0.13469857389745618,0.12493873660829993,,0.11495451570169905,,0.11495451570169905,,5.122404844290657,33.0,11.727941176470589,10.375,2.0,31.0,0.0835460514500749,0.11870931659107181,0.16044145263773227,0.2089626950886302,0.22474180175407002,6.753329046370846,398.75,13.251269169751453
34,2011-03-04,STORE_2_054,13.0,0,1,-0.06963592814139444,-0.14881717418901927,0.213879819945081,0.1627272974976997,,0.19748940375691168,,0.15358391805782995,,5.0155102040816315,33.0,11.764285714285714,10.75,2.0,31.0,0.0835460514500749,0.12246411748044457,0.15815560777776483,0.2073236534698133,0.22319009006707158,6.656747698085484,411.75,13.238207297726063
35,2011-03-05,STORE_2_054,16.0,0,1,0.027438248346939587,0.09707417648833402,0.14424389180368657,0.11495451570169905,,0.18905623622004886,,0.1804560644581313,,5.000385802469136,33.0,11.881944444444445,10.875,2.0,31.0,0.0835460514500749,0.12370142704437226,0.16496600816093132,0.20568461185099635,0.22163837838007322,6.59883271904723,427.75,13.225145425700703
36,2011-03-06,STORE_2_054,18.0,0,1,0.017374096069422695,-0.010064152277516891,0.17168214015062616,0.14424389180368657,,0.02555410447238816,,0.07255066714861173,,5.042731921110298,33.0,12.047297297297296,11.0,2.0,31.0,0.0835460514500749,0.12493873660829993,0.17168214015062616,0.2040455702321794,0.22008666669307464,6.583817977371425,445.75,13.212083553675313
37,2011-03-07,STORE_2_054,16.0,0,1,-0.017374096069422695,-0.03474819213884539,0.18905623622004886,0.10473535052001298,,0.06126965673892268,,0.1804560644581313,,5.030470914127426,33.0,12.151315789473685,11.5,2.0,31.0,0.0835460514500749,0.12981865525287806,0.17168214015062616,0.20240652861336256,0.21853495500607628,6.525816577692779,461.75,13.199021681649924
38,2011-03-08,STORE_2_054,13.999999999999998,0,1,-0.018098222092796212,-0.000724126023373517,0.17168214015062616,0.037788560889399796,,0.04968778418910752,,0.0835460514500749,,4.954963839579226,33.0,12.198717948717949,12.0,2.0,31.0,0.0835460514500749,0.13469857389745618,0.17168214015062616,0.20076748699454558,0.21698324331907792,6.446178867926404,475.75,13.185959809624535
39,2011-03-09,STORE_2_054,8.0,0,1,-0.05931400121598193,-0.04121577912318572,0.15358391805782995,0.06126965673892268,,0.0835460514500749,,0.13469857389745618,,4.9203125,33.0,12.09375,11.5,2.0,31.0,0.0835460514500749,0.12981865525287806,0.17168214015062616,0.19912844537572863,0.21543153163207937,6.3975374619397956,483.75,13.172897937599146
40,2011-03-10,STORE_2_054,26.0,0,1,0.1580681549224087,0.21738215613839063,0.09426991684184802,0.11495451570169905,,0.09426991684184802,,0.213879819945081,,5.180844735276622,33.0,12.432926829268293,12.0,2.0,31.0,0.0835460514500749,0.13469857389745618,0.17168214015062616,0.213879819945081,0.24491405368504982,6.679966408561663,509.75,13.159836065573785
41,2011-03-11,STORE_2_054,18.0,0,1,-0.06328183554420785,-0.22134999046661655,0.2523380717642567,0.15358391805782995,,0.30102999566398114,,0.14424389180368657,,5.202664399092973,33.0,12.56547619047619,12.0,2.0,31.0,0.08622701779801818,0.13469857389745618,0.17826258338125503,0.21224077832626406,0.24336234199805123,6.653684914274471,527.75,13.146774193548396
42,2011-03-12,STORE_2_054,6.0,0,1,-0.11650556907143712,-0.05322373352722927,0.18905623622004886,0.1804560644581313,,0.12246411748044457,,0.17168214015062616,,5.216603569497025,33.0,12.412790697674419,12.0,2.0,31.0,0.0835460514500749,0.13469857389745618,0.17606910230437872,0.21060173670744722,0.2418106303110529,6.6498039088816805,533.75,13.133712321523006
43,2011-03-13,STORE_2_054,12.0,0,1,0.06214790674884445,0.17865347582028157,0.07255066714861173,0.07255066714861173,,0.13469857389745618,,0.18905623622004886,,5.1061466942148765,33.0,12.403409090909092,12.0,2.0,31.0,0.0835460514500749,0.13469857389745618,0.17387562122750244,0.20896269508863025,0.24025891862405455,6.572320372940336,545.75,13.120650449497617
44,2011-03-14,STORE_2_054,19.000000000000004,0,1,0.0627908298594555,0.0006429231106110517,0.13469857389745618,0.1804560644581313,,0.24491405368504982,,0.17168214015062616,,5.155555555555558,33.0,12.55,12.0,2.0,31.0,0.0835460514500749,0.13469857389745618,0.1804560644581313,0.2073236534698133,0.23870720693705597,6.571200941850875,564.75,13.107588577472228
45,2011-03-15,STORE_2_054,19.999999999999993,0,1,0.008272525965989819,-0.05451830389346568,0.19748940375691168,0.0835460514500749,,0.11495451570169905,,0.15358391805782995,,5.219517958412097,33.0,12.71195652173913,12.0,2.0,31.0,0.08622701779801818,0.13469857389745618,0.1804560644581313,0.20982087483399126,0.2371554952500576,6.589968679596862,584.75,13.094526705446867
46,2011-03-16,STORE_2_054,15.0,0,1,-0.04303463222520179,-0.05130715819119161,0.2057619297229015,0.13469857389745618,,0.0835460514500749,,0.09426991684184802,,5.160253508374828,33.0,12.76063829787234,12.0,2.0,31.0,0.08890798414596146,0.13469857389745618,0.1804560644581313,0.2090090858117733,0.23560378356305905,6.5264839739311125,599.75,13.081464833421478
47,2011-03-17,STORE_2_054,8.0,0,1,-0.06845738065585169,-0.0254227484306499,0.1627272974976997,0.213879819945081,,0.15358391805782995,,0.2523380717642567,,5.1436631944444455,33.0,12.661458333333334,12.0,2.0,31.0,0.09158895049390474,0.13469857389745618,0.1804560644581313,0.2081972967895554,0.2340520718760607,6.493140730911231,607.75,13.068402961396089
48,2011-03-18,STORE_2_054,8.0,0,1,0.0,0.06845738065585169,0.09426991684184802,0.14424389180368657,,0.213879819945081,,0.18905623622004886,,5.124114952103287,33.0,12.566326530612244,12.0,2.0,31.0,0.09426991684184802,0.13469857389745618,0.1804560644581313,0.2073855077673374,0.23250036018906212,6.459564837599856,615.75,13.0553410893707
49,2011-03-19,STORE_2_054,13.999999999999998,0,1,0.05931400121598193,0.05931400121598193,0.09426991684184802,0.17168214015062616,,0.12493873660829993,,0.07255066714861173,,5.0526,33.0,12.595,12.0,2.0,31.0,0.09426991684184802,0.13469857389745618,0.17826258338125503,0.20657371874511946,0.23094864850206376,6.396525284424796,629.75,13.04227921734531
50,2011-03-20,STORE_2_054,21.000000000000007,0,1,0.06029590188725106,0.0009819006712691314,0.15358391805782995,0.18905623622004886,,0.1627272974976997,,0.13469857389745618,,5.128027681660898,33.0,12.759803921568627,12.0,2.0,31.0,0.09426991684184802,0.13469857389745618,0.1804560644581313,0.213879819945081,0.2293969368150654,6.4406833457936985,650.75,13.02921734531995
51,2011-03-21,STORE_2_054,6.0,0,1,-0.1413291527964693,-0.20162505468372036,0.213879819945081,0.17168214015062616,,0.11495451570169905,,0.19748940375691168,,5.149408284023666,33.0,12.629807692307692,12.0,2.0,31.0,0.09158895049390474,0.13469857389745618,0.1804560644581313,0.21306803092286306,0.22784522512806685,6.44575601078166,656.75,13.01615547329456
52,2011-03-22,STORE_2_054,7.0,0,1,0.01099538430146317,0.15232453709793248,0.07255066714861173,0.15358391805782995,,0.14424389180368657,,0.2057619297229015,,5.148451406194376,33.0,12.523584905660377,12.0,2.0,31.0,0.0835460514500749,0.13469857389745618,0.1804560644581313,0.21225624190064515,0.2262935134410685,6.430146874246587,663.75,13.003093601269171
53,2011-03-23,STORE_2_054,11.0,0,1,0.04139268515822503,0.030397300856761858,0.0835460514500749,0.09426991684184802,,0.10473535052001298,,0.1627272974976997,,5.078189300411526,33.0,12.49537037037037,12.0,2.0,31.0,0.08622701779801818,0.13469857389745618,0.17826258338125503,0.21144445287842717,0.2247418017540699,6.372569966147499,674.75,12.990031729243782
54,2011-03-24,STORE_2_054,4.0,0,1,-0.07525095241919241,-0.11664363757741744,0.12493873660829993,0.2523380717642567,,0.037788560889399796,,0.09426991684184802,,5.120661157024792,33.0,12.340909090909092,12.0,2.0,31.0,0.0835460514500749,0.13469857389745618,0.17606910230437872,0.2106326638562092,0.22319009006707158,6.4163715004917865,678.75,12.976969857218421
55,2011-03-25,STORE_2_054,16.0,0,1,0.12199435596151864,0.19724530838071105,0.04968778418910752,0.18905623622004886,,0.06126965673892268,,0.09426991684184802,,5.1015625,33.0,12.40625,12.0,2.0,31.0,0.0835460514500749,0.13469857389745618,0.17387562122750244,0.20982087483399126,0.22163837838007322,6.376548385935907,694.75,12.963907985193032
56,2011-03-26,STORE_2_054,22.000000000000007,0,1,0.050166609465730205,-0.07182774649578844,0.17168214015062616,0.07255066714861173,,0.11495451570169905,,0.15358391805782995,,5.195136965220067,33.0,12.574561403508772,12.0,2.0,31.0,0.0835460514500749,0.13469857389745618,0.1804560644581313,0.213879819945081,0.22646181043009495,6.445853614693336,716.75,12.950846113167643
57,2011-03-27,STORE_2_054,12.0,0,1,-0.08715017571890019,-0.1373167851846304,0.22184874961635637,0.13469857389745618,,0.15358391805782995,,0.213879819945081,,5.114447086801425,33.0,12.564655172413794,12.0,2.0,31.0,0.08622701779801818,0.13469857389745618,0.17826258338125503,0.213879819945081,0.22530854522666036,6.38950625869363,728.75,12.937784241142253
58,2011-03-28,STORE_2_054,6.0,0,1,-0.06214790674884445,0.025002268970055738,0.13469857389745618,0.19748940375691168,,0.1804560644581313,,0.07255066714861173,,5.125825912094227,33.0,12.453389830508474,12.0,2.0,31.0,0.0835460514500749,0.13469857389745618,0.17606910230437872,0.213879819945081,0.22415528002322557,6.39158164284367,734.75,12.924722369116864
59,2011-03-29,STORE_2_054,4.0,0,1,-0.022862882959504213,0.039285023789340234,0.07255066714861173,0.2057619297229015,,0.07255066714861173,,0.0835460514500749,,5.1625,33.0,12.3125,12.0,2.0,31.0,0.0835460514500749,0.13469857389745618,0.17387562122750244,0.213879819945081,0.22300201481979098,6.43046657900722,738.75,12.911660497091503
60,2011-03-30,STORE_2_054,4.0,0,1,0.0,0.022862882959504213,0.04968778418910752,0.1627272974976997,,0.1804560644581313,,0.12493873660829993,,5.194033861865092,33.0,12.176229508196721,12.0,2.0,31.0,0.0835460514500749,0.13469857389745618,0.17168214015062616,0.213879819945081,0.22184874961635637,6.464864052175789,742.75,12.898598625066114
61,2011-03-31,STORE_2_054,11.0,0,1,0.07525095241919241,0.07525095241919241,0.04968778418910752,0.09426991684184802,,0.0835460514500749,,0.04968778418910752,,5.12617065556712,33.0,12.15725806451613,11.5,2.0,31.0,0.0835460514500749,0.12981865525287806,0.17168214015062616,0.21306803092286306,0.22145030313279257,6.4133943263119235,753.75,12.885536753040725
62,2011-04-01,STORE_2_054,13.0,0,1,0.019305155195386642,-0.05594579722380577,0.12493873660829993,0.09426991684184802,,0.13469857389745618,,0.17168214015062616,,5.060090702947847,33.0,12.170634920634921,12.0,2.0,31.0,0.0835460514500749,0.13469857389745618,0.17168214015062616,0.21225624190064515,0.22105185664922883,6.362349148478727,766.75,12.872474881015336
63,2011-04-02,STORE_2_054,11.0,0,1,-0.019305155195386642,-0.038610310390773284,0.14424389180368657,0.15358391805782995,,0.213879819945081,,0.22184874961635637,,4.9964599609375,33.0,12.15234375,11.5,2.0,31.0,0.0835460514500749,0.12981865525287806,0.17168214015062616,0.21144445287842717,0.22065341016566503,6.31334835372767,777.75,12.859413008989947
64,2011-04-03,STORE_2_054,16.0,0,1,0.04674340354232623,0.06604855873771287,0.12493873660829993,0.213879819945081,,0.14424389180368657,,0.13469857389745618,,4.986982248520709,33.0,12.211538461538462,12.0,2.0,31.0,0.0835460514500749,0.13469857389745618,0.17168214015062616,0.2106326638562092,0.22025496368210126,6.2819854621094,793.75,12.846351136964586
65,2011-04-04,STORE_2_054,13.0,0,1,-0.027438248346939587,-0.07418165188926581,0.17168214015062616,0.07255066714861173,,0.17168214015062616,,0.07255066714861173,,4.924816345270893,33.0,12.223484848484848,12.0,2.0,31.0,0.0835460514500749,0.13469857389745618,0.17168214015062616,0.20982087483399126,0.21985651719853752,6.234230689057173,806.75,12.833289264939197
66,2011-04-05,STORE_2_054,13.999999999999998,0,1,0.009340026254143374,0.03677827460108296,0.14424389180368657,0.0835460514500749,,0.18905623622004886,,0.04968778418910752,,4.880597014925373,33.0,12.25,12.0,2.0,31.0,0.0835460514500749,0.13469857389745618,0.17168214015062616,0.2090090858117733,0.21945807071497372,6.1906270794131695,820.75,12.820227392913807
67,2011-04-06,STORE_2_054,19.000000000000004,0,1,0.04390548569908173,0.03456545944493836,0.15358391805782995,0.12493873660829993,,0.17168214015062616,,0.04968778418910752,,4.91684688581315,33.0,12.349264705882353,12.0,2.0,31.0,0.0835460514500749,0.13469857389745618,0.17168214015062616,0.2081972967895554,0.21905962423140998,6.19854034723883,839.75,12.807165520888418
68,2011-04-07,STORE_2_054,15.0,0,1,-0.03476210625921197,-0.0786675919582937,0.19748940375691168,0.04968778418910752,,0.15358391805782995,,0.12493873660829993,,4.886788489813067,33.0,12.38768115942029,12.0,2.0,31.0,0.0835460514500749,0.13469857389745618,0.17168214015062616,0.2073855077673374,0.21866117774784619,6.1610637319062365,854.75,12.794103648863029
69,2011-04-08,STORE_2_054,13.0,0,1,-0.018483405694013133,0.01627870056519884,0.1627272974976997,0.17168214015062616,,0.09426991684184802,,0.14424389180368657,,4.826224489795922,33.0,12.396428571428572,12.0,2.0,31.0,0.08622701779801818,0.13469857389745618,0.17168214015062616,0.20657371874511946,0.21826273126428244,6.116693251700933,867.75,12.781041776837668
70,2011-04-09,STORE_2_054,23.0,0,2,0.08543019532462634,0.10391360101863947,0.14424389180368657,0.22184874961635637,,0.2523380717642567,,0.12493873660829993,,4.91390597103749,33.0,12.545774647887324,12.0,2.0,31.0,0.08890798414596146,0.13469857389745618,0.17168214015062616,0.213879819945081,0.22576141837233465,6.2018588600450695,890.75,7.205690656457426
71,2011-04-10,STORE_2_054,10.0,0,2,-0.11471957142661386,-0.2001497667512402,0.22967408712831291,0.13469857389745618,,0.18905623622004886,,0.17168214015062616,,4.879050925925928,33.0,12.510416666666666,12.0,2.0,31.0,0.09158895049390474,0.13469857389745618,0.17168214015062616,0.21306803092286306,0.22537015149673684,6.165333212954557,900.75,7.206564205238768
72,2011-04-11,STORE_2_054,15.0,0,2,0.047772781796000655,0.16249235322261452,0.11495451570169905,0.07255066714861173,,0.07255066714861173,,0.14424389180368657,,4.847720022518294,33.0,12.544520547945206,12.0,2.0,31.0,0.09426991684184802,0.13469857389745618,0.17168214015062616,0.2122562419006451,0.2249788846211389,6.129298727581568,915.75,7.207437754020111
73,2011-04-12,STORE_2_054,7.0,0,2,-0.0791812460476248,-0.12695402784362547,0.1627272974976997,0.04968778418910752,,0.13469857389745618,,0.15358391805782995,,4.85308619430241,33.0,12.469594594594595,12.0,2.0,31.0,0.08622701779801818,0.13469857389745618,0.17168214015062616,0.21144445287842717,0.22458761774554112,6.12120062517714,922.75,7.208311302801453
74,2011-04-13,STORE_2_054,16.0,0,2,0.08813608870055126,0.16731733474817606,0.0835460514500749,0.04968778418910752,,0.19748940375691168,,0.19748940375691168,,4.837333333333331,33.0,12.516666666666667,12.0,2.0,31.0,0.08890798414596146,0.13469857389745618,0.17168214015062616,0.21063266385620927,0.2241963508699433,6.0933522334952395,938.75,7.209184851582796
75,2011-04-14,STORE_2_054,5.0,0,2,-0.11041248341170348,-0.19854857211225474,0.17168214015062616,0.12493873660829993,,0.2057619297229015,,0.1627272974976997,,4.867382271468144,33.0,12.417763157894736,12.0,2.0,31.0,0.0835460514500749,0.13469857389745618,0.17168214015062616,0.20982087483399126,0.2238050839943455,6.113698847382919,943.75,7.210058400364138
76,2011-04-15,STORE_2_054,11.0,0,2,0.06366907986937725,0.17408156328108074,0.06126965673892268,0.14424389180368657,,0.1627272974976997,,0.14424389180368657,,4.821386405801991,33.0,12.39935064935065,12.0,2.0,31.0,0.0835460514500749,0.13469857389745618,0.17168214015062616,0.20900908581177335,0.2234138171187477,6.075492689066533,954.75,7.210931949145481
77,2011-04-16,STORE_2_054,9.000000000000002,0,2,-0.02020338608828695,-0.0838724659576642,0.12493873660829993,0.12493873660829993,,0.09426991684184802,,0.22967408712831291,,4.799802761341223,33.0,12.35576923076923,12.0,2.0,31.0,0.08622701779801818,0.13469857389745618,0.17168214015062616,0.20819729678955534,0.2230225502431498,6.0481723158023835,963.75,7.211805497926823
78,2011-04-17,STORE_2_054,9.000000000000002,0,2,0.0,0.02020338608828695,0.10473535052001298,0.17168214015062616,,0.09426991684184802,,0.11495451570169905,,4.777759974363083,33.0,12.313291139240507,12.0,2.0,31.0,0.08890798414596146,0.13469857389745618,0.17168214015062616,0.2073855077673374,0.22263128336755197,6.021125783124158,972.75,7.212679046708166
79,2011-04-18,STORE_2_054,12.0,0,2,0.0299632233774432,0.0299632233774432,0.10473535052001298,0.14424389180368657,,0.15358391805782995,,0.1627272974976997,,4.721562499999999,33.0,12.309375,12.0,2.0,31.0,0.09158895049390474,0.13469857389745618,0.17168214015062616,0.2065737187451195,0.22224001649195418,5.982998558944262,984.75,7.213552595489508
80,2011-04-19,STORE_2_054,6.0,0,2,-0.06214790674884445,-0.09211113012628765,0.13469857389745618,0.15358391805782995,,0.213879819945081,,0.0835460514500749,,4.732510288065843,33.0,12.231481481481481,12.0,2.0,31.0,0.0835460514500749,0.13469857389745618,0.17168214015062616,0.2057619297229015,0.22184874961635637,5.986675018553937,990.75,7.214426144270851
81,2011-04-20,STORE_2_054,8.0,0,2,0.021719249693236284,0.08386715644208073,0.07255066714861173,0.19748940375691168,,0.07255066714861173,,0.17168214015062616,,4.720107079119573,33.0,12.179878048780488,12.0,2.0,31.0,0.08622701779801818,0.13469857389745618,0.17168214015062616,0.20493467712630256,0.22145030313279263,5.967927963914708,998.75,7.2152996930521915
82,2011-04-21,STORE_2_054,7.0,0,2,-0.010723865391773113,-0.0324431150850094,0.09426991684184802,0.1627272974976997,,0.0835460514500749,,0.06126965673892268,,4.717375526201191,33.0,12.117469879518072,12.0,2.0,31.0,0.0835460514500749,0.13469857389745618,0.17168214015062616,0.2041074245297035,0.22105185664922877,5.958614555654878,1005.75,7.216173241833534
83,2011-04-22,STORE_2_054,4.0,0,2,-0.033858267260967384,-0.02313440186919427,0.0835460514500749,0.14424389180368657,,0.12493873660829993,,0.12493873660829993,,4.744047619047616,33.0,12.020833333333334,11.5,2.0,31.0,0.0835460514500749,0.12981865525287806,0.17168214015062616,0.20328017193310458,0.22065341016566503,5.988468880953846,1009.75,7.2170467906148765
84,2011-04-23,STORE_2_054,9.000000000000002,0,2,0.05504756633090546,0.08890583359187285,0.04968778418910752,0.22967408712831291,,0.04968778418910752,,0.10473535052001298,,4.720415224913494,33.0,11.985294117647058,11.0,2.0,31.0,0.0835460514500749,0.12493873660829993,0.17168214015062616,0.20245291933650564,0.22025496368210126,5.9617272561524235,1018.75,7.217920339396219
85,2011-04-24,STORE_2_054,3.0000000000000004,0,2,-0.06694678963061318,-0.12199435596151864,0.10473535052001298,0.11495451570169905,,0.17168214015062616,,0.10473535052001298,,4.767577068685776,33.0,11.880813953488373,11.0,2.0,31.0,0.0835460514500749,0.12493873660829993,0.16944342948739455,0.2016256667399066,0.21985651719853752,6.005233837856143,1021.75,7.2187938881775615
86,2011-04-25,STORE_2_054,2.0,0,2,-0.012234456417011635,0.05471233321360154,0.037788560889399796,0.1627272974976997,,0.22184874961635637,,0.13469857389745618,,4.822433610780816,33.0,11.767241379310345,11.0,2.0,31.0,0.0835460514500749,0.12493873660829993,0.16720471882416293,0.20079841414330765,0.21945807071497378,6.06347158403178,1023.75,7.219667436958904
87,2011-04-26,STORE_2_054,4.0,0,2,0.02413367971671936,0.036368136133730994,0.02555410447238816,0.0835460514500749,,0.13469857389745618,,0.07255066714861173,,4.851885330578511,33.0,11.678977272727273,11.0,2.0,31.0,0.0835460514500749,0.12493873660829993,0.16496600816093132,0.1999711615467086,0.21905962423140993,6.085118089272967,1027.75,7.2205409857402465
88,2011-04-27,STORE_2_054,3.0000000000000004,0,2,-0.011899223299707724,-0.03603290301642709,0.04968778418910752,0.17168214015062616,,0.07255066714861173,,0.09426991684184802,,4.889407903042546,33.0,11.581460674157304,11.0,2.0,31.0,0.0835460514500749,0.12493873660829993,0.1627272974976997,0.19914390895010967,0.21866117774784619,6.119985804826414,1030.75,7.221414534521589
89,2011-04-28,STORE_2_054,9.000000000000002,0,2,0.06694678963061318,0.0788460129303209,0.037788560889399796,0.06126965673892268,,0.04968778418910752,,0.0835460514500749,,4.861851851851853,33.0,11.552777777777777,11.0,2.0,31.0,0.0835460514500749,0.12493873660829993,0.1627272974976997,0.19831665635351073,0.21826273126428244,6.091587315099255,1039.75,7.2222880833029315
90,2011-04-29,STORE_2_054,9.000000000000002,0,2,0.0,-0.06694678963061318,0.10473535052001298,0.12493873660829993,,0.04968778418910752,,0.04968778418910752,0.07255066714861173,4.83074074074074,33.0,11.58611111111111,11.0,2.0,31.0,0.0835460514500749,0.12493873660829993,0.1627272974976997,0.19831665635351073,0.21826273126428244,6.069027224208981,1042.75,7.223161632084274
91,2011-04-30,STORE_2_054,7.0,0,2,-0.021189299069938078,-0.021189299069938078,0.10473535052001298,0.10473535052001298,,0.12493873660829993,,0.10473535052001298,0.13469857389745618,4.8721604938271605,33.0,11.530555555555555,11.0,2.0,31.0,0.0835460514500749,0.12493873660829993,0.1627272974976997,0.19831665635351073,0.21826273126428244,6.088050989966286,1037.75,7.2240351808656165
92,2011-05-01,STORE_2_054,15.0,0,2,0.0791812460476248,0.10037054511756288,0.0835460514500749,0.10473535052001298,,0.14424389180368657,,0.037788560889399796,0.06126965673892268,4.845555555555555,33.0,11.641666666666667,11.0,2.0,31.0,0.0835460514500749,0.12493873660829993,0.1627272974976997,0.19831665635351073,0.21826273126428244,6.058707402842493,1047.75,7.224908729646959
93,2011-05-02,STORE_2_054,3.0000000000000004,0,2,-0.1249387366082999,-0.2041199826559247,0.1627272974976997,0.13469857389745618,,0.12493873660829993,,0.02555410447238816,0.11495451570169905,4.918148148148148,33.0,11.563888888888888,11.0,2.0,31.0,0.0835460514500749,0.12493873660829993,0.1627272974976997,0.19831665635351073,0.21826273126428244,6.124591377233048,1040.75,7.2257822784283015
94,2011-05-03,STORE_2_054,4.0,0,2,0.011899223299707724,0.13683795990800762,0.037788560889399796,0.07255066714861173,,0.17168214015062616,,0.04968778418910752,0.19748940375691168,4.9047530864197535,33.0,11.397222222222222,11.0,2.0,31.0,0.0835460514500749,0.12493873660829993,0.1627272974976997,0.19831665635351073,0.21826273126428244,6.124056272680819,1025.75,7.226655827209644
95,2011-05-04,STORE_2_054,13.999999999999998,0,2,0.10389613386872243,0.09199691056901471,0.04968778418910752,0.09426991684184802,,0.14424389180368657,,0.037788560889399796,0.18905623622004886,4.856358024691357,33.0,11.352777777777778,11.0,2.0,31.0,0.0835460514500749,0.12493873660829993,0.1627272974976997,0.19831665635351073,0.21826273126428244,6.090019285181505,1021.75,7.227529375990986
96,2011-05-05,STORE_2_054,11.0,0,2,-0.028645181449530016,-0.13254131531825245,0.15358391805782995,0.0835460514500749,,0.15358391805782995,,0.10473535052001298,0.02555410447238816,4.765246913580246,33.0,11.452777777777778,11.0,2.0,31.0,0.0835460514500749,0.12493873660829993,0.1627272974976997,0.19831665635351073,0.21826273126428244,6.008058077297087,1030.75,7.228402924772329
97,2011-05-06,STORE_2_054,8.0,0,2,-0.030668819766451916,-0.0020236383169218997,0.12493873660829993,0.04968778418910752,,0.19748940375691168,,0.10473535052001298,0.06126965673892268,4.734876543209878,33.0,11.48611111111111,11.0,2.0,31.0,0.0835460514500749,0.12493873660829993,0.1627272974976997,0.19831665635351073,0.21826273126428244,5.9801123010845725,1033.75,7.229276473553671
98,2011-05-07,STORE_2_054,4.0,0,2,-0.0445821326527405,-0.013913312886288581,0.09426991684184802,0.10473535052001298,,0.1627272974976997,,0.0835460514500749,0.04968778418910752,4.734876543209878,33.0,11.48611111111111,11.0,2.0,31.0,0.0835460514500749,0.12493873660829993,0.1627272974976997,0.19831665635351073,0.21826273126428244,5.9801123010845725,1033.75,7.230150022335014
99,2011-05-08,STORE_2_054,13.0,0,2,0.09455610761457905,0.13913824026731955,0.04968778418910752,0.037788560889399796,,0.14424389180368657,,0.1627272974976997,0.0835460514500749,4.706296296296294,33.0,11.552777777777777,11.0,2.0,31.0,0.0835460514500749,0.12493873660829993,0.1627272974976997,0.19831665635351073,0.21826273126428244,5.962958512326356,1039.75,7.231023571116356
100,2011-05-09,STORE_2_054,8.0,0,2,-0.04997397496183856,-0.1445300825764176,0.14424389180368657,0.02555410447238816,,0.22967408712831291,,0.037788560889399796,0.09426991684184802,4.706296296296294,33.0,11.552777777777777,11.0,2.0,31.0,0.0835460514500749,0.12493873660829993,0.1627272974976997,0.19831665635351073,0.21826273126428244,5.962958512326356,1039.75,7.231897119897699
101,2011-05-10,STORE_2_054,15.0,0,2,0.06845738065585169,0.11843135561769025,0.09426991684184802,0.04968778418910752,,0.11495451570169905,,0.04968778418910752,0.30102999566398114,4.492962962962963,26.0,11.352777777777778,11.0,2.0,24.0,0.0835460514500749,0.12493873660829993,0.1627272974976997,0.19748940375691168,0.213879819945081,5.5210137946620765,1021.75,7.23277066867904
102,2011-05-11,STORE_2_054,6.0,0,2,-0.09017663034908797,-0.15863401100493968,0.1627272974976997,0.037788560889399796,,0.1627272974976997,,0.15358391805782995,0.12246411748044457,4.542222222222221,26.0,11.3,11.0,2.0,24.0,0.0835460514500749,0.12493873660829993,0.1627272974976997,0.19748940375691168,0.213879819945081,5.549471075110054,1017.0,7.233644217460382
103,2011-05-12,STORE_2_054,12.0,0,2,0.06214790674884445,0.15232453709793242,0.07255066714861173,0.10473535052001298,,0.0835460514500749,,0.12493873660829993,0.13469857389745618,4.542222222222221,26.0,11.3,11.0,2.0,24.0,0.0835460514500749,0.12493873660829993,0.1627272974976997,0.19748940375691168,0.213879819945081,5.549471075110054,1017.0,7.234517766241725
104,2011-05-13,STORE_2_054,8.0,0,2,-0.040428657055608164,-0.10257656380445261,0.13469857389745618,0.10473535052001298,,0.17168214015062616,,0.09426991684184802,0.24491405368504982,4.4098765432098785,26.0,11.11111111111111,11.0,2.0,24.0,0.0835460514500749,0.12493873660829993,0.1627272974976997,0.1898995529737352,0.213879819945081,5.364143217646758,1000.0,7.235391315023067
105,2011-05-14,STORE_2_054,5.0,0,2,-0.03300026010292534,0.007428396952682825,0.09426991684184802,0.0835460514500749,,0.06126965673892268,,0.04968778418910752,0.11495451570169905,4.460493827160495,26.0,11.055555555555555,11.0,2.0,24.0,0.0835460514500749,0.12493873660829993,0.1627272974976997,0.1898995529737352,0.213879819945081,5.4015418337982135,995.0,7.23626486380441
106,2011-05-15,STORE_2_054,6.0,0,2,0.011281010409689055,0.04428127051261439,0.06126965673892268,0.1627272974976997,,0.12493873660829993,,0.14424389180368657,0.0835460514500749,4.47061728395062,26.0,11.044444444444444,11.0,2.0,24.0,0.0835460514500749,0.12493873660829993,0.1627272974976997,0.1898995529737352,0.213879819945081,5.410998186405481,994.0,7.237138412585752
107,2011-05-16,STORE_2_054,10.0,0,2,0.04240384855308732,0.031122838143398265,0.07255066714861173,0.037788560889399796,,0.10473535052001298,,0.09426991684184802,0.15358391805782995,4.444444444444445,26.0,11.0,11.0,2.0,24.0,0.0835460514500749,0.12493873660829993,0.1627272974976997,0.1898995529737352,0.213879819945081,5.402870647716365,990.0,7.238011961367095
108,2011-05-17,STORE_2_054,-8.881784197001252e-16,0,2,-0.11495451570169905,-0.1573583642547864,0.11495451570169905,0.04968778418910752,,0.10473535052001298,,0.1627272974976997,0.213879819945081,4.455555555555557,26.0,10.766666666666667,10.5,0.0,26.0,0.07529951322397753,0.11994662615499949,0.16044145263773227,0.18905623622004886,0.2102267693451002,5.419585787895563,969.0,7.238885510148437
109,2011-05-18,STORE_2_054,-8.881784197001252e-16,0,2,0.0,0.11495451570169905,0.0,0.15358391805782995,,0.13469857389745618,,0.07255066714861173,0.12493873660829993,4.569876543209876,26.0,10.644444444444444,10.0,0.0,26.0,0.07255066714861173,0.11495451570169905,0.16044145263773227,0.18905623622004886,0.2102267693451002,5.537027781597477,958.0,7.23975905892978
110,2011-05-19,STORE_2_054,-8.881784197001252e-16,0,2,0.0,0.0,0.0,0.12493873660829993,,0.07255066714861173,,0.13469857389745618,0.1627272974976997,4.632345679012346,26.0,10.477777777777778,10.0,0.0,26.0,0.07255066714861173,0.11495451570169905,0.15358391805782995,0.18905623622004886,0.2102267693451002,5.629432641054938,943.0,7.240632607711122
111,2011-05-20,STORE_2_054,-8.881784197001252e-16,0,2,0.0,0.0,0.0,0.09426991684184802,,0.09426991684184802,,0.09426991684184802,0.11495451570169905,4.738518518518518,26.0,10.366666666666667,10.0,0.0,26.0,0.07255066714861173,0.11495451570169905,0.15358391805782995,0.18905623622004886,0.2102267693451002,5.736635665967026,933.0,7.2415061564924645
112,2011-05-21,STORE_2_054,-8.881784197001252e-16,0,2,0.0,0.0,0.0,0.04968778418910752,,0.0835460514500749,,0.06126965673892268,0.14424389180368657,4.814814814814815,26.0,10.222222222222221,9.5,0.0,26.0,0.07255066714861173,0.10984493311085602,0.15358391805782995,0.18905623622004886,0.2102267693451002,5.832450441479088,920.0,7.242379705273807
113,2011-05-22,STORE_2_054,7.0,0,2,0.0835460514500749,0.0835460514500749,0.0,0.14424389180368657,,0.04968778418910752,,0.07255066714861173,0.10473535052001298,4.8355555555555565,26.0,10.2,9.5,0.0,26.0,0.07255066714861173,0.10984493311085602,0.15358391805782995,0.18905623622004886,0.2102267693451002,5.840963442154409,918.0,7.2432532540551495
114,2011-05-23,STORE_2_054,2.0,0,2,-0.05799194697768674,-0.14153799842776166,0.0835460514500749,0.09426991684184802,,0.10473535052001298,,0.11495451570169905,0.037788560889399796,4.845925925925928,26.0,10.188888888888888,9.5,0.0,26.0,0.07255066714861173,0.10984493311085602,0.15358391805782995,0.18905623622004886,0.2102267693451002,5.8557461349092295,917.0,7.244126802836492
115,2011-05-24,STORE_2_054,-8.881784197001252e-16,0,2,-0.02555410447238816,0.032437842505298575,0.02555410447238816,0.1627272974976997,,0.037788560889399796,,0.0,0.06126965673892268,4.897777777777778,26.0,10.133333333333333,9.5,0.0,26.0,0.07255066714861173,0.10984493311085602,0.15358391805782995,0.18905623622004886,0.2102267693451002,5.92879092208123,912.0,7.2450003516178345
116,2011-05-25,STORE_2_054,12.0,0,2,0.13469857389745618,0.16025267836984433,0.0,0.07255066714861173,,0.02555410447238816,,0.0,0.11495451570169905,4.918024691358023,26.0,10.155555555555555,9.5,0.0,26.0,0.07255066714861173,0.10984493311085602,0.15358391805782995,0.18905623622004886,0.2102267693451002,5.93203284994562,914.0,7.245873900399177
117,2011-05-26,STORE_2_054,7.0,0,2,-0.05115252244738128,-0.18585109634483746,0.13469857389745618,0.13469857389745618,,0.04968778418910752,,0.0,0.15358391805782995,4.905185185185185,26.0,10.077777777777778,9.0,0.0,26.0,0.07255066714861173,0.10473535052001298,0.15358391805782995,0.18905623622004886,0.2102267693451002,5.926948127608827,907.0,7.2467474491805195
118,2011-05-27,STORE_2_054,4.0,0,2,-0.033858267260967384,0.017294255186413893,0.0835460514500749,0.09426991684184802,,0.037788560889399796,,0.0,0.1804560644581313,4.8859259259259264,26.0,9.933333333333334,9.0,0.0,26.0,0.07255066714861173,0.10473535052001298,0.15358391805782995,0.18905623622004886,0.2102267693451002,5.914750177557911,894.0,7.247620997961862
119,2011-05-28,STORE_2_054,6.0,0,2,0.022862882959504213,0.0567211502204716,0.04968778418910752,0.06126965673892268,,0.10473535052001298,,0.0,0.07255066714861173,4.8859259259259264,26.0,9.933333333333334,9.0,0.0,26.0,0.07255066714861173,0.10473535052001298,0.15358391805782995,0.18905623622004886,0.2102267693451002,5.914750177557911,894.0,7.2484945467432045
120,2011-05-29,STORE_2_054,10.0,0,2,0.04240384855308732,0.019540965593583107,0.07255066714861173,0.07255066714861173,,0.10473535052001298,,0.0835460514500749,0.1804560644581313,4.804691358024692,26.0,9.855555555555556,9.0,0.0,26.0,0.07255066714861173,0.10473535052001298,0.15358391805782995,0.18905623622004886,0.2102267693451002,5.866609209796951,887.0,7.249368095524547
121,2011-05-30,STORE_2_054,10.0,1,2,0.0,-0.04240384855308732,0.11495451570169905,0.11495451570169905,,0.0835460514500749,,0.02555410447238816,0.0835460514500749,4.775308641975305,26.0,9.88888888888889,9.0,0.0,26.0,0.07255066714861173,0.10473535052001298,0.15358391805782995,0.18905623622004886,0.2102267693451002,5.858719506613927,890.0,7.250241644305888
122,2011-05-31,STORE_2_054,1.0,0,2,-0.1019895385373314,-0.1019895385373314,0.11495451570169905,0.0,,0.1627272974976997,,0.0,0.13469857389745618,4.845185185185188,26.0,9.766666666666667,9.0,0.0,26.0,0.07255066714861173,0.10473535052001298,0.15358391805782995,0.18905623622004886,0.2102267693451002,5.928506642590185,879.0,7.25111519308723
123,2011-06-01,STORE_2_054,8.0,0,2,0.08130493967748037,0.18329447821481176,0.01296497716436765,0.0,,0.037788560889399796,,0.13469857389745618,0.213879819945081,4.730370370370373,26.0,9.622222222222222,9.0,0.0,26.0,0.07255066714861173,0.10473535052001298,0.1512489114942941,0.17341954975756857,0.20203929303820606,5.808900141071357,866.0,7.251988741868573
124,2011-06-02,STORE_2_054,4.0,0,2,-0.0445821326527405,-0.12588707233022087,0.09426991684184802,0.0,,0.04968778418910752,,0.0835460514500749,0.14424389180368657,4.746419753086417,26.0,9.522222222222222,9.0,0.0,26.0,0.06408990934134494,0.10473535052001298,0.1512489114942941,0.17341954975756857,0.20203929303820606,5.827535909929951,857.0,7.252862290649915
125,2011-06-03,STORE_2_054,8.0,0,2,0.0445821326527405,0.089164265305481,0.04968778418910752,0.0,,0.15358391805782995,,0.04968778418910752,0.17168214015062616,4.681481481481482,26.0,9.433333333333334,8.5,0.0,26.0,0.06408990934134494,0.0995026336809305,0.14424389180368657,0.17341954975756857,0.20203929303820606,5.788500805306476,849.0,7.253735839431258
126,2011-06-04,STORE_2_054,10.0,0,2,0.020684598859851036,-0.02389753379288946,0.09426991684184802,0.0,,0.12493873660829993,,0.07255066714861173,0.18905623622004886,4.582716049382717,26.0,9.344444444444445,8.5,0.0,26.0,0.06408990934134494,0.0995026336809305,0.14424389180368657,0.17168214015062616,0.20203929303820606,5.716448003592594,841.0,7.2546093882126
127,2011-06-05,STORE_2_054,9.000000000000002,0,2,-0.010219165181686071,-0.030903764041537107,0.11495451570169905,0.0835460514500749,,0.09426991684184802,,0.11495451570169905,0.17168214015062616,4.502222222222224,26.0,9.266666666666667,8.5,0.0,26.0,0.06408990934134494,0.0995026336809305,0.14424389180368657,0.17168214015062616,0.20203929303820606,5.672325880877827,834.0,7.255482936993943
128,2011-06-06,STORE_2_054,2.0,0,2,-0.07918124604762482,-0.06896208086593875,0.10473535052001298,0.02555410447238816,,0.04968778418910752,,0.11495451570169905,0.15358391805782995,4.509629629629629,26.0,9.133333333333333,8.0,0.0,26.0,0.06126965673892268,0.09426991684184802,0.14185756232712898,0.17168214015062616,0.20203929303820606,5.700778578799074,822.0,7.256356485775285
129,2011-06-07,STORE_2_054,23.999999999999993,0,2,0.2118068113222157,0.2909880573698405,0.02555410447238816,0.0,,0.14424389180368657,,0.01296497716436765,0.09426991684184802,4.685925925925923,26.0,9.311111111111112,8.5,0.0,26.0,0.06126965673892268,0.0995026336809305,0.14424389180368657,0.17341954975756857,0.2102267693451002,5.910653958085746,838.0,7.257230034556628
130,2011-06-08,STORE_2_054,4.0,0,2,-0.18767313160549634,-0.39947994292771205,0.23736091579460386,0.13469857389745618,,0.09426991684184802,,0.09426991684184802,0.2523380717642567,4.521481481481481,24.0,9.066666666666666,8.0,0.0,24.0,0.05258325232656131,0.09426991684184802,0.14185756232712898,0.17168214015062616,0.20203929303820606,5.662413032295915,816.0,7.25810358333797
131,2011-06-09,STORE_2_054,8.0,0,2,0.0445821326527405,0.23225526425823684,0.04968778418910752,0.0835460514500749,,0.1627272974976997,,0.04968778418910752,0.18905623622004886,4.420246913580244,24.0,8.955555555555556,8.0,0.0,24.0,0.05258325232656131,0.09426991684184802,0.13469857389745618,0.17168214015062616,0.20203929303820606,5.582700226836617,806.0,7.258977132119313
132,2011-06-10,STORE_2_054,4.0,0,2,-0.0445821326527405,-0.089164265305481,0.09426991684184802,0.04968778418910752,,0.07255066714861173,,0.09426991684184802,0.07255066714861173,4.441481481481482,24.0,8.933333333333334,8.0,0.0,24.0,0.04968778418910752,0.09426991684184802,0.13469857389745618,0.17168214015062616,0.20203929303820606,5.598555190825497,804.0,7.259850680900655
133,2011-06-11,STORE_2_054,13.0,0,2,0.09455610761457905,0.13913824026731955,0.04968778418910752,0.07255066714861173,,0.13469857389745618,,0.11495451570169905,0.13469857389745618,4.4530864197530855,24.0,8.944444444444445,8.0,0.0,24.0,0.04968778418910752,0.09426991684184802,0.14185756232712898,0.17168214015062616,0.20203929303820606,5.605697565290883,805.0,7.260724229681998
134,2011-06-12,STORE_2_054,6.0,0,2,-0.07169322465507484,-0.16624933226965388,0.14424389180368657,0.11495451570169905,,0.09426991684184802,,0.10473535052001298,0.19748940375691168,4.364444444444444,24.0,8.8,8.0,0.0,24.0,0.04968778418910752,0.09426991684184802,0.13469857389745618,0.16362278176299244,0.20203929303820606,5.510357968754864,792.0,7.26159777846334
135,2011-06-13,STORE_2_054,12.0,0,2,0.06214790674884445,0.1338411314039193,0.07255066714861173,0.11495451570169905,,0.06126965673892268,,0.02555410447238816,0.2057619297229015,4.269629629629629,24.0,8.71111111111111,8.0,0.0,24.0,0.04968778418910752,0.09426991684184802,0.13469857389745618,0.1627272974976997,0.18587613513408313,5.390887951800139,784.0,7.262471327244683
136,2011-06-14,STORE_2_054,6.0,0,2,-0.06214790674884445,-0.1242958134976889,0.13469857389745618,0.01296497716436765,,0.07255066714861173,,0.23736091579460386,0.1627272974976997,4.220987654320989,24.0,8.61111111111111,8.0,0.0,24.0,0.04968778418910752,0.09426991684184802,0.13469857389745618,0.1627272974976997,0.18587613513408313,5.356282553833803,775.0,7.263344876026025
137,2011-06-15,STORE_2_054,-8.881784197001252e-16,0,2,-0.07255066714861173,-0.010402760399767286,0.07255066714861173,0.09426991684184802,,0.11495451570169905,,0.04968778418910752,0.09426991684184802,4.301975308641973,24.0,8.522222222222222,8.0,0.0,24.0,0.04968778418910752,0.09426991684184802,0.13469857389745618,0.1627272974976997,0.18587613513408313,5.432378537922032,767.0,7.264218424807368
138,2011-06-16,STORE_2_054,6.0,0,2,0.07255066714861173,0.14510133429722347,0.0,0.04968778418910752,,0.0,,0.09426991684184802,0.09426991684184802,4.322222222222222,24.0,8.5,8.0,0.0,24.0,0.04968778418910752,0.09426991684184802,0.13469857389745618,0.1627272974976997,0.18587613513408313,5.438625900481965,765.0,7.26509197358871
139,2011-06-17,STORE_2_054,7.0,0,2,0.01099538430146317,-0.06155528284714856,0.07255066714861173,0.09426991684184802,,0.0,,0.04968778418910752,0.15358391805782995,4.269135802469136,24.0,8.422222222222222,8.0,0.0,24.0,0.04968778418910752,0.09426991684184802,0.13469857389745618,0.1627272974976997,0.18587613513408313,5.409059769545155,758.0,7.2659655223700526
140,2011-06-18,STORE_2_054,8.0,0,2,0.010723865391773113,-0.00027151890969005776,0.0835460514500749,0.11495451570169905,,0.0,,0.14424389180368657,0.213879819945081,4.114814814814815,24.0,8.277777777777779,8.0,0.0,24.0,0.04968778418910752,0.09426991684184802,0.13225861457516713,0.1627272974976997,0.17168214015062616,5.240352886688902,745.0,7.266839071151393
141,2011-06-19,STORE_2_054,4.0,0,2,-0.0445821326527405,-0.05530599804451361,0.09426991684184802,0.10473535052001298,,0.0,,0.07255066714861173,0.07255066714861173,4.134074074074078,24.0,8.255555555555556,8.0,0.0,24.0,0.04968778418910752,0.09426991684184802,0.13225861457516713,0.1627272974976997,0.17168214015062616,5.254342476126719,743.0,7.267712619932736
142,2011-06-20,STORE_2_054,5.0,0,2,0.011581872549815159,0.056164005202555656,0.04968778418910752,0.02555410447238816,,0.0,,0.13469857389745618,0.0835460514500749,4.153333333333331,24.0,8.233333333333333,8.0,0.0,24.0,0.04968778418910752,0.09426991684184802,0.13225861457516713,0.1627272974976997,0.17168214015062616,5.263932822903892,741.0,7.268586168714078
143,2011-06-21,STORE_2_054,3.0000000000000004,0,2,-0.023481095849522883,-0.03506296839933804,0.06126965673892268,0.23736091579460386,,0.0835460514500749,,0.07255066714861173,0.12493873660829993,4.166913580246914,24.0,8.144444444444444,8.0,0.0,24.0,0.04968778418910752,0.09426991684184802,0.13225861457516713,0.1627272974976997,0.17168214015062616,5.284195454182454,733.0,7.269459717495421
144,2011-06-22,STORE_2_054,6.0,0,2,0.03476210625921194,0.05824320210873482,0.037788560889399796,0.04968778418910752,,0.02555410447238816,,0.0,0.04968778418910752,4.148148148148145,24.0,8.166666666666666,8.0,0.0,24.0,0.04968778418910752,0.09426991684184802,0.13225861457516713,0.1627272974976997,0.17168214015062616,5.270758852044408,735.0,7.270333266276763
145,2011-06-23,STORE_2_054,3.0000000000000004,0,2,-0.03476210625921194,-0.06952421251842388,0.07255066714861173,0.09426991684184802,,0.0,,0.07255066714861173,0.17168214015062616,4.092839506172837,24.0,8.022222222222222,7.5,0.0,24.0,0.04968778418910752,0.08890798414596146,0.12493873660829993,0.1627272974976997,0.17168214015062616,5.231661986508079,722.0,7.271206815058106
146,2011-06-24,STORE_2_054,7.0,0,2,0.04575749056067511,0.08051959681988705,0.037788560889399796,0.04968778418910752,,0.13469857389745618,,0.0835460514500749,0.22184874961635637,3.9412345679012346,24.0,7.855555555555555,7.0,0.0,24.0,0.04968778418910752,0.0835460514500749,0.12493873660829993,0.154498256001817,0.16765246095680922,5.015842566726182,707.0,7.272080363839448
147,2011-06-25,STORE_2_054,2.0,0,2,-0.05799194697768674,-0.10374943753836186,0.0835460514500749,0.14424389180368657,,0.0835460514500749,,0.09426991684184802,0.13469857389745618,3.9553086419753067,24.0,7.7444444444444445,7.0,0.0,24.0,0.04968778418910752,0.0835460514500749,0.12493873660829993,0.154498256001817,0.16765246095680922,5.033731412687922,697.0,7.272953912620791
148,2011-06-26,STORE_2_054,4.0,0,2,0.02413367971671936,0.0821256266944061,0.02555410447238816,0.07255066714861173,,0.04968778418910752,,0.04968778418910752,0.07255066714861173,3.9765432098765428,24.0,7.722222222222222,7.0,0.0,24.0,0.04968778418910752,0.0835460514500749,0.12493873660829993,0.154498256001817,0.16765246095680922,5.045918982408328,695.0,7.273827461402133
149,2011-06-27,STORE_2_054,10.0,0,2,0.06526673151259153,0.04113305179587218,0.04968778418910752,0.13469857389745618,,0.07255066714861173,,0.06126965673892268,0.04968778418910752,3.9619753086419753,24.0,7.788888888888889,7.0,0.0,24.0,0.04968778418910752,0.0835460514500749,0.12493873660829993,0.154498256001817,0.16765246095680922,5.03581430533858,701.0,7.274701010183476
150,2011-06-28,STORE_2_054,4.0,0,2,-0.06526673151259153,-0.13053346302518307,0.11495451570169905,0.07255066714861173,,0.11495451570169905,,0.037788560889399796,0.04968778418910752,3.9619753086419753,24.0,7.788888888888889,7.0,0.0,24.0,0.04968778418910752,0.0835460514500749,0.12493873660829993,0.154498256001817,0.16765246095680922,5.035814305338581,701.0,7.275574558964818
151,2011-06-29,STORE_2_054,4.0,0,2,0.0,0.06526673151259153,0.04968778418910752,0.0,,0.11495451570169905,,0.07255066714861173,0.12493873660829993,3.964938271604938,24.0,7.711111111111111,7.0,0.0,24.0,0.04968778418910752,0.0835460514500749,0.12244268138164971,0.154498256001817,0.16765246095680922,5.039717408798761,694.0,7.276448107746161
152,2011-06-30,STORE_2_054,3.0000000000000004,0,2,-0.011899223299707724,-0.011899223299707724,0.04968778418910752,0.07255066714861173,,0.01296497716436765,,0.037788560889399796,0.14424389180368657,3.9511111111111084,24.0,7.6,7.0,0.0,24.0,0.04968778418910752,0.0835460514500749,0.11495451570169905,0.154498256001817,0.16765246095680922,5.032032225116085,684.0,7.277321656527503
153,2011-07-01,STORE_2_054,8.0,0,2,0.05648135595244822,0.06838057925215595,0.037788560889399796,0.0835460514500749,,0.09426991684184802,,0.0835460514500749,0.12493873660829993,3.915555555555556,24.0,7.566666666666666,7.0,0.0,24.0,0.04968778418910752,0.0835460514500749,0.11495451570169905,0.154498256001817,0.16765246095680922,5.0191767085310595,681.0,7.278195205308846
154,2011-07-02,STORE_2_054,10.0,0,2,0.020684598859851036,-0.035796757092597185,0.09426991684184802,0.09426991684184802,,0.04968778418910752,,0.02555410447238816,0.17168214015062616,3.8444444444444446,24.0,7.5,7.0,0.0,24.0,0.04968778418910752,0.0835460514500749,0.11495451570169905,0.15358391805782995,0.1627272974976997,4.9452053728612,675.0,7.279068754090188
155,2011-07-03,STORE_2_054,5.0,0,2,-0.053684858962776374,-0.07436945782262741,0.11495451570169905,0.04968778418910752,,0.09426991684184802,,0.04968778418910752,0.14424389180368657,3.8032098765432107,24.0,7.411111111111111,7.0,0.0,24.0,0.04968778418910752,0.0835460514500749,0.11495451570169905,0.15358391805782995,0.1627272974976997,4.917052292374219,667.0,7.279942302871531
156,2011-07-04,STORE_2_054,4.0,1,2,-0.011581872549815159,0.042102986412961216,0.06126965673892268,0.06126965673892268,,0.11495451570169905,,0.11495451570169905,0.15358391805782995,3.755555555555555,24.0,7.3,7.0,0.0,24.0,0.04968778418910752,0.0835460514500749,0.11495451570169905,0.14517789442910098,0.1627272974976997,4.87933040165752,657.0,7.280815851652873
157,2011-07-05,STORE_2_054,4.0,0,2,0.0,0.011581872549815159,0.04968778418910752,0.037788560889399796,,0.10473535052001298,,0.04968778418910752,0.19748940375691168,3.64,24.0,7.133333333333334,7.0,0.0,24.0,0.04968778418910752,0.0835460514500749,0.11495451570169905,0.14424389180368657,0.1627272974976997,4.7290638549104225,642.0,7.281689400434216
158,2011-07-06,STORE_2_054,8.0,0,2,0.0445821326527405,0.0445821326527405,0.04968778418910752,0.07255066714861173,,0.02555410447238816,,0.04968778418910752,0.1627272974976997,3.5518518518518523,24.0,7.055555555555555,7.0,0.0,24.0,0.04968778418910752,0.0835460514500749,0.11239972440627753,0.14424389180368657,0.1627272974976997,4.655216021275927,635.0,7.282562949215558
159,2011-07-07,STORE_2_054,11.0,0,2,0.030668819766451916,-0.013913312886288581,0.09426991684184802,0.037788560889399796,,0.23736091579460386,,0.037788560889399796,0.14424389180368657,3.526666666666665,24.0,7.033333333333333,7.0,0.0,24.0,0.04968778418910752,0.0835460514500749,0.11239972440627753,0.1356531056880793,0.1627272974976997,4.631232514864868,633.0,7.283436497996901
160,2011-07-08,STORE_2_054,6.0,0,2,-0.0523880694596882,-0.08305688922614012,0.12493873660829993,0.0835460514500749,,0.04968778418910752,,0.09426991684184802,0.22967408712831291,3.355555555555556,24.0,6.844444444444444,6.5,0.0,24.0,0.04968778418910752,0.07804835929934331,0.10473535052001298,0.13469857389745618,0.1586127767497583,4.308108662706628,616.0,7.284310046778241
161,2011-07-09,STORE_2_054,5.0,0,2,-0.011281010409689055,0.041107059049999145,0.07255066714861173,0.02555410447238816,,0.09426991684184802,,0.11495451570169905,0.11495451570169905,3.3397530864197527,24.0,6.788888888888889,6.0,0.0,24.0,0.04968778418910752,0.07255066714861173,0.10473535052001298,0.13469857389745618,0.1586127767497583,4.299188437771793,611.0,7.285183595559584
162,2011-07-10,STORE_2_054,9.000000000000002,0,2,0.0434656937810903,0.05474670419077936,0.06126965673892268,0.04968778418910752,,0.04968778418910752,,0.06126965673892268,0.1627272974976997,3.2716049382716044,24.0,6.722222222222222,6.0,0.0,24.0,0.04968778418910752,0.07255066714861173,0.10473535052001298,0.13469857389745618,0.1493809062434654,4.216148137649073,605.0,7.286057144340926
163,2011-07-11,STORE_2_054,9.000000000000002,0,2,0.0,-0.0434656937810903,0.10473535052001298,0.11495451570169905,,0.14424389180368657,,0.04968778418910752,0.0835460514500749,3.2943209876543205,24.0,6.7444444444444445,6.0,0.0,24.0,0.04968778418910752,0.07255066714861173,0.10473535052001298,0.13469857389745618,0.1493809062434654,4.222894026322832,607.0,7.286930693122269
164,2011-07-12,STORE_2_054,3.0000000000000004,0,2,-0.06694678963061318,-0.06694678963061318,0.10473535052001298,0.04968778418910752,,0.07255066714861173,,0.04968778418910752,0.17168214015062616,3.226666666666667,24.0,6.6,6.0,0.0,24.0,0.04968778418910752,0.07255066714861173,0.10473535052001298,0.13469857389745618,0.14424389180368657,4.123923080397318,594.0,7.287804241903611
165,2011-07-13,STORE_2_054,3.0000000000000004,0,2,0.0,0.06694678963061318,0.037788560889399796,0.04968778418910752,,0.13469857389745618,,0.09426991684184802,0.06126965673892268,3.247901234567901,24.0,6.5777777777777775,6.0,0.0,24.0,0.04968778418910752,0.07255066714861173,0.10473535052001298,0.13469857389745618,0.14424389180368657,4.1380062989122814,592.0,7.288677790684954
166,2011-07-14,STORE_2_054,6.0,0,2,0.03476210625921194,0.03476210625921194,0.037788560889399796,0.037788560889399796,,0.07255066714861173,,0.12493873660829993,0.12493873660829993,3.201481481481482,24.0,6.522222222222222,6.0,0.0,24.0,0.04968778418910752,0.07255066714861173,0.10473535052001298,0.13469857389745618,0.14424389180368657,4.111446826391191,587.0,7.289551339466296
167,2011-07-15,STORE_2_054,5.0,0,2,-0.011281010409689055,-0.04604311666890099,0.07255066714861173,0.09426991684184802,,0.0,,0.07255066714861173,0.10473535052001298,3.1869135802469133,24.0,6.477777777777778,6.0,0.0,24.0,0.04968778418910752,0.07255066714861173,0.10473535052001298,0.13469857389745618,0.14424389180368657,4.105977494582438,583.0,7.290424888247639
168,2011-07-16,STORE_2_054,4.0,0,2,-0.011581872549815159,-0.00030086214012610413,0.06126965673892268,0.11495451570169905,,0.07255066714861173,,0.06126965673892268,0.10473535052001298,3.180246913580247,24.0,6.4222222222222225,6.0,0.0,24.0,0.04968778418910752,0.07255066714861173,0.10473535052001298,0.13469857389745618,0.14424389180368657,4.105293315767997,578.0,7.291298437028981
169,2011-07-17,STORE_2_054,6.0,0,2,0.022862882959504213,0.03444475550931937,0.04968778418910752,0.06126965673892268,,0.0835460514500749,,0.10473535052001298,0.13469857389745618,3.114074074074074,24.0,6.355555555555555,6.0,0.0,24.0,0.04968778418910752,0.07255066714861173,0.10211899210047173,0.12591472033721565,0.14424389180368657,4.062188238301587,572.0,7.292171985810324
170,2011-07-18,STORE_2_054,3.0000000000000004,0,2,-0.03476210625921194,-0.05762498921871615,0.07255066714861173,0.04968778418910752,,0.09426991684184802,,0.10473535052001298,0.07255066714861173,3.142962962962963,24.0,6.322222222222222,6.0,0.0,24.0,0.04968778418910752,0.07255066714861173,0.10211899210047173,0.12591472033721565,0.14424389180368657,4.077418708061378,569.0,7.293045534591666
171,2011-07-19,STORE_2_054,-8.881784197001252e-16,0,2,-0.037788560889399796,-0.003026454630187858,0.037788560889399796,0.04968778418910752,,0.04968778418910752,,0.037788560889399796,0.09426991684184802,3.1807407407407404,24.0,6.233333333333333,6.0,0.0,24.0,0.04968778418910752,0.07255066714861173,0.10211899210047173,0.12591472033721565,0.14424389180368657,4.127327399259012,561.0,7.293919083373009
172,2011-07-20,STORE_2_054,-8.881784197001252e-16,0,2,0.0,0.037788560889399796,0.0,0.09426991684184802,,0.06126965673892268,,0.037788560889399796,0.0835460514500749,3.227654320987654,24.0,6.155555555555556,6.0,0.0,24.0,0.040763366714326725,0.07255066714861173,0.10211899210047173,0.12591472033721565,0.14424389180368657,4.178358129000226,554.0,7.294792632154351
173,2011-07-21,STORE_2_054,-8.881784197001252e-16,0,2,0.0,0.0,0.0,0.12493873660829993,,0.037788560889399796,,0.07255066714861173,0.04968778418910752,3.2641975308641973,24.0,6.111111111111111,6.0,0.0,24.0,0.037788560889399796,0.07255066714861173,0.10211899210047173,0.12591472033721565,0.14424389180368657,4.222583597124705,550.0,7.295666180935694
174,2011-07-22,STORE_2_054,6.0,0,2,0.07255066714861173,0.07255066714861173,0.0,0.07255066714861173,,0.07255066714861173,,0.06126965673892268,0.10473535052001298,3.226666666666667,24.0,6.0777777777777775,6.0,0.0,24.0,0.037788560889399796,0.07255066714861173,0.09426991684184802,0.12591472033721565,0.14424389180368657,4.211348439680515,547.0,7.296539729717036
175,2011-07-23,STORE_2_054,10.0,0,2,0.04240384855308732,-0.030146818595524413,0.07255066714861173,0.06126965673892268,,0.037788560889399796,,0.04968778418910752,0.037788560889399796,3.2498765432098766,24.0,6.155555555555556,6.0,0.0,24.0,0.040763366714326725,0.07255066714861173,0.10211899210047173,0.12591472033721565,0.14424389180368657,4.218501547453511,554.0,7.297413278498379
176,2011-07-24,STORE_2_054,3.0000000000000004,0,2,-0.07716595481229926,-0.11956980336538658,0.11495451570169905,0.10473535052001298,,0.0835460514500749,,0.07255066714861173,0.02555410447238816,3.240740740740741,24.0,6.166666666666667,6.0,0.0,24.0,0.040763366714326725,0.07255066714861173,0.10211899210047173,0.12591472033721565,0.14424389180368657,4.208738902102079,555.0,7.298286827279721
177,2011-07-25,STORE_2_054,-8.881784197001252e-16,0,2,-0.037788560889399796,0.03937739392289947,0.037788560889399796,0.10473535052001298,,0.02555410447238816,,0.037788560889399796,0.04968778418910752,3.277283950617284,24.0,6.122222222222222,6.0,0.0,24.0,0.037788560889399796,0.07255066714861173,0.10211899210047173,0.12591472033721565,0.14424389180368657,4.252765862136347,551.0,7.299160376061064
178,2011-07-26,STORE_2_054,-8.881784197001252e-16,0,2,0.0,0.037788560889399796,0.0,0.037788560889399796,,0.04968778418910752,,0.0,0.037788560889399796,3.304691358024691,24.0,6.088888888888889,6.0,0.0,24.0,0.037788560889399796,0.07255066714861173,0.10211899210047173,0.12591472033721565,0.14424389180368657,4.289114637024532,548.0,7.300033924842406
179,2011-07-27,STORE_2_054,5.0,0,2,0.06126965673892268,0.06126965673892268,0.0,0.037788560889399796,,0.11495451570169905,,0.0,0.10473535052001298,3.275555555555557,24.0,6.044444444444444,6.0,0.0,24.0,0.037788560889399796,0.07255066714861173,0.09426991684184802,0.12591472033721565,0.14424389180368657,4.279323455693895,544.0,7.300907473623749
180,2011-07-28,STORE_2_054,3.0000000000000004,0,2,-0.023481095849522883,-0.08475075258844555,0.06126965673892268,0.07255066714861173,0.07255066714861173,0.04968778418910752,,0.0,0.10473535052001298,3.26716049382716,24.0,5.977777777777778,6.0,0.0,24.0,0.037788560889399796,0.07255066714861173,0.09426991684184802,0.12591472033721565,0.14424389180368657,4.27949849465948,538.0,7.301781022405089
181,2011-07-29,STORE_2_054,6.0,0,2,0.03476210625921194,0.05824320210873482,0.037788560889399796,0.06126965673892268,0.13469857389745618,0.04968778418910752,,0.07255066714861173,0.0835460514500749,3.2562962962962967,24.0,5.966666666666667,6.0,0.0,24.0,0.037788560889399796,0.07255066714861173,0.09426991684184802,0.12591472033721565,0.14424389180368657,4.278112573438342,537.0,7.302654571186432
182,2011-07-30,STORE_2_054,3.0000000000000004,0,2,-0.03476210625921194,-0.06952421251842388,0.07255066714861173,0.04968778418910752,0.06126965673892268,0.037788560889399796,,0.11495451570169905,0.1627272974976997,3.188888888888889,24.0,5.833333333333333,5.5,0.0,24.0,0.037788560889399796,0.0669101619437672,0.09426991684184802,0.12493873660829993,0.13994849874588286,4.179269330257558,525.0,7.303528119967774
183,2011-07-31,STORE_2_054,8.0,0,2,0.05648135595244822,0.09124346221166016,0.037788560889399796,0.07255066714861173,0.11495451570169905,0.09426991684184802,,0.037788560889399796,0.037788560889399796,3.1802469135802456,24.0,5.888888888888889,6.0,0.0,24.0,0.037788560889399796,0.07255066714861173,0.09426991684184802,0.12493873660829993,0.13994849874588286,4.174412276319164,530.0,7.304401668749117
184,2011-08-01,STORE_2_054,3.0000000000000004,0,2,-0.05648135595244822,-0.11296271190489644,0.09426991684184802,0.037788560889399796,0.19748940375691168,0.11495451570169905,,0.0,0.04968778418910752,3.1916049382716047,24.0,5.877777777777778,6.0,0.0,24.0,0.037788560889399796,0.07255066714861173,0.09426991684184802,0.12493873660829993,0.13994849874588286,4.180822395787532,529.0,7.305275217530459
185,2011-08-02,STORE_2_054,7.0,0,2,0.04575749056067511,0.10223884651312333,0.037788560889399796,0.0,0.18905623622004886,0.06126965673892268,,0.0,0.15358391805782995,3.1155555555555545,24.0,5.8,6.0,0.0,24.0,0.037788560889399796,0.07255066714861173,0.09426991684184802,0.11595293779235923,0.13469857389745618,4.092195916098146,522.0,7.306148766311802
186,2011-08-03,STORE_2_054,-8.881784197001252e-16,0,2,-0.0835460514500749,-0.12930354201075,0.0835460514500749,0.0,0.02555410447238816,0.04968778418910752,,0.06126965673892268,0.12493873660829993,3.122222222222221,24.0,5.677777777777778,5.5,0.0,24.0,0.037788560889399796,0.0669101619437672,0.09426991684184802,0.11495451570169905,0.13469857389745618,4.09940466430771,511.0,7.307022315093144
187,2011-08-04,STORE_2_054,-8.881784197001252e-16,0,2,0.0,0.0835460514500749,0.0,0.0,0.06126965673892268,0.04968778418910752,,0.037788560889399796,0.09426991684184802,3.1575308641975295,24.0,5.588888888888889,5.0,0.0,24.0,0.037788560889399796,0.06126965673892268,0.09426991684184802,0.11495451570169905,0.13469857389745618,4.135063670676585,503.0,7.307895863874487
188,2011-08-05,STORE_2_054,-8.881784197001252e-16,0,2,0.0,0.0,0.0,0.07255066714861173,0.04968778418910752,0.09426991684184802,,0.07255066714861173,0.04968778418910752,3.200987654320989,24.0,5.544444444444444,5.0,0.0,24.0,0.037788560889399796,0.06126965673892268,0.09426991684184802,0.11495451570169905,0.13469857389745618,4.173649579383209,499.0,7.308769412655829
189,2011-08-06,STORE_2_054,3.0000000000000004,0,2,0.037788560889399796,0.037788560889399796,0.0,0.11495451570169905,0.0835460514500749,0.12493873660829993,,0.037788560889399796,0.14424389180368657,3.1414814814814815,24.0,5.433333333333334,5.0,0.0,24.0,0.037788560889399796,0.06126965673892268,0.09426991684184802,0.11495451570169905,0.13469857389745618,4.105490979137,489.0,7.309642961437172
190,2011-08-07,STORE_2_054,3.0000000000000004,0,2,0.0,-0.037788560889399796,0.037788560889399796,0.037788560889399796,0.09426991684184802,0.07255066714861173,,0.09426991684184802,0.09426991684184802,3.136296296296296,24.0,5.377777777777778,5.0,0.0,24.0,0.037788560889399796,0.06126965673892268,0.09426991684184802,0.11495451570169905,0.13469857389745618,4.1041983924323695,484.0,7.310516510218514
191,2011-08-08,STORE_2_054,5.0,0,2,0.023481095849522883,0.023481095849522883,0.037788560889399796,0.0,0.30102999566398114,0.06126965673892268,,0.037788560889399796,0.1627272974976997,3.0237037037037036,24.0,5.266666666666667,5.0,0.0,24.0,0.037788560889399796,0.06126965673892268,0.09426991684184802,0.11495451570169905,0.13030664711733583,3.974073279013146,474.0,7.311390058999857
192,2011-08-09,STORE_2_054,19.999999999999993,0,2,0.14449227298397882,0.12101117713445594,0.06126965673892268,0.0,0.12246411748044457,0.10473535052001298,,0.0835460514500749,0.07255066714861173,3.1930864197530866,24.0,5.4222222222222225,5.0,0.0,24.0,0.037788560889399796,0.06126965673892268,0.09426991684184802,0.11495451570169905,0.13469857389745618,4.2663506437271375,488.0,7.312263607781199
193,2011-08-10,STORE_2_054,44.0,0,2,-0.10599738871677448,-0.2504896617007533,0.2057619297229015,0.06126965673892268,0.13469857389745618,0.10473535052001298,,0.0,0.13469857389745618,3.151007164331862,24.0,5.383578008059873,5.0,0.0,24.0,0.037788560889399796,0.06126965673892268,0.09426991684184802,0.11495451570169905,0.13030664711733583,4.221617377429645,484.5220207253886,7.313137156562542
194,2011-08-11,STORE_2_054,16.0,0,2,0.07191759914449915,0.17791498786127363,0.09976454100612701,0.037788560889399796,0.24491405368504982,0.037788560889399796,,0.0,0.09426991684184802,3.247797287788653,24.0,5.472466896948762,5.0,0.0,24.0,0.037788560889399796,0.06126965673892268,0.09426991684184802,0.11495451570169905,0.13469857389745618,4.359304117755276,492.5220207253886,7.314010705343884
195,2011-08-12,STORE_2_054,27.0,0,2,0.08795517035512995,0.016037571210630805,0.17168214015062616,0.07255066714861173,0.11495451570169905,0.037788560889399796,,0.0,0.06126965673892268,3.4980387641527533,27.0,5.716911341393206,5.0,0.0,27.0,0.037788560889399796,0.06126965673892268,0.09426991684184802,0.11495451570169905,0.13994849874588286,4.914034089095367,514.5220207253885,7.314884254125227
196,2011-08-13,STORE_2_054,17.0,0,2,-0.0791812460476248,-0.16713641640275476,0.2596373105057561,0.037788560889399796,0.0835460514500749,0.07255066714861173,,0.037788560889399796,0.07255066714861173,3.628409134523124,27.0,5.8391335636154285,5.0,0.0,27.0,0.037788560889399796,0.06126965673892268,0.09426991684184802,0.11595293779235923,0.15933492839450328,5.055902732947522,525.5220207253885,7.315757802906569
197,2011-08-14,STORE_2_054,6.0,0,2,-0.10790539730951958,-0.028724151261894773,0.1804560644581313,0.09426991684184802,0.15358391805782995,0.06126965673892268,,0.037788560889399796,0.11495451570169905,3.581001727115717,27.0,5.794689119170983,5.0,0.0,27.0,0.037788560889399796,0.06126965673892268,0.09426991684184802,0.11595293779235923,0.15933492839450328,5.036459049432659,521.5220207253885,7.316631351687912
198,2011-08-15,STORE_2_054,6.0,0,2,0.0,0.10790539730951958,0.07255066714861173,0.037788560889399796,0.213879819945081,0.04968778418910752,,0.06126965673892268,0.0,3.5218604874304353,27.0,5.861355785837651,5.0,0.0,27.0,0.037788560889399796,0.06126965673892268,0.09426991684184802,0.11595293779235923,0.15933492839450328,4.998461099030543,527.5220207253885,7.317504900469254
199,2011-08-16,STORE_2_054,-8.881784197001252e-16,0,2,-0.07255066714861173,-0.07255066714861173,0.07255066714861173,0.0835460514500749,0.12493873660829993,0.07255066714861173,,0.2057619297229015,0.0,3.5218604874304353,27.0,5.861355785837651,5.0,0.0,27.0,0.037788560889399796,0.06126965673892268,0.09426991684184802,0.11595293779235923,0.15933492839450328,4.998461099030543,527.5220207253885,7.318378449250597
200,2011-08-17,STORE_2_054,4.0,0,2,0.04968778418910752,0.12223845133771925,0.0,0.0,0.1627272974976997,0.037788560889399796,,0.09976454100612701,0.0,3.479391351627967,27.0,5.905800230282095,5.0,0.0,27.0,0.037788560889399796,0.06126965673892268,0.09426991684184802,0.11595293779235923,0.15933492839450328,4.963418952181635,531.5220207253885,7.3192519980319375
201,2011-08-18,STORE_2_054,16.0,0,2,0.12199435596151864,0.07230657177241112,0.04968778418910752,0.0,0.11495451570169905,0.0,,0.17168214015062616,0.0,3.5521672103882813,27.0,6.083578008059873,5.0,0.0,27.0,0.037788560889399796,0.06126965673892268,0.09426991684184802,0.12591472033721565,0.17168214015062616,5.0355276137319525,547.5220207253885,7.32012554681328
202,2011-08-19,STORE_2_054,6.0,0,2,-0.09913147300201443,-0.22112582896353306,0.17168214015062616,0.0,0.14424389180368657,0.0,,0.2596373105057561,0.0,3.504759802980873,27.0,6.150244674726539,5.5,0.0,27.0,0.037788560889399796,0.0669101619437672,0.09426991684184802,0.12591472033721565,0.17168214015062616,4.993623998631163,553.5220207253885,7.3209990955946225
203,2011-08-20,STORE_2_054,-8.881784197001252e-16,0,2,-0.07255066714861173,0.026580805853402695,0.07255066714861173,0.037788560889399796,0.10473535052001298,0.0,,0.1804560644581313,0.0835460514500749,3.539456598221709,27.0,6.072466896948762,5.0,0.0,27.0,0.037788560889399796,0.06126965673892268,0.09426991684184802,0.12591472033721565,0.17168214015062616,5.0345859519071,546.5220207253885,7.321872644375965
204,2011-08-21,STORE_2_054,2.0,0,2,0.02555410447238816,0.0981047716209999,0.0,0.037788560889399796,0.037788560889399796,0.07255066714861173,,0.07255066714861173,0.02555410447238816,3.5394565982217094,27.0,6.072466896948762,5.0,0.0,27.0,0.037788560889399796,0.06126965673892268,0.09426991684184802,0.12591472033721565,0.17168214015062616,5.0345859519071,546.5220207253885,7.3227461931573075
205,2011-08-22,STORE_2_054,10.0,0,2,0.08940041122931089,0.06384630675692272,0.02555410447238816,0.06126965673892268,0.06126965673892268,0.11495451570169905,,0.07255066714861173,0.0,3.5477227659438344,27.0,6.183578008059873,5.5,0.0,27.0,0.037788560889399796,0.0669101619437672,0.09426991684184802,0.12591472033721565,0.17168214015062616,5.009348013021879,556.5220207253885,7.32361974193865
206,2011-08-23,STORE_2_054,-8.881784197001252e-16,0,2,-0.11495451570169905,-0.20435492693100993,0.11495451570169905,0.2057619297229015,0.11495451570169905,0.037788560889399796,,0.0,0.13469857389745618,3.510320795752576,27.0,6.050244674726539,5.0,0.0,27.0,0.037788560889399796,0.06126965673892268,0.09426991684184802,0.11595293779235923,0.17168214015062616,5.012493807420126,544.5220207253885,7.3244932907199924
207,2011-08-24,STORE_2_054,3.0000000000000004,0,2,0.037788560889399796,0.15274307659109884,0.0,0.09976454100612701,0.15358391805782995,0.0,,0.04968778418910752,0.0835460514500749,3.518844751487237,27.0,6.0058002302820945,5.0,0.0,27.0,0.037788560889399796,0.06126965673892268,0.09426991684184802,0.11595293779235923,0.17168214015062616,5.021702966326241,540.5220207253885,7.325366839501335
208,2011-08-25,STORE_2_054,9.000000000000002,0,2,0.06694678963061318,0.029158228741213384,0.037788560889399796,0.17168214015062616,0.1804560644581313,0.0,,0.17168214015062616,0.04968778418910752,3.547110919209368,27.0,6.06135578583765,5.0,0.0,27.0,0.037788560889399796,0.06126965673892268,0.09426991684184802,0.11595293779235923,0.17168214015062616,5.026918305224018,545.5220207253885,7.326240388282677
209,2011-08-26,STORE_2_054,7.0,0,2,-0.021189299069938078,-0.08813608870055126,0.10473535052001298,0.2596373105057561,0.07255066714861173,0.06126965673892268,,0.07255066714861173,0.07255066714861173,3.560068444956181,27.0,6.072466896948762,5.0,0.0,27.0,0.037788560889399796,0.06126965673892268,0.09426991684184802,0.11595293779235923,0.17168214015062616,5.0278862334785615,546.5220207253885,7.32711393706402
210,2011-08-27,STORE_2_054,2.0,0,2,-0.05799194697768674,-0.03680264790774866,0.0835460514500749,0.1804560644581313,0.1804560644581313,0.037788560889399796,,0.0,0.11495451570169905,3.538403697306981,27.0,5.983578008059872,5.0,0.0,27.0,0.037788560889399796,0.06126965673892268,0.09426991684184802,0.11595293779235923,0.17168214015062616,5.028387188858237,538.5220207253885,7.327987485845362
211,2011-08-28,STORE_2_054,6.0,0,2,0.04699656267622357,0.10498850965391031,0.02555410447238816,0.07255066714861173,0.0835460514500749,0.07255066714861173,,0.02555410447238816,0.11495451570169905,3.491983944220559,27.0,5.939133563615428,5.0,0.0,27.0,0.037788560889399796,0.06126965673892268,0.09426991684184802,0.11595293779235923,0.17168214015062616,5.010132613309414,534.5220207253885,7.328861034626705
212,2011-08-29,STORE_2_054,12.0,0,2,0.06214790674884445,0.015151344072620879,0.07255066714861173,0.07255066714861173,0.13469857389745618,0.037788560889399796,,0.11495451570169905,0.01296497716436765,3.524888696987146,27.0,6.06135578583765,5.0,0.0,27.0,0.037788560889399796,0.06126965673892268,0.09426991684184802,0.12591472033721565,0.17168214015062616,5.022446000423659,545.5220207253885,7.329734583408047
213,2011-08-30,STORE_2_054,4.0,0,2,-0.08501078970834866,-0.1471586964571931,0.13469857389745618,0.0,0.213879819945081,0.09426991684184802,,0.0,0.09426991684184802,3.5114373440798325,27.0,6.016911341393206,5.0,0.0,27.0,0.037788560889399796,0.06126965673892268,0.09426991684184802,0.12591472033721565,0.17168214015062616,5.022796178511267,541.5220207253885,7.33060813218939
214,2011-08-31,STORE_2_054,8.0,0,2,0.0445821326527405,0.12959292236108916,0.04968778418910752,0.04968778418910752,0.14424389180368657,0.037788560889399796,,0.037788560889399796,0.04968778418910752,3.524888696987145,27.0,6.06135578583765,5.0,0.0,27.0,0.037788560889399796,0.06126965673892268,0.09426991684184802,0.12591472033721565,0.17168214015062616,5.022446000423659,545.5220207253885,7.331481680970732
215,2011-09-01,STORE_2_054,9.000000000000002,0,2,0.010465433678164965,-0.03411669897457553,0.09426991684184802,0.17168214015062616,0.17168214015062616,0.0835460514500749,,0.10473535052001298,0.09426991684184802,3.539456598221709,27.0,6.072466896948762,5.0,0.0,27.0,0.037788560889399796,0.06126965673892268,0.09426991684184802,0.12591472033721565,0.17168214015062616,5.02788623347856,546.5220207253885,7.332355229752075
216,2011-09-02,STORE_2_054,9.000000000000002,0,2,0.0,-0.010465433678164965,0.10473535052001298,0.07255066714861173,0.18905623622004886,0.0,,0.0835460514500749,0.11495451570169905,3.5248886969871447,27.0,6.06135578583765,5.0,0.0,27.0,0.037788560889399796,0.06126965673892268,0.09426991684184802,0.12591472033721565,0.17168214015062616,5.020208353948992,545.5220207253885,7.333228778533417
217,2011-09-03,STORE_2_054,8.0,0,2,-0.010465433678164965,-0.010465433678164965,0.10473535052001298,0.0,0.17168214015062616,0.0,,0.02555410447238816,0.10473535052001298,3.510320795752574,27.0,6.050244674726539,5.0,0.0,27.0,0.037788560889399796,0.06126965673892268,0.09426991684184802,0.12591472033721565,0.17168214015062616,5.0147348962370355,544.5220207253885,7.33410232731476
218,2011-09-04,STORE_2_054,9.000000000000002,0,2,0.010465433678164965,0.02093086735632993,0.09426991684184802,0.02555410447238816,0.15358391805782995,0.0,,0.07255066714861173,0.02555410447238816,3.5205622721166763,27.0,6.128022452504317,5.5,0.0,27.0,0.037788560889399796,0.0669101619437672,0.09426991684184802,0.12591472033721565,0.17168214015062616,5.005486328433763,551.5220207253885,7.334975876096102
219,2011-09-05,STORE_2_054,-8.881784197001252e-16,1,2,-0.10473535052001298,-0.11520078419817795,0.10473535052001298,0.11495451570169905,0.09426991684184802,0.037788560889399796,,0.13469857389745618,0.23736091579460386,3.347163692189598,27.0,5.861355785837651,5.0,0.0,27.0,0.037788560889399796,0.06126965673892268,0.09426991684184802,0.11595293779235923,0.15933492839450328,4.670768034561227,527.5220207253885,7.335849424877443
220,2011-09-06,STORE_2_054,7.0,0,2,0.0835460514500749,0.18828140197008789,0.0,0.0,0.2523380717642567,0.037788560889399796,,0.04968778418910752,0.04968778418910752,3.3391335636154276,27.0,5.894689119170984,5.5,0.0,27.0,0.037788560889399796,0.0669101619437672,0.09426991684184802,0.11595293779235923,0.15933492839450328,4.668039135757065,530.5220207253885,7.336722973658786
221,2011-09-07,STORE_2_054,22.000000000000007,0,2,0.13830269816628146,0.05475664671620656,0.0835460514500749,0.037788560889399796,0.18905623622004886,0.06126965673892268,,0.09426991684184802,0.09426991684184802,3.5092042474253167,27.0,6.050244674726539,5.5,0.0,27.0,0.037788560889399796,0.0669101619437672,0.09426991684184802,0.12591472033721565,0.17168214015062616,4.962933824559139,544.5220207253885,7.337596522440128
222,2011-09-08,STORE_2_054,8.0,0,2,-0.12757883277450835,-0.2658815309407898,0.22184874961635637,0.10473535052001298,0.07255066714861173,0.2057619297229015,,0.10473535052001298,0.04968778418910752,3.519939550949916,27.0,6.094689119170984,6.0,0.0,27.0,0.037788560889399796,0.07255066714861173,0.09426991684184802,0.12591472033721565,0.17168214015062616,4.962277528370999,548.5220207253885,7.3384700712214705
223,2011-09-09,STORE_2_054,7.0,0,2,-0.010723865391773113,0.11685496738273524,0.09426991684184802,0.0835460514500749,0.13469857389745618,0.09976454100612701,,0.10473535052001298,0.14424389180368657,3.4354951065054737,27.0,6.028022452504317,6.0,0.0,27.0,0.037788560889399796,0.07255066714861173,0.09426991684184802,0.11595293779235923,0.17168214015062616,4.9084768631526075,542.5220207253885,7.339343620002813
224,2011-09-10,STORE_2_054,11.0,0,2,0.04139268515822503,0.05211655054999814,0.0835460514500749,0.02555410447238816,0.19748940375691168,0.17168214015062616,,0.09426991684184802,0.07255066714861173,3.504008187807843,27.0,6.083578008059873,6.0,0.0,27.0,0.037788560889399796,0.07255066714861173,0.09426991684184802,0.12493873660829993,0.17168214015062616,4.936372585584804,547.5220207253885,7.3402171687841555
225,2011-09-11,STORE_2_054,13.999999999999998,0,2,0.028645181449530016,-0.012747503708695013,0.12493873660829993,0.07255066714861173,0.2057619297229015,0.2596373105057561,,0.10473535052001298,0.13469857389745618,3.5316625087954967,27.0,6.105800230282095,6.0,0.0,27.0,0.037788560889399796,0.07255066714861173,0.09426991684184802,0.12493873660829993,0.17168214015062616,4.9677082598052165,549.5220207253885,7.341090717565498
226,2011-09-12,STORE_2_054,7.0,0,2,-0.07003786660775504,-0.09868304805728506,0.15358391805782995,0.13469857389745618,0.1627272974976997,0.1804560644581313,,0.0,0.07255066714861173,3.542891639480588,27.0,6.116911341393206,6.0,0.0,27.0,0.037788560889399796,0.07255066714861173,0.09426991684184802,0.12493873660829993,0.17168214015062616,4.968587216944404,550.5220207253885,7.3419642663468405
227,2011-09-13,STORE_2_054,1.0,0,2,-0.07058107428570726,-0.0005432076779522121,0.0835460514500749,0.04968778418910752,0.09426991684184802,0.07255066714861173,,0.0835460514500749,0.0,3.5342496641719428,27.0,6.128022452504317,6.0,0.0,27.0,0.037788560889399796,0.07255066714861173,0.09426991684184802,0.12493873660829993,0.17168214015062616,4.955856269270267,551.5220207253885,7.342837815128183
228,2011-09-14,STORE_2_054,-8.881784197001252e-16,0,2,-0.01296497716436765,0.05761609712133961,0.01296497716436765,0.09426991684184802,0.09426991684184802,0.07255066714861173,,0.22184874961635637,0.07255066714861173,3.5861015160237955,27.0,6.06135578583765,5.5,0.0,27.0,0.037788560889399796,0.0669101619437672,0.09426991684184802,0.12493873660829993,0.17168214015062616,4.997776787326105,545.5220207253885,7.3437113639095255
229,2011-09-15,STORE_2_054,-8.881784197001252e-16,0,2,0.0,0.01296497716436765,0.0,0.10473535052001298,0.15358391805782995,0.0,,0.09426991684184802,0.0835460514500749,3.627657519350092,27.0,5.983578008059872,5.0,0.0,27.0,0.037788560889399796,0.06126965673892268,0.09426991684184802,0.12493873660829993,0.17168214015062616,5.037317278226883,538.5220207253885,7.344584912690868
230,2011-09-16,STORE_2_054,-8.881784197001252e-16,0,2,0.0,0.0,0.0,0.10473535052001298,0.213879819945081,0.04968778418910752,,0.0835460514500749,0.09426991684184802,3.667786413356363,27.0,5.894689119170984,5.0,0.0,27.0,0.037788560889399796,0.06126965673892268,0.09426991684184802,0.12493873660829993,0.17168214015062616,5.071801814209864,530.5220207253885,7.3454584614722105
231,2011-09-17,STORE_2_054,6.0,0,2,0.07255066714861173,0.07255066714861173,0.0,0.09426991684184802,0.07255066714861173,0.17168214015062616,,0.12493873660829993,0.04968778418910752,3.648398260090833,27.0,5.916911341393206,5.0,0.0,27.0,0.037788560889399796,0.06126965673892268,0.09426991684184802,0.12493873660829993,0.17168214015062616,5.067786846337678,532.5220207253885,7.346332010253553
232,2011-09-18,STORE_2_054,13.999999999999998,0,2,0.08103325090921822,0.008482583760606482,0.07255066714861173,0.10473535052001298,0.0835460514500749,0.07255066714861173,,0.15358391805782995,0.06126965673892268,3.732156335955992,27.0,6.016911341393206,5.5,0.0,27.0,0.037788560889399796,0.0669101619437672,0.09426991684184802,0.12591472033721565,0.17168214015062616,5.137803108013195,541.5220207253885,7.3472055590348955
233,2011-09-19,STORE_2_054,13.0,0,2,-0.009340026254143374,-0.09037327716336159,0.15358391805782995,0.0,0.12493873660829993,0.0,,0.0835460514500749,0.037788560889399796,3.8009163308386085,27.0,6.128022452504317,6.0,0.0,27.0,0.037788560889399796,0.07255066714861173,0.09839088496505727,0.1356531056880793,0.17168214015062616,5.1797851579977445,551.5220207253885,7.348079107816238
234,2011-09-20,STORE_2_054,4.0,0,2,-0.09455610761457905,-0.08521608136043568,0.14424389180368657,0.0835460514500749,0.04968778418910752,0.02555410447238816,,0.01296497716436765,0.07255066714861173,3.818200281455896,27.0,6.105800230282095,5.5,0.0,27.0,0.037788560889399796,0.0669101619437672,0.09839088496505727,0.1356531056880793,0.17168214015062616,5.184628486743117,549.5220207253885,7.3489526565975805
235,2011-09-21,STORE_2_054,9.000000000000002,0,2,0.05504756633090546,0.14960367394548452,0.04968778418910752,0.22184874961635637,0.17168214015062616,0.11495451570169905,,0.0,0.037788560889399796,3.8291824985607366,27.0,6.1724668969487615,6.0,0.0,27.0,0.037788560889399796,0.07255066714861173,0.1034926481415415,0.1356531056880793,0.17168214015062616,5.182819017092644,555.5220207253885,7.349826205378923
236,2011-09-22,STORE_2_054,6.0,0,2,-0.03218468337140125,-0.08723224970230671,0.10473535052001298,0.09426991684184802,0.22184874961635637,0.0,,0.0,0.0835460514500749,3.81943484935713,27.0,6.16135578583765,6.0,0.0,27.0,0.037788560889399796,0.07255066714861173,0.1034926481415415,0.1356531056880793,0.17168214015062616,5.182096856055614,554.5220207253885,7.350699754160265
237,2011-09-23,STORE_2_054,6.0,0,2,0.0,0.03218468337140125,0.07255066714861173,0.0835460514500749,0.13469857389745618,0.037788560889399796,,0.0,0.02555410447238816,3.784866948122562,27.0,6.205800230282095,6.0,0.0,27.0,0.037788560889399796,0.07255066714861173,0.1034926481415415,0.1356531056880793,0.17168214015062616,5.163124165721731,558.5220207253885,7.351573302941608
238,2011-09-24,STORE_2_054,4.0,0,2,-0.022862882959504213,-0.022862882959504213,0.07255066714861173,0.12493873660829993,0.07255066714861173,0.10473535052001298,,0.07255066714861173,0.04968778418910752,3.784866948122562,27.0,6.205800230282095,6.0,0.0,27.0,0.037788560889399796,0.07255066714861173,0.1034926481415415,0.1356531056880793,0.17168214015062616,5.163124165721731,558.5220207253885,7.35244685172295
239,2011-09-25,STORE_2_054,6.0,0,2,0.022862882959504213,0.045725765919008426,0.04968778418910752,0.15358391805782995,0.04968778418910752,0.0835460514500749,,0.15358391805782995,0.11495451570169905,3.734131644597967,27.0,6.16135578583765,6.0,0.0,27.0,0.037788560889399796,0.07255066714861173,0.09839088496505727,0.1356531056880793,0.17168214015062616,5.147288340839644,554.5220207253885,7.353320400504291
240,2011-09-26,STORE_2_054,6.0,0,2,0.0,-0.022862882959504213,0.07255066714861173,0.0835460514500749,0.04968778418910752,0.02555410447238816,,0.14424389180368657,0.04968778418910752,3.717341521141179,27.0,6.183578008059873,6.0,0.0,27.0,0.037788560889399796,0.07255066714861173,0.09839088496505727,0.1356531056880793,0.17168214015062616,5.142167064799416,556.5220207253885,7.354193949285634
241,2011-09-27,STORE_2_054,8.0,0,2,0.021719249693236284,0.021719249693236284,0.07255066714861173,0.01296497716436765,0.12493873660829993,0.07255066714861173,,0.04968778418910752,0.04968778418910752,3.723138553060833,27.0,6.228022452504317,6.0,0.0,27.0,0.037788560889399796,0.07255066714861173,0.09839088496505727,0.1356531056880793,0.17168214015062616,5.140368004842047,560.5220207253885,7.355067498066976
242,2011-09-28,STORE_2_054,1.0,0,2,-0.08130493967748037,-0.10302418937071665,0.09426991684184802,0.0,0.14424389180368657,0.13469857389745618,,0.10473535052001298,0.037788560889399796,3.7404225036781176,27.0,6.205800230282095,6.0,0.0,27.0,0.037788560889399796,0.07255066714861173,0.09839088496505727,0.1356531056880793,0.17168214015062616,5.158769943546136,558.5220207253885,7.355941046848319
243,2011-09-29,STORE_2_054,1.0,0,2,0.0,0.08130493967748037,0.01296497716436765,0.0,0.12493873660829993,0.04968778418910752,,0.07255066714861173,0.09426991684184802,3.759316829783148,27.0,6.128022452504317,6.0,0.0,27.0,0.037788560889399796,0.07255066714861173,0.09839088496505727,0.1356531056880793,0.17168214015062616,5.1841217292072175,551.5220207253885,7.356814595629661
244,2011-09-30,STORE_2_054,10.0,0,2,0.1019895385373314,0.1019895385373314,0.01296497716436765,0.0,0.17168214015062616,0.09426991684184802,,0.07255066714861173,0.11495451570169905,3.759316829783148,27.0,6.128022452504317,6.0,0.0,27.0,0.037788560889399796,0.07255066714861173,0.09839088496505727,0.1356531056880793,0.17168214015062616,5.1841217292072175,551.5220207253885,7.357688144411004
245,2011-10-01,STORE_2_054,9.000000000000002,0,2,-0.010219165181686071,-0.11220870371901748,0.11495451570169905,0.07255066714861173,0.14424389180368657,0.10473535052001298,,0.04968778418910752,0.06126965673892268,3.7885706518262654,27.0,6.1724668969487615,6.0,0.0,27.0,0.037788560889399796,0.07255066714861173,0.1034926481415415,0.1356531056880793,0.17168214015062616,5.19148346856528,555.5220207253885,7.358561693192346
246,2011-10-02,STORE_2_054,9.000000000000002,0,2,0.0,0.010219165181686071,0.10473535052001298,0.15358391805782995,0.15358391805782995,0.10473535052001298,,0.07255066714861173,0.04968778418910752,3.806960276338515,27.0,6.228022452504317,6.0,0.0,27.0,0.037788560889399796,0.07255066714861173,0.10473535052001298,0.1356531056880793,0.17168214015062616,5.194726265936714,560.5220207253885,7.359435241973689
247,2011-10-03,STORE_2_054,19.000000000000004,0,2,0.0927540532368987,0.0927540532368987,0.10473535052001298,0.14424389180368657,0.19748940375691168,0.09426991684184802,,0.07255066714861173,0.04968778418910752,3.9537449625791634,27.0,6.394689119170984,6.0,0.0,27.0,0.037788560889399796,0.07255066714861173,0.10473535052001298,0.14517789442910098,0.17650779851975396,5.360425559020284,575.5220207253885,7.360308790755031
248,2011-10-04,STORE_2_054,13.999999999999998,0,2,-0.04390548569908173,-0.13665953893598043,0.19748940375691168,0.04968778418910752,0.1627272974976997,0.10473535052001298,,0.09426991684184802,0.09426991684184802,4.032263481097681,27.0,6.46135578583765,6.0,0.0,27.0,0.037788560889399796,0.07255066714861173,0.10473535052001298,0.15358391805782995,0.17650779851975396,5.4176201956852035,581.5220207253885,7.361182339536374
249,2011-10-05,STORE_2_054,10.0,0,2,-0.038629402356130896,0.005276083342950835,0.15358391805782995,0.10473535052001298,0.14424389180368657,0.0,,0.01296497716436765,0.12493873660829993,4.019177061344594,27.0,6.450244674726539,6.0,0.0,27.0,0.037788560889399796,0.07255066714861173,0.10473535052001298,0.15358391805782995,0.17650779851975396,5.409226163786706,580.5220207253885,7.362055888317716
250,2011-10-06,STORE_2_054,13.0,0,2,0.02928937610198752,0.06791877845811842,0.11495451570169905,0.07255066714861173,0.22967408712831291,0.0835460514500749,,0.01296497716436765,0.07255066714861173,4.099048167338326,27.0,6.528022452504317,6.0,0.0,27.0,0.037788560889399796,0.07255066714861173,0.10473535052001298,0.15358391805782995,0.17650779851975396,5.452829277579296,587.5220207253885,7.362929437099059
251,2011-10-07,STORE_2_054,13.0,0,2,0.0,-0.02928937610198752,0.14424389180368657,0.07255066714861173,0.11495451570169905,0.22184874961635637,,0.11495451570169905,0.06126965673892268,4.165832853578975,27.0,6.616911341393206,6.0,0.0,27.0,0.037788560889399796,0.07255066714861173,0.10473535052001298,0.15358391805782995,0.17650779851975396,5.492700390146754,595.5220207253885,7.363802985880401
252,2011-10-08,STORE_2_054,13.999999999999998,0,2,0.009340026254143374,0.009340026254143374,0.14424389180368657,0.04968778418910752,0.1627272974976997,0.09426991684184802,,0.10473535052001298,0.10473535052001298,4.228795816541933,27.0,6.6724668969487615,6.0,0.0,27.0,0.037788560889399796,0.07255066714861173,0.10473535052001298,0.15358391805782995,0.17650779851975396,5.54213840717877,600.5220207253885,7.3646765346617435
253,2011-10-09,STORE_2_054,8.0,0,2,-0.05931400121598193,-0.0686540274701253,0.15358391805782995,0.07255066714861173,0.0835460514500749,0.0835460514500749,,0.10473535052001298,0.10473535052001298,4.216203223949339,27.0,6.66135578583765,6.0,0.0,27.0,0.037788560889399796,0.07255066714861173,0.10473535052001298,0.15358391805782995,0.17650779851975396,5.538420814705384,599.5220207253885,7.365550083443086
254,2011-10-10,STORE_2_054,19.000000000000004,1,2,0.10321948691506366,0.1625334881310456,0.09426991684184802,0.07255066714861173,0.17168214015062616,0.12493873660829993,,0.19748940375691168,0.037788560889399796,4.332370626239362,27.0,6.8391335636154285,6.0,0.0,27.0,0.037788560889399796,0.07255066714861173,0.10473535052001298,0.15358391805782995,0.18982440107246046,5.674690038712857,615.5220207253885,7.3664236322244285
255,2011-10-11,STORE_2_054,17.0,0,2,-0.01703333929878037,-0.12025282621384403,0.19748940375691168,0.09426991684184802,0.06126965673892268,0.15358391805782995,,0.15358391805782995,0.037788560889399796,4.416439263097292,27.0,6.994689119170985,6.0,0.0,27.0,0.037788560889399796,0.07255066714861173,0.10473535052001298,0.15539374026710973,0.18982440107246046,5.759519729311809,629.5220207253886,7.367297181005771
256,2011-10-12,STORE_2_054,5.0,0,2,-0.11918640771920863,-0.10215306842042826,0.1804560644581313,0.01296497716436765,0.12493873660829993,0.0835460514500749,,0.11495451570169905,0.07255066714861173,4.426562719887413,27.0,6.983578008059874,6.0,0.0,27.0,0.037788560889399796,0.07255066714861173,0.10473535052001298,0.15539374026710973,0.18982440107246046,5.762424072204238,628.5220207253886,7.3681707297871135
257,2011-10-13,STORE_2_054,8.0,0,2,0.03300026010292534,0.15218666782213397,0.06126965673892268,0.01296497716436765,0.10473535052001298,0.01296497716436765,,0.14424389180368657,0.06126965673892268,4.419917802085333,27.0,7.016911341393207,6.0,0.0,27.0,0.037788560889399796,0.07255066714861173,0.10473535052001298,0.15539374026710973,0.18982440107246046,5.7594970985169285,631.5220207253886,7.369044278568456
258,2011-10-14,STORE_2_054,3.0000000000000004,0,2,-0.05648135595244822,-0.08948161605537355,0.09426991684184802,0.11495451570169905,0.10473535052001298,0.0,,0.14424389180368657,0.04968778418910752,4.429053604554467,27.0,7.005800230282096,6.0,0.0,27.0,0.037788560889399796,0.07255066714861173,0.10473535052001298,0.15539374026710973,0.18982440107246046,5.766343182591267,630.5220207253886,7.3699178273497985
259,2011-10-15,STORE_2_054,9.000000000000002,0,2,0.06694678963061318,0.1234281455830614,0.037788560889399796,0.10473535052001298,0.13469857389745618,0.0,,0.15358391805782995,0.07255066714861173,4.445221006844499,27.0,7.0391335636154295,6.0,0.0,27.0,0.037788560889399796,0.07255066714861173,0.10473535052001298,0.15539374026710973,0.18982440107246046,5.769133985471227,633.5220207253886,7.370791376131139
260,2011-10-16,STORE_2_054,13.0,0,2,0.03950854128367359,-0.027438248346939587,0.10473535052001298,0.10473535052001298,0.07255066714861173,0.0,,0.09426991684184802,0.037788560889399796,4.481388409134523,27.0,7.15024467472654,6.0,0.0,27.0,0.037788560889399796,0.07255066714861173,0.11239972440627753,0.15539374026710973,0.18982440107246046,5.786738942590755,643.5220207253886,7.371664924912482
261,2011-10-17,STORE_2_054,8.0,0,2,-0.04997397496183856,-0.08948251624551215,0.14424389180368657,0.19748940375691168,0.09426991684184802,0.07255066714861173,,0.19748940375691168,0.0,4.421259515128256,27.0,7.23913356361543,6.5,0.0,27.0,0.037788560889399796,0.07804835929934331,0.11239972440627753,0.15539374026710973,0.18982440107246046,5.736899986570522,651.5220207253886,7.372538473693824
262,2011-10-18,STORE_2_054,9.000000000000002,0,2,0.010465433678164965,0.06043940864000352,0.09426991684184802,0.15358391805782995,0.0835460514500749,0.15358391805782995,,0.1804560644581313,0.0,4.369278769270131,27.0,7.339133563615429,7.0,0.0,27.0,0.037788560889399796,0.0835460514500749,0.11239972440627753,0.15539374026710973,0.18982440107246046,5.6875238045494365,660.5220207253886,7.373412022475167
263,2011-10-19,STORE_2_054,7.0,0,2,-0.021189299069938078,-0.03165473274810304,0.10473535052001298,0.11495451570169905,0.04968778418910752,0.14424389180368657,,0.06126965673892268,0.0,4.298414571739267,27.0,7.416911341393207,7.0,0.0,27.0,0.037788560889399796,0.0835460514500749,0.11239972440627753,0.15539374026710973,0.18982440107246046,5.633640121941742,667.5220207253886,7.374285571256509
264,2011-10-20,STORE_2_054,3.0000000000000004,0,2,-0.04575749056067511,-0.02456819149073703,0.0835460514500749,0.14424389180368657,0.10473535052001298,0.04968778418910752,,0.09426991684184802,0.07255066714861173,4.328784942109642,27.0,7.383578008059874,7.0,0.0,27.0,0.037788560889399796,0.0835460514500749,0.11239972440627753,0.15539374026710973,0.18982440107246046,5.6509665665667015,664.5220207253886,7.375159120037852
265,2011-10-21,STORE_2_054,6.0,0,2,0.03476210625921194,0.08051959681988705,0.037788560889399796,0.14424389180368657,0.037788560889399796,0.10473535052001298,,0.037788560889399796,0.11495451570169905,4.31014840401714,27.0,7.339133563615429,7.0,0.0,27.0,0.037788560889399796,0.0835460514500749,0.10473535052001298,0.15539374026710973,0.18982440107246046,5.645884954102142,660.5220207253886,7.376032668819194
266,2011-10-22,STORE_2_054,8.0,0,2,0.021719249693236284,-0.013042856565975654,0.07255066714861173,0.15358391805782995,0.02555410447238816,0.07255066714861173,,0.10473535052001298,0.037788560889399796,4.274217040875075,27.0,7.394689119170985,7.0,0.0,27.0,0.037788560889399796,0.0835460514500749,0.10473535052001298,0.15539374026710973,0.18982440107246046,5.6272774585672645,665.5220207253886,7.376906217600537
267,2011-10-23,STORE_2_054,10.0,0,2,0.020684598859851036,-0.0010346508333852478,0.09426991684184802,0.09426991684184802,0.04968778418910752,0.07255066714861173,,0.14424389180368657,0.0,4.228409134523123,27.0,7.505800230282096,7.0,0.0,27.0,0.037788560889399796,0.0835460514500749,0.11239972440627753,0.15539374026710973,0.18982440107246046,5.5781390099980355,675.5220207253886,7.377779766381879
268,2011-10-24,STORE_2_054,8.0,0,2,-0.020684598859851036,-0.04136919771970207,0.11495451570169905,0.19748940375691168,0.037788560889399796,0.04968778418910752,,0.09426991684184802,0.0,4.154453080023029,27.0,7.594689119170985,7.0,0.0,27.0,0.040763366714326725,0.0835460514500749,0.11239972440627753,0.15539374026710973,0.18982440107246046,5.520632987366859,683.5220207253886,7.378653315163222
269,2011-10-25,STORE_2_054,5.0,0,2,-0.03300026010292534,-0.012315661243074302,0.09426991684184802,0.1804560644581313,0.10473535052001298,0.07255066714861173,,0.10473535052001298,0.06126965673892268,4.15445308002303,27.0,7.594689119170985,7.0,0.0,27.0,0.040763366714326725,0.0835460514500749,0.11239972440627753,0.15539374026710973,0.18982440107246046,5.520632987366859,683.5220207253886,7.379526863944564
