soundwave-77/time-series-mts-hse/models/STORE_2_325/train_data.csv
index,timestamp,segment,target,holiday,target_change_points,target_diff_1,target_diff_2,target_lag_1,target_lag_14,target_lag_180,target_lag_30,target_lag_365,target_lag_7,target_lag_90,target_mad,target_max,target_mean,target_median,target_min,target_minmax_diff,target_q_0.25,target_q_0.50,target_q_0.75,target_q_0.90,target_q_0.95,target_std,target_sum,target_trend
0,2011-01-29,STORE_2_325,0.0,0,0,,,,,,,,,,0.0,0.0,0.0,0.0,0.0,0.0,0.0,0.0,0.0,0.0,0.0,0.0,0.0,-0.43391951135411944
1,2011-01-30,STORE_2_325,0.0,0,0,0.0,,0.0,,,,,,,0.0,0.0,0.0,0.0,0.0,0.0,0.0,0.0,0.0,0.0,0.0,0.0,0.0,-0.4272917590266445
2,2011-01-31,STORE_2_325,0.0,0,0,0.0,0.0,0.0,,,,,,,0.0,0.0,0.0,0.0,0.0,0.0,0.0,0.0,0.0,0.0,0.0,0.0,0.0,-0.4206640066991696
3,2011-02-01,STORE_2_325,0.0,0,0,0.0,0.0,0.0,,,,,,,0.0,0.0,0.0,0.0,0.0,0.0,0.0,0.0,0.0,0.0,0.0,0.0,0.0,-0.4140362543717089
4,2011-02-02,STORE_2_325,0.0,0,0,0.0,0.0,0.0,,,,,,,0.0,0.0,0.0,0.0,0.0,0.0,0.0,0.0,0.0,0.0,0.0,0.0,0.0,-0.40740850204423396
5,2011-02-03,STORE_2_325,0.0,0,0,0.0,0.0,0.0,,,,,,,0.0,0.0,0.0,0.0,0.0,0.0,0.0,0.0,0.0,0.0,0.0,0.0,0.0,-0.40078074971675903
6,2011-02-04,STORE_2_325,0.0,0,0,0.0,0.0,0.0,,,,,,,0.0,0.0,0.0,0.0,0.0,0.0,0.0,0.0,0.0,0.0,0.0,0.0,0.0,-0.3941529973892841
7,2011-02-05,STORE_2_325,0.0,0,0,0.0,0.0,0.0,,,,,0.0,,0.0,0.0,0.0,0.0,0.0,0.0,0.0,0.0,0.0,0.0,0.0,0.0,0.0,-0.3875252450618234
8,2011-02-06,STORE_2_325,0.0,0,0,0.0,0.0,0.0,,,,,0.0,,0.0,0.0,0.0,0.0,0.0,0.0,0.0,0.0,0.0,0.0,0.0,0.0,0.0,-0.3808974927343485
9,2011-02-07,STORE_2_325,0.0,0,0,0.0,0.0,0.0,,,,,0.0,,0.0,0.0,0.0,0.0,0.0,0.0,0.0,0.0,0.0,0.0,0.0,0.0,0.0,-0.37426974040687355
10,2011-02-08,STORE_2_325,0.0,0,0,0.0,0.0,0.0,,,,,0.0,,0.0,0.0,0.0,0.0,0.0,0.0,0.0,0.0,0.0,0.0,0.0,0.0,0.0,-0.36764198807939863
11,2011-02-09,STORE_2_325,0.0,0,0,0.0,0.0,0.0,,,,,0.0,,0.0,0.0,0.0,0.0,0.0,0.0,0.0,0.0,0.0,0.0,0.0,0.0,0.0,-0.3610142357519237
12,2011-02-10,STORE_2_325,0.0,0,0,0.0,0.0,0.0,,,,,0.0,,0.0,0.0,0.0,0.0,0.0,0.0,0.0,0.0,0.0,0.0,0.0,0.0,0.0,-0.354386483424463
13,2011-02-11,STORE_2_325,0.0,0,0,0.0,0.0,0.0,,,,,0.0,,0.0,0.0,0.0,0.0,0.0,0.0,0.0,0.0,0.0,0.0,0.0,0.0,0.0,-0.34775873109698807
14,2011-02-12,STORE_2_325,0.0,0,0,0.0,0.0,0.0,0.0,,,,0.0,,0.0,0.0,0.0,0.0,0.0,0.0,0.0,0.0,0.0,0.0,0.0,0.0,0.0,-0.34113097876951315
15,2011-02-13,STORE_2_325,0.0,0,0,0.0,0.0,0.0,0.0,,,,0.0,,0.0,0.0,0.0,0.0,0.0,0.0,0.0,0.0,0.0,0.0,0.0,0.0,0.0,-0.3345032264420382
16,2011-02-14,STORE_2_325,0.0,0,0,0.0,0.0,0.0,0.0,,,,0.0,,0.0,0.0,0.0,0.0,0.0,0.0,0.0,0.0,0.0,0.0,0.0,0.0,0.0,-0.3278754741145775
17,2011-02-15,STORE_2_325,0.0,0,0,0.0,0.0,0.0,0.0,,,,0.0,,0.0,0.0,0.0,0.0,0.0,0.0,0.0,0.0,0.0,0.0,0.0,0.0,0.0,-0.3212477217871026
18,2011-02-16,STORE_2_325,0.0,0,0,0.0,0.0,0.0,0.0,,,,0.0,,0.0,0.0,0.0,0.0,0.0,0.0,0.0,0.0,0.0,0.0,0.0,0.0,0.0,-0.31461996945962767
19,2011-02-17,STORE_2_325,0.0,0,0,0.0,0.0,0.0,0.0,,,,0.0,,0.0,0.0,0.0,0.0,0.0,0.0,0.0,0.0,0.0,0.0,0.0,0.0,0.0,-0.30799221713215275
20,2011-02-18,STORE_2_325,0.0,0,0,0.0,0.0,0.0,0.0,,,,0.0,,0.0,0.0,0.0,0.0,0.0,0.0,0.0,0.0,0.0,0.0,0.0,0.0,0.0,-0.30136446480469203
21,2011-02-19,STORE_2_325,0.0,0,0,0.0,0.0,0.0,0.0,,,,0.0,,0.0,0.0,0.0,0.0,0.0,0.0,0.0,0.0,0.0,0.0,0.0,0.0,0.0,-0.2947367124772171
22,2011-02-20,STORE_2_325,0.0,0,0,0.0,0.0,0.0,0.0,,,,0.0,,0.0,0.0,0.0,0.0,0.0,0.0,0.0,0.0,0.0,0.0,0.0,0.0,0.0,-0.2881089601497422
23,2011-02-21,STORE_2_325,0.0,1,0,0.0,0.0,0.0,0.0,,,,0.0,,0.0,0.0,0.0,0.0,0.0,0.0,0.0,0.0,0.0,0.0,0.0,0.0,0.0,-0.28148120782226727
24,2011-02-22,STORE_2_325,0.0,0,0,0.0,0.0,0.0,0.0,,,,0.0,,0.0,0.0,0.0,0.0,0.0,0.0,0.0,0.0,0.0,0.0,0.0,0.0,0.0,-0.27485345549480655
25,2011-02-23,STORE_2_325,0.0,0,0,0.0,0.0,0.0,0.0,,,,0.0,,0.0,0.0,0.0,0.0,0.0,0.0,0.0,0.0,0.0,0.0,0.0,0.0,0.0,-0.26822570316733163
26,2011-02-24,STORE_2_325,0.0,0,0,0.0,0.0,0.0,0.0,,,,0.0,,0.0,0.0,0.0,0.0,0.0,0.0,0.0,0.0,0.0,0.0,0.0,0.0,0.0,-0.2615979508398567
27,2011-02-25,STORE_2_325,0.0,0,0,0.0,0.0,0.0,0.0,,,,0.0,,0.0,0.0,0.0,0.0,0.0,0.0,0.0,0.0,0.0,0.0,0.0,0.0,0.0,-0.2549701985123818
28,2011-02-26,STORE_2_325,0.0,0,0,0.0,0.0,0.0,0.0,,,,0.0,,0.0,0.0,0.0,0.0,0.0,0.0,0.0,0.0,0.0,0.0,0.0,0.0,0.0,-0.24834244618492107
29,2011-02-27,STORE_2_325,0.0,0,0,0.0,0.0,0.0,0.0,,,,0.0,,0.0,0.0,0.0,0.0,0.0,0.0,0.0,0.0,0.0,0.0,0.0,0.0,0.0,-0.24171469385744615
30,2011-02-28,STORE_2_325,0.0,0,0,0.0,0.0,0.0,0.0,,0.0,,0.0,,0.0,0.0,0.0,0.0,0.0,0.0,0.0,0.0,0.0,0.0,0.0,0.0,0.0,-0.23508694152997123
31,2011-03-01,STORE_2_325,0.0,0,0,0.0,0.0,0.0,0.0,,0.0,,0.0,,0.0,0.0,0.0,0.0,0.0,0.0,0.0,0.0,0.0,0.0,0.0,0.0,0.0,-0.2284591892024963
32,2011-03-02,STORE_2_325,0.0,0,0,0.0,0.0,0.0,0.0,,0.0,,0.0,,0.0,0.0,0.0,0.0,0.0,0.0,0.0,0.0,0.0,0.0,0.0,0.0,0.0,-0.22183143687502138
33,2011-03-03,STORE_2_325,0.0,0,0,0.0,0.0,0.0,0.0,,0.0,,0.0,,0.0,0.0,0.0,0.0,0.0,0.0,0.0,0.0,0.0,0.0,0.0,0.0,0.0,-0.21520368454756067
34,2011-03-04,STORE_2_325,0.0,0,0,0.0,0.0,0.0,0.0,,0.0,,0.0,,0.0,0.0,0.0,0.0,0.0,0.0,0.0,0.0,0.0,0.0,0.0,0.0,0.0,-0.20857593222008575
35,2011-03-05,STORE_2_325,0.0,0,0,0.0,0.0,0.0,0.0,,0.0,,0.0,,0.0,0.0,0.0,0.0,0.0,0.0,0.0,0.0,0.0,0.0,0.0,0.0,0.0,-0.20194817989261082
36,2011-03-06,STORE_2_325,0.0,0,0,0.0,0.0,0.0,0.0,,0.0,,0.0,,0.0,0.0,0.0,0.0,0.0,0.0,0.0,0.0,0.0,0.0,0.0,0.0,0.0,-0.1953204275651359
37,2011-03-07,STORE_2_325,0.0,0,0,0.0,0.0,0.0,0.0,,0.0,,0.0,,0.0,0.0,0.0,0.0,0.0,0.0,0.0,0.0,0.0,0.0,0.0,0.0,0.0,-0.1886926752376752
38,2011-03-08,STORE_2_325,0.0,0,0,0.0,0.0,0.0,0.0,,0.0,,0.0,,0.0,0.0,0.0,0.0,0.0,0.0,0.0,0.0,0.0,0.0,0.0,0.0,0.0,-0.18206492291020027
39,2011-03-09,STORE_2_325,0.0,0,0,0.0,0.0,0.0,0.0,,0.0,,0.0,,0.0,0.0,0.0,0.0,0.0,0.0,0.0,0.0,0.0,0.0,0.0,0.0,0.0,-0.17543717058272534
40,2011-03-10,STORE_2_325,0.0,0,0,0.0,0.0,0.0,0.0,,0.0,,0.0,,0.0,0.0,0.0,0.0,0.0,0.0,0.0,0.0,0.0,0.0,0.0,0.0,0.0,-0.16880941825525042
41,2011-03-11,STORE_2_325,0.0,0,0,0.0,0.0,0.0,0.0,,0.0,,0.0,,0.0,0.0,0.0,0.0,0.0,0.0,0.0,0.0,0.0,0.0,0.0,0.0,0.0,-0.1621816659277897
42,2011-03-12,STORE_2_325,0.0,0,0,0.0,0.0,0.0,0.0,,0.0,,0.0,,0.0,0.0,0.0,0.0,0.0,0.0,0.0,0.0,0.0,0.0,0.0,0.0,0.0,-0.15555391360031479
43,2011-03-13,STORE_2_325,0.0,0,0,0.0,0.0,0.0,0.0,,0.0,,0.0,,0.0,0.0,0.0,0.0,0.0,0.0,0.0,0.0,0.0,0.0,0.0,0.0,0.0,-0.14892616127283986
44,2011-03-14,STORE_2_325,0.0,0,0,0.0,0.0,0.0,0.0,,0.0,,0.0,,0.0,0.0,0.0,0.0,0.0,0.0,0.0,0.0,0.0,0.0,0.0,0.0,0.0,-0.14229840894536494
45,2011-03-15,STORE_2_325,0.0,0,0,0.0,0.0,0.0,0.0,,0.0,,0.0,,0.0,0.0,0.0,0.0,0.0,0.0,0.0,0.0,0.0,0.0,0.0,0.0,0.0,-0.13567065661790423
46,2011-03-16,STORE_2_325,0.0,0,0,0.0,0.0,0.0,0.0,,0.0,,0.0,,0.0,0.0,0.0,0.0,0.0,0.0,0.0,0.0,0.0,0.0,0.0,0.0,0.0,-0.1290429042904293
47,2011-03-17,STORE_2_325,0.0,0,0,0.0,0.0,0.0,0.0,,0.0,,0.0,,0.0,0.0,0.0,0.0,0.0,0.0,0.0,0.0,0.0,0.0,0.0,0.0,0.0,-0.12241515196295438
48,2011-03-18,STORE_2_325,0.0,0,0,0.0,0.0,0.0,0.0,,0.0,,0.0,,0.0,0.0,0.0,0.0,0.0,0.0,0.0,0.0,0.0,0.0,0.0,0.0,0.0,-0.11578739963547946
49,2011-03-19,STORE_2_325,0.0,0,0,0.0,0.0,0.0,0.0,,0.0,,0.0,,0.0,0.0,0.0,0.0,0.0,0.0,0.0,0.0,0.0,0.0,0.0,0.0,0.0,-0.10915964730800454
50,2011-03-20,STORE_2_325,0.0,0,0,0.0,0.0,0.0,0.0,,0.0,,0.0,,0.0,0.0,0.0,0.0,0.0,0.0,0.0,0.0,0.0,0.0,0.0,0.0,0.0,-0.10253189498054383
51,2011-03-21,STORE_2_325,0.0,0,0,0.0,0.0,0.0,0.0,,0.0,,0.0,,0.0,0.0,0.0,0.0,0.0,0.0,0.0,0.0,0.0,0.0,0.0,0.0,0.0,-0.0959041426530689
52,2011-03-22,STORE_2_325,0.0,0,0,0.0,0.0,0.0,0.0,,0.0,,0.0,,0.0,0.0,0.0,0.0,0.0,0.0,0.0,0.0,0.0,0.0,0.0,0.0,0.0,-0.08927639032559398
53,2011-03-23,STORE_2_325,0.0,0,0,0.0,0.0,0.0,0.0,,0.0,,0.0,,0.0,0.0,0.0,0.0,0.0,0.0,0.0,0.0,0.0,0.0,0.0,0.0,0.0,-0.08264863799811906
54,2011-03-24,STORE_2_325,0.0,0,0,0.0,0.0,0.0,0.0,,0.0,,0.0,,0.0,0.0,0.0,0.0,0.0,0.0,0.0,0.0,0.0,0.0,0.0,0.0,0.0,-0.07602088567065834
55,2011-03-25,STORE_2_325,0.0,0,0,0.0,0.0,0.0,0.0,,0.0,,0.0,,0.0,0.0,0.0,0.0,0.0,0.0,0.0,0.0,0.0,0.0,0.0,0.0,0.0,-0.06939313334318342
56,2011-03-26,STORE_2_325,0.0,0,0,0.0,0.0,0.0,0.0,,0.0,,0.0,,0.0,0.0,0.0,0.0,0.0,0.0,0.0,0.0,0.0,0.0,0.0,0.0,0.0,-0.0627653810157085
57,2011-03-27,STORE_2_325,0.0,0,0,0.0,0.0,0.0,0.0,,0.0,,0.0,,0.0,0.0,0.0,0.0,0.0,0.0,0.0,0.0,0.0,0.0,0.0,0.0,0.0,-0.056137628688233576
58,2011-03-28,STORE_2_325,0.0,0,0,0.0,0.0,0.0,0.0,,0.0,,0.0,,0.0,0.0,0.0,0.0,0.0,0.0,0.0,0.0,0.0,0.0,0.0,0.0,0.0,-0.049509876360772864
59,2011-03-29,STORE_2_325,0.0,0,0,0.0,0.0,0.0,0.0,,0.0,,0.0,,0.0,0.0,0.0,0.0,0.0,0.0,0.0,0.0,0.0,0.0,0.0,0.0,0.0,-0.04288212403329794
60,2011-03-30,STORE_2_325,0.0,0,0,0.0,0.0,0.0,0.0,,0.0,,0.0,,0.0,0.0,0.0,0.0,0.0,0.0,0.0,0.0,0.0,0.0,0.0,0.0,0.0,-0.03625437170582302
61,2011-03-31,STORE_2_325,0.0,0,0,0.0,0.0,0.0,0.0,,0.0,,0.0,,0.0,0.0,0.0,0.0,0.0,0.0,0.0,0.0,0.0,0.0,0.0,0.0,0.0,-0.029626619378348096
62,2011-04-01,STORE_2_325,0.0,0,0,0.0,0.0,0.0,0.0,,0.0,,0.0,,0.0,0.0,0.0,0.0,0.0,0.0,0.0,0.0,0.0,0.0,0.0,0.0,0.0,-0.022998867050887384
63,2011-04-02,STORE_2_325,0.0,0,0,0.0,0.0,0.0,0.0,,0.0,,0.0,,0.0,0.0,0.0,0.0,0.0,0.0,0.0,0.0,0.0,0.0,0.0,0.0,0.0,-0.01637111472341246
64,2011-04-03,STORE_2_325,0.0,0,0,0.0,0.0,0.0,0.0,,0.0,,0.0,,0.0,0.0,0.0,0.0,0.0,0.0,0.0,0.0,0.0,0.0,0.0,0.0,0.0,-0.009743362395937538
65,2011-04-04,STORE_2_325,0.0,0,0,0.0,0.0,0.0,0.0,,0.0,,0.0,,0.0,0.0,0.0,0.0,0.0,0.0,0.0,0.0,0.0,0.0,0.0,0.0,0.0,-0.0031156100684626153
66,2011-04-05,STORE_2_325,0.0,0,0,0.0,0.0,0.0,0.0,,0.0,,0.0,,0.0,0.0,0.0,0.0,0.0,0.0,0.0,0.0,0.0,0.0,0.0,0.0,0.0,0.0035121422589980966
67,2011-04-06,STORE_2_325,0.0,0,0,0.0,0.0,0.0,0.0,,0.0,,0.0,,0.0,0.0,0.0,0.0,0.0,0.0,0.0,0.0,0.0,0.0,0.0,0.0,0.0,0.01013989458647302
68,2011-04-07,STORE_2_325,0.0,0,0,0.0,0.0,0.0,0.0,,0.0,,0.0,,0.0,0.0,0.0,0.0,0.0,0.0,0.0,0.0,0.0,0.0,0.0,0.0,0.0,0.016767646913947942
69,2011-04-08,STORE_2_325,0.0,0,0,0.0,0.0,0.0,0.0,,0.0,,0.0,,0.0,0.0,0.0,0.0,0.0,0.0,0.0,0.0,0.0,0.0,0.0,0.0,0.0,0.023395399241422865
70,2011-04-09,STORE_2_325,0.0,0,0,0.0,0.0,0.0,0.0,,0.0,,0.0,,0.0,0.0,0.0,0.0,0.0,0.0,0.0,0.0,0.0,0.0,0.0,0.0,0.0,0.030023151568897788
71,2011-04-10,STORE_2_325,0.0,0,0,0.0,0.0,0.0,0.0,,0.0,,0.0,,0.0,0.0,0.0,0.0,0.0,0.0,0.0,0.0,0.0,0.0,0.0,0.0,0.0,0.0366509038963585
72,2011-04-11,STORE_2_325,0.0,0,0,0.0,0.0,0.0,0.0,,0.0,,0.0,,0.0,0.0,0.0,0.0,0.0,0.0,0.0,0.0,0.0,0.0,0.0,0.0,0.0,0.04327865622383342
73,2011-04-12,STORE_2_325,0.0,0,0,0.0,0.0,0.0,0.0,,0.0,,0.0,,0.0,0.0,0.0,0.0,0.0,0.0,0.0,0.0,0.0,0.0,0.0,0.0,0.0,0.049906408551308346
74,2011-04-13,STORE_2_325,0.0,0,0,0.0,0.0,0.0,0.0,,0.0,,0.0,,0.0,0.0,0.0,0.0,0.0,0.0,0.0,0.0,0.0,0.0,0.0,0.0,0.0,0.05653416087878327
75,2011-04-14,STORE_2_325,0.0,0,0,0.0,0.0,0.0,0.0,,0.0,,0.0,,0.0,0.0,0.0,0.0,0.0,0.0,0.0,0.0,0.0,0.0,0.0,0.0,0.0,0.06316191320624398
76,2011-04-15,STORE_2_325,0.0,0,0,0.0,0.0,0.0,0.0,,0.0,,0.0,,0.0,0.0,0.0,0.0,0.0,0.0,0.0,0.0,0.0,0.0,0.0,0.0,0.0,0.0697896655337189
77,2011-04-16,STORE_2_325,0.0,0,0,0.0,0.0,0.0,0.0,,0.0,,0.0,,0.0,0.0,0.0,0.0,0.0,0.0,0.0,0.0,0.0,0.0,0.0,0.0,0.0,0.07641741786119383
78,2011-04-17,STORE_2_325,0.0,0,0,0.0,0.0,0.0,0.0,,0.0,,0.0,,0.0,0.0,0.0,0.0,0.0,0.0,0.0,0.0,0.0,0.0,0.0,0.0,0.0,0.08304517018866875
79,2011-04-18,STORE_2_325,0.0,0,0,0.0,0.0,0.0,0.0,,0.0,,0.0,,0.0,0.0,0.0,0.0,0.0,0.0,0.0,0.0,0.0,0.0,0.0,0.0,0.0,0.08967292251612946
80,2011-04-19,STORE_2_325,0.0,0,0,0.0,0.0,0.0,0.0,,0.0,,0.0,,0.0,0.0,0.0,0.0,0.0,0.0,0.0,0.0,0.0,0.0,0.0,0.0,0.0,0.09630067484360438
81,2011-04-20,STORE_2_325,0.0,0,0,0.0,0.0,0.0,0.0,,0.0,,0.0,,0.0,0.0,0.0,0.0,0.0,0.0,0.0,0.0,0.0,0.0,0.0,0.0,0.0,0.1029284271710793
82,2011-04-21,STORE_2_325,0.0,0,0,0.0,0.0,0.0,0.0,,0.0,,0.0,,0.0,0.0,0.0,0.0,0.0,0.0,0.0,0.0,0.0,0.0,0.0,0.0,0.0,0.10955617949855423
83,2011-04-22,STORE_2_325,0.0,0,0,0.0,0.0,0.0,0.0,,0.0,,0.0,,0.0,0.0,0.0,0.0,0.0,0.0,0.0,0.0,0.0,0.0,0.0,0.0,0.0,0.11618393182601494
84,2011-04-23,STORE_2_325,0.0,0,0,0.0,0.0,0.0,0.0,,0.0,,0.0,,0.0,0.0,0.0,0.0,0.0,0.0,0.0,0.0,0.0,0.0,0.0,0.0,0.0,0.12281168415348986
85,2011-04-24,STORE_2_325,0.0,0,0,0.0,0.0,0.0,0.0,,0.0,,0.0,,0.0,0.0,0.0,0.0,0.0,0.0,0.0,0.0,0.0,0.0,0.0,0.0,0.0,0.1294394364809648
86,2011-04-25,STORE_2_325,0.0,0,0,0.0,0.0,0.0,0.0,,0.0,,0.0,,0.0,0.0,0.0,0.0,0.0,0.0,0.0,0.0,0.0,0.0,0.0,0.0,0.0,0.1360671888084397
87,2011-04-26,STORE_2_325,0.0,0,0,0.0,0.0,0.0,0.0,,0.0,,0.0,,0.0,0.0,0.0,0.0,0.0,0.0,0.0,0.0,0.0,0.0,0.0,0.0,0.0,0.14269494113590042
88,2011-04-27,STORE_2_325,0.0,0,0,0.0,0.0,0.0,0.0,,0.0,,0.0,,0.0,0.0,0.0,0.0,0.0,0.0,0.0,0.0,0.0,0.0,0.0,0.0,0.0,0.14932269346337534
89,2011-04-28,STORE_2_325,0.0,0,0,0.0,0.0,0.0,0.0,,0.0,,0.0,,0.0,0.0,0.0,0.0,0.0,0.0,0.0,0.0,0.0,0.0,0.0,0.0,0.0,0.15595044579085027
90,2011-04-29,STORE_2_325,0.0,0,0,0.0,0.0,0.0,0.0,,0.0,,0.0,0.0,0.0,0.0,0.0,0.0,0.0,0.0,0.0,0.0,0.0,0.0,0.0,0.0,0.0,0.1625781981183252
91,2011-04-30,STORE_2_325,0.0,0,0,0.0,0.0,0.0,0.0,,0.0,,0.0,0.0,0.0,0.0,0.0,0.0,0.0,0.0,0.0,0.0,0.0,0.0,0.0,0.0,0.0,0.1692059504458001
92,2011-05-01,STORE_2_325,0.0,0,0,0.0,0.0,0.0,0.0,,0.0,,0.0,0.0,0.0,0.0,0.0,0.0,0.0,0.0,0.0,0.0,0.0,0.0,0.0,0.0,0.0,0.17583370277326082
93,2011-05-02,STORE_2_325,0.0,0,0,0.0,0.0,0.0,0.0,,0.0,,0.0,0.0,0.0,0.0,0.0,0.0,0.0,0.0,0.0,0.0,0.0,0.0,0.0,0.0,0.0,0.18246145510073575
94,2011-05-03,STORE_2_325,0.0,0,0,0.0,0.0,0.0,0.0,,0.0,,0.0,0.0,0.0,0.0,0.0,0.0,0.0,0.0,0.0,0.0,0.0,0.0,0.0,0.0,0.0,0.18908920742821067
95,2011-05-04,STORE_2_325,0.0,0,0,0.0,0.0,0.0,0.0,,0.0,,0.0,0.0,0.0,0.0,0.0,0.0,0.0,0.0,0.0,0.0,0.0,0.0,0.0,0.0,0.0,0.1957169597556856
96,2011-05-05,STORE_2_325,0.0,0,0,0.0,0.0,0.0,0.0,,0.0,,0.0,0.0,0.0,0.0,0.0,0.0,0.0,0.0,0.0,0.0,0.0,0.0,0.0,0.0,0.0,0.2023447120831463
97,2011-05-06,STORE_2_325,0.0,0,0,0.0,0.0,0.0,0.0,,0.0,,0.0,0.0,0.0,0.0,0.0,0.0,0.0,0.0,0.0,0.0,0.0,0.0,0.0,0.0,0.0,0.20897246441062123
98,2011-05-07,STORE_2_325,0.0,0,0,0.0,0.0,0.0,0.0,,0.0,,0.0,0.0,0.0,0.0,0.0,0.0,0.0,0.0,0.0,0.0,0.0,0.0,0.0,0.0,0.0,0.21560021673809615
99,2011-05-08,STORE_2_325,0.0,0,0,0.0,0.0,0.0,0.0,,0.0,,0.0,0.0,0.0,0.0,0.0,0.0,0.0,0.0,0.0,0.0,0.0,0.0,0.0,0.0,0.0,0.22222796906557107
100,2011-05-09,STORE_2_325,0.0,0,0,0.0,0.0,0.0,0.0,,0.0,,0.0,0.0,0.0,0.0,0.0,0.0,0.0,0.0,0.0,0.0,0.0,0.0,0.0,0.0,0.0,0.22885572139303179
101,2011-05-10,STORE_2_325,0.0,0,0,0.0,0.0,0.0,0.0,,0.0,,0.0,0.0,0.0,0.0,0.0,0.0,0.0,0.0,0.0,0.0,0.0,0.0,0.0,0.0,0.0,0.2354834737205067
102,2011-05-11,STORE_2_325,0.0,0,0,0.0,0.0,0.0,0.0,,0.0,,0.0,0.0,0.0,0.0,0.0,0.0,0.0,0.0,0.0,0.0,0.0,0.0,0.0,0.0,0.0,0.24211122604798163
103,2011-05-12,STORE_2_325,0.0,0,0,0.0,0.0,0.0,0.0,,0.0,,0.0,0.0,0.0,0.0,0.0,0.0,0.0,0.0,0.0,0.0,0.0,0.0,0.0,0.0,0.0,0.24873897837545655
104,2011-05-13,STORE_2_325,0.0,0,0,0.0,0.0,0.0,0.0,,0.0,,0.0,0.0,0.0,0.0,0.0,0.0,0.0,0.0,0.0,0.0,0.0,0.0,0.0,0.0,0.0,0.25536673070291727
105,2011-05-14,STORE_2_325,0.0,0,0,0.0,0.0,0.0,0.0,,0.0,,0.0,0.0,0.0,0.0,0.0,0.0,0.0,0.0,0.0,0.0,0.0,0.0,0.0,0.0,0.0,0.2619944830303922
106,2011-05-15,STORE_2_325,0.0,0,0,0.0,0.0,0.0,0.0,,0.0,,0.0,0.0,0.0,0.0,0.0,0.0,0.0,0.0,0.0,0.0,0.0,0.0,0.0,0.0,0.0,0.2686222353578671
107,2011-05-16,STORE_2_325,0.0,0,0,0.0,0.0,0.0,0.0,,0.0,,0.0,0.0,0.0,0.0,0.0,0.0,0.0,0.0,0.0,0.0,0.0,0.0,0.0,0.0,0.0,0.27524998768534203
108,2011-05-17,STORE_2_325,0.0,0,0,0.0,0.0,0.0,0.0,,0.0,,0.0,0.0,0.0,0.0,0.0,0.0,0.0,0.0,0.0,0.0,0.0,0.0,0.0,0.0,0.0,0.28187774001281696
109,2011-05-18,STORE_2_325,0.0,0,0,0.0,0.0,0.0,0.0,,0.0,,0.0,0.0,0.0,0.0,0.0,0.0,0.0,0.0,0.0,0.0,0.0,0.0,0.0,0.0,0.0,0.28850549234027767
110,2011-05-19,STORE_2_325,0.0,0,0,0.0,0.0,0.0,0.0,,0.0,,0.0,0.0,0.0,0.0,0.0,0.0,0.0,0.0,0.0,0.0,0.0,0.0,0.0,0.0,0.0,0.2951332446677526
111,2011-05-20,STORE_2_325,0.0,0,0,0.0,0.0,0.0,0.0,,0.0,,0.0,0.0,0.0,0.0,0.0,0.0,0.0,0.0,0.0,0.0,0.0,0.0,0.0,0.0,0.0,0.3017609969952275
112,2011-05-21,STORE_2_325,0.0,0,0,0.0,0.0,0.0,0.0,,0.0,,0.0,0.0,0.0,0.0,0.0,0.0,0.0,0.0,0.0,0.0,0.0,0.0,0.0,0.0,0.0,0.30838874932270244
113,2011-05-22,STORE_2_325,0.0,0,0,0.0,0.0,0.0,0.0,,0.0,,0.0,0.0,0.0,0.0,0.0,0.0,0.0,0.0,0.0,0.0,0.0,0.0,0.0,0.0,0.0,0.31501650165016315
114,2011-05-23,STORE_2_325,0.0,0,0,0.0,0.0,0.0,0.0,,0.0,,0.0,0.0,0.0,0.0,0.0,0.0,0.0,0.0,0.0,0.0,0.0,0.0,0.0,0.0,0.0,0.3216442539776381
115,2011-05-24,STORE_2_325,0.0,0,0,0.0,0.0,0.0,0.0,,0.0,,0.0,0.0,0.0,0.0,0.0,0.0,0.0,0.0,0.0,0.0,0.0,0.0,0.0,0.0,0.0,0.328272006305113
116,2011-05-25,STORE_2_325,0.0,0,0,0.0,0.0,0.0,0.0,,0.0,,0.0,0.0,0.0,0.0,0.0,0.0,0.0,0.0,0.0,0.0,0.0,0.0,0.0,0.0,0.0,0.3348997586325879
117,2011-05-26,STORE_2_325,0.0,0,0,0.0,0.0,0.0,0.0,,0.0,,0.0,0.0,0.0,0.0,0.0,0.0,0.0,0.0,0.0,0.0,0.0,0.0,0.0,0.0,0.0,0.34152751096004863
118,2011-05-27,STORE_2_325,0.0,0,0,0.0,0.0,0.0,0.0,,0.0,,0.0,0.0,0.0,0.0,0.0,0.0,0.0,0.0,0.0,0.0,0.0,0.0,0.0,0.0,0.0,0.34815526328752355
119,2011-05-28,STORE_2_325,0.0,0,0,0.0,0.0,0.0,0.0,,0.0,,0.0,0.0,0.0,0.0,0.0,0.0,0.0,0.0,0.0,0.0,0.0,0.0,0.0,0.0,0.0,0.3547830156149985
120,2011-05-29,STORE_2_325,0.0,0,0,0.0,0.0,0.0,0.0,,0.0,,0.0,0.0,0.0,0.0,0.0,0.0,0.0,0.0,0.0,0.0,0.0,0.0,0.0,0.0,0.0,0.3614107679424734
121,2011-05-30,STORE_2_325,0.0,1,0,0.0,0.0,0.0,0.0,,0.0,,0.0,0.0,0.0,0.0,0.0,0.0,0.0,0.0,0.0,0.0,0.0,0.0,0.0,0.0,0.0,0.3680385202699341
122,2011-05-31,STORE_2_325,0.0,0,0,0.0,0.0,0.0,0.0,,0.0,,0.0,0.0,0.0,0.0,0.0,0.0,0.0,0.0,0.0,0.0,0.0,0.0,0.0,0.0,0.0,0.37466627259740903
123,2011-06-01,STORE_2_325,0.0,0,0,0.0,0.0,0.0,0.0,,0.0,,0.0,0.0,0.0,0.0,0.0,0.0,0.0,0.0,0.0,0.0,0.0,0.0,0.0,0.0,0.0,0.38129402492488396
124,2011-06-02,STORE_2_325,0.0,0,0,0.0,0.0,0.0,0.0,,0.0,,0.0,0.0,0.0,0.0,0.0,0.0,0.0,0.0,0.0,0.0,0.0,0.0,0.0,0.0,0.0,0.3879217772523589
125,2011-06-03,STORE_2_325,0.0,0,0,0.0,0.0,0.0,0.0,,0.0,,0.0,0.0,0.0,0.0,0.0,0.0,0.0,0.0,0.0,0.0,0.0,0.0,0.0,0.0,0.0,0.3945495295798196
126,2011-06-04,STORE_2_325,0.0,0,0,0.0,0.0,0.0,0.0,,0.0,,0.0,0.0,0.0,0.0,0.0,0.0,0.0,0.0,0.0,0.0,0.0,0.0,0.0,0.0,0.0,0.4011772819072945
127,2011-06-05,STORE_2_325,0.0,0,0,0.0,0.0,0.0,0.0,,0.0,,0.0,0.0,0.0,0.0,0.0,0.0,0.0,0.0,0.0,0.0,0.0,0.0,0.0,0.0,0.0,0.40780503423476944
128,2011-06-06,STORE_2_325,0.0,0,0,0.0,0.0,0.0,0.0,,0.0,,0.0,0.0,0.0,0.0,0.0,0.0,0.0,0.0,0.0,0.0,0.0,0.0,0.0,0.0,0.0,0.41443278656224436
129,2011-06-07,STORE_2_325,0.0,0,0,0.0,0.0,0.0,0.0,,0.0,,0.0,0.0,0.0,0.0,0.0,0.0,0.0,0.0,0.0,0.0,0.0,0.0,0.0,0.0,0.0,0.4210605388897193
130,2011-06-08,STORE_2_325,0.0,0,0,0.0,0.0,0.0,0.0,,0.0,,0.0,0.0,0.0,0.0,0.0,0.0,0.0,0.0,0.0,0.0,0.0,0.0,0.0,0.0,0.0,0.42768829121718
131,2011-06-09,STORE_2_325,0.0,0,0,0.0,0.0,0.0,0.0,,0.0,,0.0,0.0,0.0,0.0,0.0,0.0,0.0,0.0,0.0,0.0,0.0,0.0,0.0,0.0,0.0,0.4343160435446549
132,2011-06-10,STORE_2_325,0.0,0,0,0.0,0.0,0.0,0.0,,0.0,,0.0,0.0,0.0,0.0,0.0,0.0,0.0,0.0,0.0,0.0,0.0,0.0,0.0,0.0,0.0,0.44094379587212984
133,2011-06-11,STORE_2_325,0.0,0,0,0.0,0.0,0.0,0.0,,0.0,,0.0,0.0,0.0,0.0,0.0,0.0,0.0,0.0,0.0,0.0,0.0,0.0,0.0,0.0,0.0,0.44757154819960476
134,2011-06-12,STORE_2_325,0.0,0,0,0.0,0.0,0.0,0.0,,0.0,,0.0,0.0,0.0,0.0,0.0,0.0,0.0,0.0,0.0,0.0,0.0,0.0,0.0,0.0,0.0,0.4541993005270655
135,2011-06-13,STORE_2_325,0.0,0,0,0.0,0.0,0.0,0.0,,0.0,,0.0,0.0,0.0,0.0,0.0,0.0,0.0,0.0,0.0,0.0,0.0,0.0,0.0,0.0,0.0,0.4608270528545404
136,2011-06-14,STORE_2_325,0.0,0,0,0.0,0.0,0.0,0.0,,0.0,,0.0,0.0,0.0,0.0,0.0,0.0,0.0,0.0,0.0,0.0,0.0,0.0,0.0,0.0,0.0,0.4674548051820153
137,2011-06-15,STORE_2_325,0.0,0,0,0.0,0.0,0.0,0.0,,0.0,,0.0,0.0,0.0,0.0,0.0,0.0,0.0,0.0,0.0,0.0,0.0,0.0,0.0,0.0,0.0,0.47408255750949024
138,2011-06-16,STORE_2_325,0.0,0,0,0.0,0.0,0.0,0.0,,0.0,,0.0,0.0,0.0,0.0,0.0,0.0,0.0,0.0,0.0,0.0,0.0,0.0,0.0,0.0,0.0,0.48071030983695096
139,2011-06-17,STORE_2_325,0.0,0,0,0.0,0.0,0.0,0.0,,0.0,,0.0,0.0,0.0,0.0,0.0,0.0,0.0,0.0,0.0,0.0,0.0,0.0,0.0,0.0,0.0,0.4873380621644259
140,2011-06-18,STORE_2_325,0.0,0,0,0.0,0.0,0.0,0.0,,0.0,,0.0,0.0,0.0,0.0,0.0,0.0,0.0,0.0,0.0,0.0,0.0,0.0,0.0,0.0,0.0,0.4939658144919008
141,2011-06-19,STORE_2_325,0.0,0,0,0.0,0.0,0.0,0.0,,0.0,,0.0,0.0,0.0,0.0,0.0,0.0,0.0,0.0,0.0,0.0,0.0,0.0,0.0,0.0,0.0,0.5005935668193757
142,2011-06-20,STORE_2_325,0.0,0,0,0.0,0.0,0.0,0.0,,0.0,,0.0,0.0,0.0,0.0,0.0,0.0,0.0,0.0,0.0,0.0,0.0,0.0,0.0,0.0,0.0,0.5072213191468364
143,2011-06-21,STORE_2_325,0.0,0,0,0.0,0.0,0.0,0.0,,0.0,,0.0,0.0,0.0,0.0,0.0,0.0,0.0,0.0,0.0,0.0,0.0,0.0,0.0,0.0,0.0,0.5138490714743114
144,2011-06-22,STORE_2_325,0.0,0,0,0.0,0.0,0.0,0.0,,0.0,,0.0,0.0,0.0,0.0,0.0,0.0,0.0,0.0,0.0,0.0,0.0,0.0,0.0,0.0,0.0,0.5204768238017863
145,2011-06-23,STORE_2_325,0.0,0,0,0.0,0.0,0.0,0.0,,0.0,,0.0,0.0,0.0,0.0,0.0,0.0,0.0,0.0,0.0,0.0,0.0,0.0,0.0,0.0,0.0,0.5271045761292612
146,2011-06-24,STORE_2_325,0.0,0,0,0.0,0.0,0.0,0.0,,0.0,,0.0,0.0,0.0,0.0,0.0,0.0,0.0,0.0,0.0,0.0,0.0,0.0,0.0,0.0,0.0,0.5337323284567361
147,2011-06-25,STORE_2_325,0.0,0,0,0.0,0.0,0.0,0.0,,0.0,,0.0,0.0,0.0,0.0,0.0,0.0,0.0,0.0,0.0,0.0,0.0,0.0,0.0,0.0,0.0,0.5403600807841968
148,2011-06-26,STORE_2_325,0.0,0,0,0.0,0.0,0.0,0.0,,0.0,,0.0,0.0,0.0,0.0,0.0,0.0,0.0,0.0,0.0,0.0,0.0,0.0,0.0,0.0,0.0,0.5469878331116718
149,2011-06-27,STORE_2_325,0.0,0,0,0.0,0.0,0.0,0.0,,0.0,,0.0,0.0,0.0,0.0,0.0,0.0,0.0,0.0,0.0,0.0,0.0,0.0,0.0,0.0,0.0,0.5536155854391467
150,2011-06-28,STORE_2_325,0.0,0,0,0.0,0.0,0.0,0.0,,0.0,,0.0,0.0,0.0,0.0,0.0,0.0,0.0,0.0,0.0,0.0,0.0,0.0,0.0,0.0,0.0,0.5602433377666216
151,2011-06-29,STORE_2_325,0.0,0,0,0.0,0.0,0.0,0.0,,0.0,,0.0,0.0,0.0,0.0,0.0,0.0,0.0,0.0,0.0,0.0,0.0,0.0,0.0,0.0,0.0,0.5668710900940823
152,2011-06-30,STORE_2_325,0.0,0,0,0.0,0.0,0.0,0.0,,0.0,,0.0,0.0,0.0,0.0,0.0,0.0,0.0,0.0,0.0,0.0,0.0,0.0,0.0,0.0,0.0,0.5734988424215572
153,2011-07-01,STORE_2_325,0.0,0,0,0.0,0.0,0.0,0.0,,0.0,,0.0,0.0,0.0,0.0,0.0,0.0,0.0,0.0,0.0,0.0,0.0,0.0,0.0,0.0,0.0,0.5801265947490322
154,2011-07-02,STORE_2_325,0.0,0,0,0.0,0.0,0.0,0.0,,0.0,,0.0,0.0,0.0,0.0,0.0,0.0,0.0,0.0,0.0,0.0,0.0,0.0,0.0,0.0,0.0,0.5867543470765071
155,2011-07-03,STORE_2_325,0.0,0,0,0.0,0.0,0.0,0.0,,0.0,,0.0,0.0,0.0,0.0,0.0,0.0,0.0,0.0,0.0,0.0,0.0,0.0,0.0,0.0,0.0,0.5933820994039678
156,2011-07-04,STORE_2_325,0.0,1,0,0.0,0.0,0.0,0.0,,0.0,,0.0,0.0,0.0,0.0,0.0,0.0,0.0,0.0,0.0,0.0,0.0,0.0,0.0,0.0,0.0,0.6000098517314427
157,2011-07-05,STORE_2_325,0.0,0,0,0.0,0.0,0.0,0.0,,0.0,,0.0,0.0,0.0,0.0,0.0,0.0,0.0,0.0,0.0,0.0,0.0,0.0,0.0,0.0,0.0,0.6066376040589176
158,2011-07-06,STORE_2_325,0.0,0,0,0.0,0.0,0.0,0.0,,0.0,,0.0,0.0,0.0,0.0,0.0,0.0,0.0,0.0,0.0,0.0,0.0,0.0,0.0,0.0,0.0,0.6132653563863926
159,2011-07-07,STORE_2_325,0.0,0,0,0.0,0.0,0.0,0.0,,0.0,,0.0,0.0,0.0,0.0,0.0,0.0,0.0,0.0,0.0,0.0,0.0,0.0,0.0,0.0,0.0,0.6198931087138533
160,2011-07-08,STORE_2_325,0.0,0,0,0.0,0.0,0.0,0.0,,0.0,,0.0,0.0,0.0,0.0,0.0,0.0,0.0,0.0,0.0,0.0,0.0,0.0,0.0,0.0,0.0,0.6265208610413282
161,2011-07-09,STORE_2_325,0.0,0,0,0.0,0.0,0.0,0.0,,0.0,,0.0,0.0,0.0,0.0,0.0,0.0,0.0,0.0,0.0,0.0,0.0,0.0,0.0,0.0,0.0,0.6331486133688031
162,2011-07-10,STORE_2_325,0.0,0,0,0.0,0.0,0.0,0.0,,0.0,,0.0,0.0,0.0,0.0,0.0,0.0,0.0,0.0,0.0,0.0,0.0,0.0,0.0,0.0,0.0,0.639776365696278
163,2011-07-11,STORE_2_325,0.0,0,0,0.0,0.0,0.0,0.0,,0.0,,0.0,0.0,0.0,0.0,0.0,0.0,0.0,0.0,0.0,0.0,0.0,0.0,0.0,0.0,0.0,0.6464041180237388
164,2011-07-12,STORE_2_325,0.0,0,0,0.0,0.0,0.0,0.0,,0.0,,0.0,0.0,0.0,0.0,0.0,0.0,0.0,0.0,0.0,0.0,0.0,0.0,0.0,0.0,0.0,0.6530318703512137
165,2011-07-13,STORE_2_325,0.0,0,0,0.0,0.0,0.0,0.0,,0.0,,0.0,0.0,0.0,0.0,0.0,0.0,0.0,0.0,0.0,0.0,0.0,0.0,0.0,0.0,0.0,0.6596596226786886
166,2011-07-14,STORE_2_325,0.0,0,0,0.0,0.0,0.0,0.0,,0.0,,0.0,0.0,0.0,0.0,0.0,0.0,0.0,0.0,0.0,0.0,0.0,0.0,0.0,0.0,0.0,0.6662873750061635
167,2011-07-15,STORE_2_325,0.0,0,0,0.0,0.0,0.0,0.0,,0.0,,0.0,0.0,0.0,0.0,0.0,0.0,0.0,0.0,0.0,0.0,0.0,0.0,0.0,0.0,0.0,0.6729151273336385
168,2011-07-16,STORE_2_325,0.0,0,0,0.0,0.0,0.0,0.0,,0.0,,0.0,0.0,0.0,0.0,0.0,0.0,0.0,0.0,0.0,0.0,0.0,0.0,0.0,0.0,0.0,0.6795428796610992
169,2011-07-17,STORE_2_325,0.0,0,0,0.0,0.0,0.0,0.0,,0.0,,0.0,0.0,0.0,0.0,0.0,0.0,0.0,0.0,0.0,0.0,0.0,0.0,0.0,0.0,0.0,0.6861706319885741
170,2011-07-18,STORE_2_325,0.0,0,0,0.0,0.0,0.0,0.0,,0.0,,0.0,0.0,0.0,0.0,0.0,0.0,0.0,0.0,0.0,0.0,0.0,0.0,0.0,0.0,0.0,0.692798384316049
171,2011-07-19,STORE_2_325,0.0,0,0,0.0,0.0,0.0,0.0,,0.0,,0.0,0.0,0.0,0.0,0.0,0.0,0.0,0.0,0.0,0.0,0.0,0.0,0.0,0.0,0.0,0.6994261366435239
172,2011-07-20,STORE_2_325,0.0,0,0,0.0,0.0,0.0,0.0,,0.0,,0.0,0.0,0.0,0.0,0.0,0.0,0.0,0.0,0.0,0.0,0.0,0.0,0.0,0.0,0.0,0.7060538889709846
173,2011-07-21,STORE_2_325,0.0,0,0,0.0,0.0,0.0,0.0,,0.0,,0.0,0.0,0.0,0.0,0.0,0.0,0.0,0.0,0.0,0.0,0.0,0.0,0.0,0.0,0.0,0.7126816412984596
174,2011-07-22,STORE_2_325,0.0,0,0,0.0,0.0,0.0,0.0,,0.0,,0.0,0.0,0.0,0.0,0.0,0.0,0.0,0.0,0.0,0.0,0.0,0.0,0.0,0.0,0.0,0.7193093936259345
175,2011-07-23,STORE_2_325,0.0,0,0,0.0,0.0,0.0,0.0,,0.0,,0.0,0.0,0.0,0.0,0.0,0.0,0.0,0.0,0.0,0.0,0.0,0.0,0.0,0.0,0.0,0.7259371459534094
176,2011-07-24,STORE_2_325,0.0,0,0,0.0,0.0,0.0,0.0,,0.0,,0.0,0.0,0.0,0.0,0.0,0.0,0.0,0.0,0.0,0.0,0.0,0.0,0.0,0.0,0.0,0.7325648982808701
177,2011-07-25,STORE_2_325,0.0,0,0,0.0,0.0,0.0,0.0,,0.0,,0.0,0.0,0.0,0.0,0.0,0.0,0.0,0.0,0.0,0.0,0.0,0.0,0.0,0.0,0.0,0.739192650608345
178,2011-07-26,STORE_2_325,0.0,0,0,0.0,0.0,0.0,0.0,,0.0,,0.0,0.0,0.0,0.0,0.0,0.0,0.0,0.0,0.0,0.0,0.0,0.0,0.0,0.0,0.0,0.74582040293582
179,2011-07-27,STORE_2_325,0.0,0,0,0.0,0.0,0.0,0.0,,0.0,,0.0,0.0,0.0,0.0,0.0,0.0,0.0,0.0,0.0,0.0,0.0,0.0,0.0,0.0,0.0,0.7524481552632949
180,2011-07-28,STORE_2_325,0.0,0,0,0.0,0.0,0.0,0.0,0.0,0.0,,0.0,0.0,0.0,0.0,0.0,0.0,0.0,0.0,0.0,0.0,0.0,0.0,0.0,0.0,0.0,0.7590759075907556
181,2011-07-29,STORE_2_325,0.0,0,0,0.0,0.0,0.0,0.0,0.0,0.0,,0.0,0.0,0.0,0.0,0.0,0.0,0.0,0.0,0.0,0.0,0.0,0.0,0.0,0.0,0.0,0.7657036599182305
182,2011-07-30,STORE_2_325,0.0,0,0,0.0,0.0,0.0,0.0,0.0,0.0,,0.0,0.0,0.0,0.0,0.0,0.0,0.0,0.0,0.0,0.0,0.0,0.0,0.0,0.0,0.0,0.7723314122457055
183,2011-07-31,STORE_2_325,0.0,0,0,0.0,0.0,0.0,0.0,0.0,0.0,,0.0,0.0,0.0,0.0,0.0,0.0,0.0,0.0,0.0,0.0,0.0,0.0,0.0,0.0,0.0,0.7789591645731804
184,2011-08-01,STORE_2_325,0.0,0,0,0.0,0.0,0.0,0.0,0.0,0.0,,0.0,0.0,0.0,0.0,0.0,0.0,0.0,0.0,0.0,0.0,0.0,0.0,0.0,0.0,0.0,0.7855869169006553
185,2011-08-02,STORE_2_325,0.0,0,0,0.0,0.0,0.0,0.0,0.0,0.0,,0.0,0.0,0.0,0.0,0.0,0.0,0.0,0.0,0.0,0.0,0.0,0.0,0.0,0.0,0.0,0.792214669228116
186,2011-08-03,STORE_2_325,0.0,0,0,0.0,0.0,0.0,0.0,0.0,0.0,,0.0,0.0,0.0,0.0,0.0,0.0,0.0,0.0,0.0,0.0,0.0,0.0,0.0,0.0,0.0,0.7988424215555909
187,2011-08-04,STORE_2_325,0.0,0,0,0.0,0.0,0.0,0.0,0.0,0.0,,0.0,0.0,0.0,0.0,0.0,0.0,0.0,0.0,0.0,0.0,0.0,0.0,0.0,0.0,0.0,0.8054701738830659
188,2011-08-05,STORE_2_325,0.0,0,0,0.0,0.0,0.0,0.0,0.0,0.0,,0.0,0.0,0.0,0.0,0.0,0.0,0.0,0.0,0.0,0.0,0.0,0.0,0.0,0.0,0.0,0.8120979262105408
189,2011-08-06,STORE_2_325,0.0,0,0,0.0,0.0,0.0,0.0,0.0,0.0,,0.0,0.0,0.0,0.0,0.0,0.0,0.0,0.0,0.0,0.0,0.0,0.0,0.0,0.0,0.0,0.8187256785380015
190,2011-08-07,STORE_2_325,0.0,0,0,0.0,0.0,0.0,0.0,0.0,0.0,,0.0,0.0,0.0,0.0,0.0,0.0,0.0,0.0,0.0,0.0,0.0,0.0,0.0,0.0,0.0,0.8253534308654764
191,2011-08-08,STORE_2_325,0.0,0,0,0.0,0.0,0.0,0.0,0.0,0.0,,0.0,0.0,0.0,0.0,0.0,0.0,0.0,0.0,0.0,0.0,0.0,0.0,0.0,0.0,0.0,0.8319811831929513
192,2011-08-09,STORE_2_325,0.0,0,0,0.0,0.0,0.0,0.0,0.0,0.0,,0.0,0.0,0.0,0.0,0.0,0.0,0.0,0.0,0.0,0.0,0.0,0.0,0.0,0.0,0.0,0.8386089355204263
193,2011-08-10,STORE_2_325,0.0,0,0,0.0,0.0,0.0,0.0,0.0,0.0,,0.0,0.0,0.0,0.0,0.0,0.0,0.0,0.0,0.0,0.0,0.0,0.0,0.0,0.0,0.0,0.845236687847887
194,2011-08-11,STORE_2_325,0.0,0,0,0.0,0.0,0.0,0.0,0.0,0.0,,0.0,0.0,0.0,0.0,0.0,0.0,0.0,0.0,0.0,0.0,0.0,0.0,0.0,0.0,0.0,0.8518644401753619
195,2011-08-12,STORE_2_325,0.0,0,0,0.0,0.0,0.0,0.0,0.0,0.0,,0.0,0.0,0.0,0.0,0.0,0.0,0.0,0.0,0.0,0.0,0.0,0.0,0.0,0.0,0.0,0.8584921925028368
196,2011-08-13,STORE_2_325,9.0,0,0,0.0993846321359118,0.0993846321359118,0.0,0.0,0.0,0.0,,0.0,0.0,0.19777777777777777,9.0,0.1,0.0,0.0,9.0,0.0,0.0,0.0,0.0,0.0,0.9486832980505165,9.0,0.8651199448303117
197,2011-08-14,STORE_2_325,19.999999999999996,0,0,0.09691001300805642,-0.0024746191278553764,0.0993846321359118,0.0,0.0,0.0,,0.0,0.0,0.630123456790124,20.0,0.32222222222222224,0.0,0.0,20.0,0.0,0.0,0.0,0.0,0.0,2.302064426600553,29.0,0.8717476971577724
198,2011-08-15,STORE_2_325,4.0,0,0,-0.14929808246774465,-0.24620809547580108,0.19629464514396822,0.0,0.0,0.0,,0.0,0.0,0.7088888888888893,20.0,0.36666666666666664,0.0,0.0,20.0,0.0,0.0,0.0,0.0,0.0,2.3341625064981195,33.0,0.8783754494852474
199,2011-08-16,STORE_2_325,10.999999999999998,0,0,0.07169322465507488,0.22099130712281953,0.04699656267622356,0.0,0.0,0.0,,0.0,0.0,0.9343209876543226,20.0,0.4888888888888889,0.0,0.0,20.0,0.0,0.0,0.0,0.0,0.0,2.588845755750272,44.0,0.8850032018127223
200,2011-08-17,STORE_2_325,2.0,0,1,-0.09455610761457908,-0.16624933226965397,0.11868978733129844,0.0,0.0,0.0,,0.0,0.0,0.9654320987654301,20.0,0.5111111111111111,0.0,0.0,20.0,0.0,0.0,0.0,0.0,0.013273523844195579,2.5931822645503675,46.0,6.64781297134239
201,2011-08-18,STORE_2_325,3.000000000000001,0,1,0.011581872549815162,0.10613798016439424,0.02413367971671936,0.0,0.0,0.0,,0.0,0.0,1.0162962962963,20.0,0.5444444444444444,0.0,0.0,20.0,0.0,0.0,0.0,0.0,0.030503709619117664,2.60578919491573,49.0,6.644645550527905
202,2011-08-19,STORE_2_325,5.999999999999999,0,1,0.03300026010292533,0.02141838755311017,0.03571555226653452,0.0,0.0,0.0,,0.0,0.0,1.1271604938271635,20.0,0.6111111111111112,0.0,0.0,20.0,0.0,0.0,0.0,0.0,0.041920107991863464,2.667719829487195,55.0,6.641478129713427
203,2011-08-20,STORE_2_325,4.0,0,1,-0.02171924969323629,-0.05471950979616162,0.06871581236945985,0.0,0.0,0.0,,0.0993846321359118,0.0,1.1945679012345656,20.0,0.6555555555555556,0.0,0.0,20.0,0.0,0.0,0.0,0.0,0.04699656267622356,2.690645931851077,59.0,6.638310708898949
204,2011-08-21,STORE_2_325,10.0,0,1,0.06214790674884448,0.08386715644208077,0.04699656267622356,0.0,0.0,0.0,,0.19629464514396822,0.0,1.3799999999999992,20.0,0.7666666666666667,0.0,0.0,20.0,0.0,0.0,0.0,0.0024133679716721416,0.05894215000750346,2.8641527170381207,69.0,6.635143288084471
205,2011-08-22,STORE_2_325,2.0,0,1,-0.08501078970834869,-0.14715869645719318,0.10914446942506804,0.0,0.0,0.0,,0.04699656267622356,0.0,1.4024691358024715,20.0,0.7888888888888889,0.0,0.0,20.0,0.0,0.0,0.0,0.02413367971671936,0.05894215000750346,2.86589572422347,71.0,6.631975867269986
206,2011-08-23,STORE_2_325,8.0,0,1,0.06526673151259153,0.15027752122094024,0.02413367971671936,0.0,0.0,0.0,,0.11868978733129844,0.0,1.5409876543209877,20.0,0.8777777777777778,0.0,0.0,20.0,0.0,0.0,0.0,0.025291866971700973,0.08009234174237786,2.9635530519353757,79.0,6.628808446455508
207,2011-08-24,STORE_2_325,4.0,0,1,-0.04240384855308733,-0.10767058006567887,0.08940041122931089,0.0,0.0,0.0,,0.02413367971671936,0.0,1.5985185185185142,20.0,0.9222222222222223,0.0,0.0,20.0,0.0,0.0,0.0,0.03684365330750352,0.08009234174237786,2.9801884329904036,83.0,6.6256410256410305
208,2011-08-25,STORE_2_325,0.0,0,1,-0.04699656267622356,-0.004592714123136235,0.04699656267622356,0.0,0.0,0.0,,0.03571555226653452,0.0,1.5985185185185142,20.0,0.9222222222222223,0.0,0.0,20.0,0.0,0.0,0.0,0.03684365330750352,0.08009234174237786,2.9801884329904036,83.0,6.622473604826553
209,2011-08-26,STORE_2_325,12.000000000000004,0,1,0.12802981358544185,0.17502637626166542,0.0,0.0,0.0,0.0,,0.06871581236945985,0.0,1.806172839506169,20.0,1.0555555555555556,0.0,0.0,20.0,0.0,0.0,0.0,0.04699656267622356,0.09489173272794135,3.1988801099061317,95.0,6.619306184012068
210,2011-08-27,STORE_2_325,10.0,0,1,-0.01888534416037381,-0.14691515774581565,0.12802981358544185,0.0993846321359118,0.0,0.0,,0.04699656267622356,0.0,1.9703703703703677,20.0,1.1666666666666667,0.0,0.0,20.0,0.0,0.0,0.0,0.04699656267622356,0.10475254264494771,3.3326778381706332,105.0,6.61613876319759
211,2011-08-28,STORE_2_325,0.0,0,1,-0.10914446942506804,-0.09025912526469423,0.10914446942506804,0.19629464514396822,0.0,0.0,,0.10914446942506804,0.0,1.9703703703703677,20.0,1.1666666666666667,0.0,0.0,20.0,0.0,0.0,0.0,0.04699656267622356,0.10475254264494771,3.3326778381706332,105.0,6.612971342383112
212,2011-08-29,STORE_2_325,14.0,0,1,0.146128035678238,0.25527250510330607,0.0,0.04699656267622356,0.0,0.0,,0.02413367971671936,0.0,2.203703703703704,20.0,1.3222222222222222,0.0,0.0,20.0,0.0,0.0,0.0,0.049168487645547376,0.10914446942506804,3.594089335605004,119.0,6.609803921568634
213,2011-08-30,STORE_2_325,5.999999999999999,0,1,-0.07741222330877816,-0.22354025898701618,0.146128035678238,0.11868978733129844,0.0,0.0,,0.08940041122931089,0.0,2.2839506172839488,20.0,1.3888888888888888,0.0,0.0,20.0,0.0,0.0,0.0,0.06871581236945985,0.10914446942506804,3.6248035807132415,125.0,6.606636500754149
214,2011-08-31,STORE_2_325,4.0,0,1,-0.02171924969323629,0.05569297361554187,0.06871581236945985,0.02413367971671936,0.0,0.0,,0.04699656267622356,0.0,2.325185185185188,20.0,1.4333333333333333,0.0,0.0,20.0,0.0,0.0,0.0,0.06871581236945985,0.10914446942506804,3.632097855435712,129.0,6.603469079939671
215,2011-09-01,STORE_2_325,12.000000000000004,0,1,0.08103325090921829,0.10275250060245458,0.04699656267622356,0.03571555226653452,0.0,0.0,,0.0,0.0,2.506666666666664,20.0,1.5666666666666667,0.0,0.0,20.0,0.0,0.0,0.0,0.07078427225544513,0.11439439427349474,3.7954733535526244,141.0,6.6003016591251935
216,2011-09-02,STORE_2_325,10.999999999999998,0,1,-0.009340026254143416,-0.0903732771633617,0.12802981358544185,0.06871581236945985,0.0,0.0,,0.12802981358544185,0.0,2.664691358024698,20.0,1.6888888888888889,0.0,0.0,20.0,0.0,0.0,0.0,0.09039883331997106,0.11868978733129844,3.9195403435058007,152.0,6.597134238310716
217,2011-09-03,STORE_2_325,12.000000000000004,0,1,0.009340026254143416,0.018680052508286832,0.11868978733129844,0.04699656267622356,0.0,0.0,,0.10914446942506804,0.0,2.834567901234568,20.0,1.8222222222222222,0.0,0.0,20.0,0.0,0.0,0.0,0.1003606158648275,0.12382680177107729,4.062925767566904,164.0,6.593966817496231
218,2011-09-04,STORE_2_325,0.0,0,1,-0.12802981358544185,-0.13736983983958528,0.12802981358544185,0.10914446942506804,0.0,0.0,,0.0,0.0,2.834567901234568,20.0,1.8222222222222222,0.0,0.0,20.0,0.0,0.0,0.0,0.1003606158648275,0.12382680177107729,4.062925767566904,164.0,6.590799396681753
219,2011-09-05,STORE_2_325,13.0,1,1,0.13717319302531158,0.26520300661075347,0.0,0.02413367971671936,0.0,0.0,,0.146128035678238,0.0,3.015555555555554,20.0,1.9666666666666666,0.0,0.0,20.0,0.0,0.0,0.0,0.10914446942506804,0.12802981358544185,4.225258452303719,177.0,6.587631975867275
220,2011-09-06,STORE_2_325,5.999999999999999,0,1,-0.06845738065585173,-0.20563057368116333,0.13717319302531158,0.08940041122931089,0.0,0.0,,0.06871581236945985,0.0,3.074074074074076,20.0,2.033333333333333,0.0,0.0,20.0,0.0,0.0,0.0,0.10914446942506804,0.12802981358544185,4.241183849992613,183.0,6.584464555052797
221,2011-09-07,STORE_2_325,12.000000000000004,0,1,0.059314001215982,0.12777138187183373,0.06871581236945985,0.04699656267622356,0.0,0.0,,0.04699656267622356,0.0,3.2333333333333316,20.0,2.1666666666666665,0.0,0.0,20.0,0.0,0.0,0.01810025978753952,0.11009900121569116,0.12802981358544185,4.363407595297115,195.0,6.581297134238312
222,2011-09-08,STORE_2_325,4.0,0,1,-0.08103325090921829,-0.14034725212520027,0.12802981358544185,0.0,0.0,0.0,,0.12802981358544185,0.0,3.252345679012344,20.0,2.2111111111111112,0.0,0.0,20.0,0.0,0.0,0.02413367971671936,0.11009900121569116,0.12802981358544185,4.361461574537519,199.0,6.578129713423834
223,2011-09-09,STORE_2_325,12.000000000000004,0,1,0.08103325090921829,0.16206650181843657,0.04699656267622356,0.12802981358544185,0.0,0.0,,0.11868978733129844,0.0,3.4017283950617214,20.0,2.3444444444444446,0.0,0.0,20.0,0.0,0.0,0.03282008412908073,0.11868978733129844,0.12802981358544185,4.475052221429307,211.0,6.5749622926093565
224,2011-09-10,STORE_2_325,12.000000000000004,0,1,0.0,-0.08103325090921829,0.12802981358544185,0.10914446942506804,0.0,0.0,,0.12802981358544185,0.0,3.5451851851851837,20.0,2.477777777777778,0.0,0.0,20.0,0.0,0.0,0.0441763100738013,0.11962378995671286,0.12802981358544185,4.5819081883743165,223.0,6.571794871794879
225,2011-09-11,STORE_2_325,10.0,0,1,-0.01888534416037381,-0.01888534416037381,0.12802981358544185,0.0,0.0,0.0,,0.0,0.0,3.650617283950626,20.0,2.588888888888889,0.0,0.0,20.0,0.0,0.0,0.04699656267622356,0.11962378995671286,0.12802981358544185,4.6420027749664765,233.0,6.568627450980394
226,2011-09-12,STORE_2_325,2.0,0,1,-0.08501078970834869,-0.06612544554797488,0.10914446942506804,0.146128035678238,0.0,0.0993846321359118,,0.13717319302531158,0.0,3.638271604938265,20.0,2.611111111111111,0.0,0.0,20.0,0.0,0.0,0.04699656267622356,0.11962378995671286,0.12802981358544185,4.634250710787771,235.0,6.565460030165916
227,2011-09-13,STORE_2_325,9.0,0,1,0.07525095241919244,0.16026174212754113,0.02413367971671936,0.06871581236945985,0.0,0.19629464514396822,,0.06871581236945985,0.0,3.722469135802468,20.0,2.7111111111111112,0.0,0.0,20.0,0.0,0.0,0.04699656267622356,0.11962378995671286,0.12802981358544185,4.674204719820947,244.0,6.562292609351438
228,2011-09-14,STORE_2_325,6.999999999999999,0,1,-0.02020338608828698,-0.09545433850747942,0.0993846321359118,0.04699656267622356,0.0,0.04699656267622356,,0.12802981358544185,0.0,3.771111111111112,20.0,2.7888888888888888,0.0,0.0,20.0,0.0,0.0,0.04699656267622356,0.11962378995671286,0.12802981358544185,4.686807793251865,251.0,6.55912518853696
229,2011-09-15,STORE_2_325,4.0,0,1,-0.032184683371401256,-0.011981297283114277,0.07918124604762482,0.12802981358544185,0.0,0.11868978733129844,,0.04699656267622356,0.0,3.770370370370366,20.0,2.8333333333333335,0.0,0.0,20.0,0.0,0.0,0.04699656267622356,0.11962378995671286,0.12802981358544185,4.679023234283659,255.0,6.555957767722475
230,2011-09-16,STORE_2_325,15.0,0,1,0.10790539730951959,0.14009008068092085,0.04699656267622356,0.11868978733129844,0.0,0.02413367971671936,,0.12802981358544185,0.0,3.933333333333333,20.0,3.0,0.0,0.0,20.0,0.0,0.0,0.04699656267622356,0.12802981358544185,0.12802981358544185,4.841301709994019,270.0,6.552790346907997
231,2011-09-17,STORE_2_325,0.0,0,1,-0.15490195998574316,-0.2628073572952627,0.15490195998574316,0.12802981358544185,0.0,0.03571555226653452,,0.12802981358544185,0.0,3.933333333333333,20.0,3.0,0.0,0.0,20.0,0.0,0.0,0.04699656267622356,0.12802981358544185,0.12802981358544185,4.841301709994019,270.0,6.5496229260935195
232,2011-09-18,STORE_2_325,8.0,0,1,0.08940041122931089,0.24430237121505405,0.0,0.0,0.0,0.06871581236945985,,0.10914446942506804,0.0,3.987160493827168,20.0,3.088888888888889,0.0,0.0,20.0,0.0,0.0,0.06328599994615078,0.12802981358544185,0.12802981358544185,4.8590109606385425,278.0,6.546455505279042
233,2011-09-19,STORE_2_325,4.0,0,1,-0.04240384855308733,-0.1318042597823982,0.08940041122931089,0.13717319302531158,0.0,0.04699656267622356,,0.02413367971671936,0.0,3.977777777777774,20.0,3.1333333333333333,0.0,0.0,20.0,0.0,0.0,0.06328599994615078,0.12802981358544185,0.12802981358544185,4.8487227554842285,282.0,6.543288084464557
234,2011-09-20,STORE_2_325,0.0,0,1,-0.04699656267622356,-0.004592714123136235,0.04699656267622356,0.06871581236945985,0.0,0.10914446942506804,,0.0993846321359118,0.0,3.977777777777774,20.0,3.1333333333333333,0.0,0.0,20.0,0.0,0.0,0.06328599994615078,0.12802981358544185,0.12802981358544185,4.8487227554842285,282.0,6.540120663650079
235,2011-09-21,STORE_2_325,0.0,0,1,0.0,0.04699656267622356,0.0,0.12802981358544185,0.0,0.02413367971671936,,0.07918124604762482,0.0,3.977777777777774,20.0,3.1333333333333333,0.0,0.0,20.0,0.0,0.0,0.06328599994615078,0.12802981358544185,0.12802981358544185,4.8487227554842285,282.0,6.536953242835601
236,2011-09-22,STORE_2_325,1.0,0,1,0.012234456417011623,0.012234456417011623,0.0,0.04699656267622356,0.0,0.08940041122931089,,0.04699656267622356,0.0,3.9703703703703708,20.0,3.1444444444444444,0.0,0.0,20.0,0.0,0.0,0.06328599994615078,0.12802981358544185,0.12802981358544185,4.842603791932904,283.0,6.533785822021123
237,2011-09-23,STORE_2_325,12.000000000000004,0,1,0.11579535716843023,0.1035609007514186,0.012234456417011623,0.12802981358544185,0.0,0.04699656267622356,,0.15490195998574316,0.0,4.075308641975306,20.0,3.2777777777777777,0.0,0.0,20.0,0.0,0.0,0.06871581236945985,0.12802981358544185,0.12802981358544185,4.919641390460949,295.0,6.530618401206638
238,2011-09-24,STORE_2_325,8.0,0,1,-0.038629402356130965,-0.1544247595245612,0.12802981358544185,0.12802981358544185,0.0,0.0,,0.0,0.0,4.11703703703704,20.0,3.3666666666666667,0.0,0.0,20.0,0.0,0.0,0.06871581236945985,0.12802981358544185,0.12802981358544185,4.9320096412237096,303.0,6.52745098039216
239,2011-09-25,STORE_2_325,2.0,0,1,-0.06526673151259153,-0.026637329156460568,0.08940041122931089,0.10914446942506804,0.0,0.12802981358544185,,0.08940041122931089,0.0,4.101234567901244,20.0,3.388888888888889,0.0,0.0,20.0,0.0,0.0,0.06871581236945985,0.12802981358544185,0.12802981358544185,4.921163753030868,305.0,6.5242835595776825
240,2011-09-26,STORE_2_325,9.0,0,1,0.07525095241919244,0.140517683931784,0.02413367971671936,0.02413367971671936,0.0,0.10914446942506804,,0.04699656267622356,0.0,4.152592592592589,20.0,3.488888888888889,0.0,0.0,20.0,0.0,0.0,0.07656488762808358,0.12802981358544185,0.12802981358544185,4.942920131432213,314.0,6.521116138763205
241,2011-09-27,STORE_2_325,5.999999999999999,0,1,-0.030668819766451944,-0.10591977218564438,0.0993846321359118,0.0993846321359118,0.0,0.0,,0.0,0.0,4.15802469135802,20.0,3.5555555555555554,0.0,0.0,20.0,0.0,0.0,0.07656488762808358,0.12802981358544185,0.12802981358544185,4.9357924835530875,320.0,6.51794871794872
242,2011-09-28,STORE_2_325,6.999999999999999,0,1,0.010465433678164965,0.04113425344461691,0.06871581236945985,0.07918124604762482,0.0,0.146128035678238,,0.0,0.0,4.174074074074071,20.0,3.6333333333333333,0.0,0.0,20.0,0.0,0.0,0.07918124604762482,0.12802981358544185,0.12802981358544185,4.934287285032753,327.0,6.514781297134242
243,2011-09-29,STORE_2_325,5.999999999999999,0,1,-0.010465433678164965,-0.02093086735632993,0.07918124604762482,0.04699656267622356,0.0,0.06871581236945985,,0.012234456417011623,0.0,4.173333333333329,20.0,3.7,0.0,0.0,20.0,0.0,0.0,0.07918124604762482,0.12802981358544185,0.12802981358544185,4.925170390025765,333.0,6.511613876319764
244,2011-09-30,STORE_2_325,3.000000000000001,0,1,-0.03300026010292533,-0.022534826424760367,0.06871581236945985,0.15490195998574316,0.0,0.04699656267622356,,0.12802981358544185,0.0,4.146666666666672,20.0,3.7333333333333334,0.0,0.0,20.0,0.0,0.0,0.07918124604762482,0.12802981358544185,0.12802981358544185,4.909976086351061,336.0,6.508446455505286
245,2011-10-01,STORE_2_325,12.000000000000004,0,1,0.09231426131890733,0.12531452142183266,0.03571555226653452,0.0,0.0,0.12802981358544185,,0.08940041122931089,0.0,4.220740740740744,20.0,3.8666666666666667,0.0,0.0,20.0,0.0,0.0,0.08684561993388937,0.12802981358544185,0.12802981358544185,4.9700224944667575,348.0,6.505279034690801
246,2011-10-02,STORE_2_325,10.0,0,1,-0.01888534416037381,-0.11119960547928114,0.12802981358544185,0.08940041122931089,0.0,0.11868978733129844,,0.02413367971671936,0.0,4.263209876543203,20.0,3.977777777777778,0.5,0.0,20.0,0.0,0.006117228208505811,0.08940041122931089,0.12802981358544185,0.12802981358544185,4.994328868720882,358.0,6.502111613876323
247,2011-10-03,STORE_2_325,9.0,0,1,-0.009759837289156248,0.009125506871217562,0.10914446942506804,0.04699656267622356,0.0,0.12802981358544185,,0.0993846321359118,0.0,4.300246913580248,20.0,4.0777777777777775,1.5,0.0,20.0,0.0,0.01818406806686549,0.08940041122931089,0.12802981358544185,0.12802981358544185,5.003881140366577,367.0,6.4989441930618455
248,2011-10-04,STORE_2_325,12.000000000000004,0,1,0.028645181449530058,0.038405018738686306,0.0993846321359118,0.0,0.0,0.0,,0.06871581236945985,0.0,4.378518518518518,20.0,4.211111111111111,2.0,0.0,20.0,0.0,0.02413367971671936,0.09688857690926157,0.12802981358544185,0.12802981358544185,5.053632455843179,379.0,6.495776772247368
249,2011-10-05,STORE_2_325,0.0,0,1,-0.12802981358544185,-0.1566749950349719,0.12802981358544185,0.0,0.0,0.13717319302531158,,0.07918124604762482,0.0,4.378518518518518,20.0,4.211111111111111,2.0,0.0,20.0,0.0,0.02413367971671936,0.09688857690926157,0.12802981358544185,0.12802981358544185,5.053632455843179,379.0,6.492609351432883
250,2011-10-06,STORE_2_325,0.0,0,2,0.0,0.12802981358544185,0.0,0.012234456417011623,0.0,0.06871581236945985,,0.06871581236945985,0.0,4.378518518518518,20.0,4.211111111111111,2.0,0.0,20.0,0.0,0.02413367971671936,0.09688857690926157,0.12802981358544185,0.12802981358544185,5.0536324558431795,379.0,11.964900061248613
251,2011-10-07,STORE_2_325,12.000000000000004,0,2,0.12802981358544185,0.12802981358544185,0.0,0.12802981358544185,0.0,0.12802981358544185,,0.03571555226653452,0.0,4.450864197530861,20.0,4.344444444444444,2.0,0.0,20.0,0.0,0.02413367971671936,0.0993846321359118,0.12802981358544185,0.12802981358544185,5.099374517958743,391.0,11.962814675511776
252,2011-10-08,STORE_2_325,18.0,0,2,0.05217801166507155,-0.0758518019203703,0.12802981358544185,0.08940041122931089,0.0,0.04699656267622356,,0.12802981358544185,0.0,4.598765432098758,20.0,4.544444444444444,2.0,0.0,20.0,0.0,0.02413367971671936,0.0993846321359118,0.12802981358544185,0.13305867227737017,5.276960972341983,409.0,11.960729289774939
253,2011-10-09,STORE_2_325,10.999999999999998,0,2,-0.061518037919214966,-0.11369604958428652,0.1802078252505134,0.02413367971671936,0.0,0.12802981358544185,,0.10914446942506804,0.0,4.644444444444451,20.0,4.666666666666667,2.5,0.0,20.0,0.0,0.029924615991626942,0.0993846321359118,0.12802981358544185,0.13305867227737017,5.297868980102952,420.0,11.958643904038098
254,2011-10-10,STORE_2_325,24.0,1,2,0.1080941799605701,0.16961221787978506,0.11868978733129844,0.0993846321359118,0.0,0.12802981358544185,,0.0993846321359118,0.0,4.854814814814816,24.0,4.933333333333334,3.0,0.0,24.0,0.0,0.03571555226653452,0.10670451010277898,0.12802981358544185,0.1420983564844211,5.6524827994212234,444.0,11.95655851830126
255,2011-10-11,STORE_2_325,12.000000000000004,0,2,-0.09875415370642668,-0.2068483336669968,0.22678396729186853,0.06871581236945985,0.0,0.10914446942506804,,0.12802981358544185,0.0,4.899259259259258,24.0,5.066666666666666,3.5,0.0,24.0,0.0,0.04135605747137904,0.10914446942506804,0.12802981358544185,0.1420983564844211,5.676286173115408,456.0,11.954473132564424
256,2011-10-12,STORE_2_325,24.999999999999986,0,2,0.10605339244792608,0.20480754615435276,0.12802981358544185,0.07918124604762482,0.0,0.02413367971671936,,0.0,0.0,5.101481481481479,25.0,5.344444444444444,4.0,0.0,25.0,0.0,0.04699656267622356,0.10914446942506804,0.12802981358544185,0.1509536940473658,6.0264605877729,481.0,11.952387746827586
257,2011-10-13,STORE_2_325,13.0,0,2,-0.09691001300805635,-0.20296340545598243,0.23408320603336794,0.06871581236945985,0.0,0.0993846321359118,,0.0,0.0,5.143209876543207,25.0,5.488888888888889,4.0,0.0,25.0,0.0,0.04699656267622356,0.10914446942506804,0.12802981358544185,0.1509536940473658,6.0526611186096595,494.0,11.950302361090746
258,2011-10-14,STORE_2_325,8.0,0,2,-0.047772781796000696,0.049137231212055654,0.13717319302531158,0.03571555226653452,0.0,0.07918124604762482,,0.12802981358544185,0.0,5.118024691358026,25.0,5.5777777777777775,4.0,0.0,25.0,0.0,0.04699656267622356,0.10914446942506804,0.12802981358544185,0.1509536940473658,6.029846696726007,502.0,11.948216975353908
259,2011-10-15,STORE_2_325,4.0,0,2,-0.04240384855308733,0.005368933242913369,0.08940041122931089,0.12802981358544185,0.0,0.04699656267622356,,0.1802078252505134,0.0,5.077530864197525,25.0,5.622222222222222,4.0,0.0,25.0,0.0,0.04699656267622356,0.10914446942506804,0.12802981358544185,0.1509536940473658,6.00295391289984,506.0,11.946131589617071
260,2011-10-16,STORE_2_325,22.0,0,2,0.1648102486459922,0.20721409719907952,0.04699656267622356,0.10914446942506804,0.0,0.15490195998574316,,0.11868978733129844,0.0,5.213333333333335,25.0,5.866666666666666,4.0,0.0,25.0,0.0,0.04699656267622356,0.11630345785474083,0.1289441515294289,0.1688201858813667,6.215601971263001,528.0,11.944046203880234
261,2011-10-17,STORE_2_325,14.0,0,2,-0.06567877564397775,-0.23048902428996995,0.21180681132221577,0.0993846321359118,0.0,0.0,,0.22678396729186853,0.0,5.247901234567906,25.0,6.022222222222222,4.0,0.0,25.0,0.0,0.04699656267622356,0.11868978733129844,0.13717319302531158,0.1688201858813667,6.242258626414899,542.0,11.941960818143396
262,2011-10-18,STORE_2_325,8.0,0,2,-0.05672762444892712,0.008951151195050633,0.146128035678238,0.12802981358544185,0.0,0.08940041122931089,,0.12802981358544185,0.0,5.214814814814807,25.0,6.111111111111111,4.0,0.0,25.0,0.0,0.04699656267622356,0.11868978733129844,0.13717319302531158,0.1688201858813667,6.212427639701471,550.0,11.939875432406556
263,2011-10-19,STORE_2_325,0.0,0,2,-0.08940041122931089,-0.03267278678038377,0.08940041122931089,0.0,0.0,0.04699656267622356,,0.23408320603336794,0.0,5.214814814814807,25.0,6.111111111111111,4.0,0.0,25.0,0.0,0.04699656267622356,0.11868978733129844,0.13717319302531158,0.1688201858813667,6.212427639701471,550.0,11.937790046669718
264,2011-10-20,STORE_2_325,0.0,0,2,0.0,0.08940041122931089,0.0,0.0,0.0,0.0,,0.13717319302531158,0.0,5.214814814814808,25.0,6.111111111111111,4.0,0.0,25.0,0.0,0.04699656267622356,0.11868978733129844,0.13717319302531158,0.1688201858813667,6.212427639701471,550.0,11.935704660932881
265,2011-10-21,STORE_2_325,0.0,0,2,0.0,0.0,0.0,0.12802981358544185,0.0,0.0,,0.08940041122931089,0.0,5.214814814814809,25.0,6.111111111111111,4.0,0.0,25.0,0.0,0.04699656267622356,0.11868978733129844,0.13717319302531158,0.1688201858813667,6.212427639701471,550.0,11.933619275196044
266,2011-10-22,STORE_2_325,4.0,0,2,0.04699656267622356,0.04699656267622356,0.0,0.1802078252505134,0.0,0.012234456417011623,,0.04699656267622356,0.0,5.176296296296299,25.0,6.155555555555556,4.0,0.0,25.0,0.0,0.04699656267622356,0.11868978733129844,0.13717319302531158,0.1688201858813667,6.182452717004998,554.0,11.931533889459207
267,2011-10-23,STORE_2_325,23.0,0,2,0.17236338653643807,0.1253668238602145,0.04699656267622356,0.11868978733129844,0.0,0.12802981358544185,,0.21180681132221577,0.0,5.323456790123454,25.0,6.411111111111111,5.0,0.0,25.0,0.0,0.057856187522841704,0.11868978733129844,0.1380686772906043,0.18905557619191352,6.396794218954554,577.0,11.929448503722366
268,2011-10-24,STORE_2_325,9.0,0,2,-0.11997531707674984,-0.2923387036131879,0.21935994921266164,0.22678396729186853,0.0,0.08940041122931089,,0.146128035678238,0.0,5.289876543209878,25.0,6.511111111111111,6.0,0.0,25.0,0.0,0.06871581236945985,0.11868978733129844,0.1380686772906043,0.18905557619191352,6.365716539885143,586.0,11.927363117985529
269,2011-10-25,STORE_2_325,5.999999999999999,0,2,-0.030668819766451944,0.0893064973102979,0.0993846321359118,0.12802981358544185,0.0,0.02413367971671936,,0.08940041122931089,0.0,5.229135802469136,25.0,6.5777777777777775,6.0,0.0,25.0,0.0,0.06871581236945985,0.11868978733129844,0.1380686772906043,0.18905557619191352,6.328067986711623,592.0,11.925277732248691
270,2011-10-26,STORE_2_325,2.0,0,2,-0.0445821326527405,-0.013913312886288554,0.06871581236945985,0.23408320603336794,0.0,0.0993846321359118,,0.0,0.0,5.208888888888893,25.0,6.6,6.0,0.0,25.0,0.0,0.06871581236945985,0.11868978733129844,0.1380686772906043,0.18905557619191352,6.308189790024258,594.0,11.923192346511854
271,2011-10-27,STORE_2_325,0.0,0,2,-0.02413367971671936,0.020448452936021138,0.02413367971671936,0.13717319302531158,0.0,0.06871581236945985,,0.0,0.0,5.208888888888893,25.0,6.6,6.0,0.0,25.0,0.0,0.06871581236945985,0.11868978733129844,0.1380686772906043,0.18905557619191352,6.308189790024258,594.0,11.921106960775013
272,2011-10-28,STORE_2_325,0.0,0,2,0.0,0.02413367971671936,0.0,0.08940041122931089,0.0,0.07918124604762482,,0.0,0.0,5.208888888888892,25.0,6.6,6.0,0.0,25.0,0.0,0.06871581236945985,0.11868978733129844,0.1380686772906043,0.18905557619191352,6.308189790024258,594.0,11.919021575038176
273,2011-10-29,STORE_2_325,9.0,0,2,0.0993846321359118,0.0993846321359118,0.0,0.04699656267622356,0.0,0.06871581236945985,,0.04699656267622356,0.0,5.168888888888888,25.0,6.7,6.0,0.0,25.0,0.0,0.06871581236945985,0.11868978733129844,0.1380686772906043,0.18905557619191352,6.273629489083023,603.0,11.916936189301339
274,2011-10-30,STORE_2_325,15.0,0,2,0.05551732784983136,-0.04386730428608043,0.0993846321359118,0.21180681132221577,0.0,0.03571555226653452,,0.21935994921266164,0.0,5.194074074074075,25.0,6.866666666666666,6.0,0.0,25.0,0.0,0.06871581236945985,0.125694807021906,0.146128035678238,0.18905557619191352,6.2928530890209124,618.0,11.914850803564502
275,2011-10-31,STORE_2_325,8.0,0,2,-0.06550154875643227,-0.12101887660626363,0.15490195998574316,0.146128035678238,0.0,0.12802981358544185,,0.0993846321359118,0.0,5.132345679012348,25.0,6.955555555555556,6.0,0.0,25.0,0.0030586141042529057,0.06871581236945985,0.125694807021906,0.146128035678238,0.18905557619191352,6.251132232025826,626.0,11.912765417827664
276,2011-11-01,STORE_2_325,22.0,0,2,0.12240640009290488,0.18790794884933715,0.08940041122931089,0.08940041122931089,0.0,0.10914446942506804,,0.06871581236945985,0.0,5.231111111111111,25.0,7.2,6.5,0.0,25.0,0.015209262241938557,0.07394852920854234,0.12802981358544185,0.1470054281089886,0.20482633654200433,6.404352452596488,648.0,11.910680032090823
277,2011-11-02,STORE_2_325,19.0,0,2,-0.023481095849522904,-0.14588749594242778,0.21180681132221577,0.0,0.0,0.0993846321359118,,0.02413367971671936,0.0,5.286913580246913,25.0,7.411111111111111,7.0,0.0,25.0,0.02413367971671936,0.07918124604762482,0.12802981358544185,0.15490195998574316,0.20482633654200433,6.477089172214552,667.0,11.908594646353986
278,2011-11-03,STORE_2_325,10.0,0,2,-0.07918124604762482,-0.055700150198101914,0.18832571547269286,0.0,0.0,0.12802981358544185,,0.0,0.0,5.233333333333335,25.0,7.522222222222222,7.5,0.0,25.0,0.02413367971671936,0.08429082863846785,0.12802981358544185,0.15490195998574316,0.20482633654200433,6.434157056578128,677.0,11.906509260617149
279,2011-11-04,STORE_2_325,12.000000000000004,0,2,0.01888534416037381,0.09806659020799863,0.10914446942506804,0.0,0.0,0.0,,0.0,0.0,5.196543209876543,25.0,7.655555555555556,8.0,0.0,25.0,0.02413367971671936,0.08940041122931089,0.12802981358544185,0.15490195998574316,0.20482633654200433,6.400774375748486,689.0,11.904423874880312
280,2011-11-05,STORE_2_325,12.000000000000004,0,2,0.0,-0.01888534416037381,0.12802981358544185,0.04699656267622356,0.0,0.0,,0.0993846321359118,0.0,5.153827160493827,25.0,7.788888888888889,8.0,0.0,25.0,0.02413367971671936,0.08940041122931089,0.12802981358544185,0.15490195998574316,0.20482633654200433,6.364392597379817,701.0,11.902338489143471
281,2011-11-06,STORE_2_325,17.0,0,2,0.04390548569908165,0.04390548569908165,0.12802981358544185,0.21935994921266164,0.0,0.12802981358544185,,0.15490195998574316,0.0,5.157037037037035,25.0,7.977777777777778,8.0,0.0,25.0,0.02702914785417315,0.08940041122931089,0.12802981358544185,0.15660529391562134,0.20482633654200433,6.38287346403856,718.0,11.900253103406634
282,2011-11-07,STORE_2_325,13.0,0,2,-0.03476210625921192,-0.07866759195829356,0.1719352992845235,0.0993846321359118,0.0,0.1802078252505134,,0.08940041122931089,0.0,5.127654320987652,25.0,8.122222222222222,8.0,0.0,25.0,0.03571555226653452,0.08940041122931089,0.12802981358544185,0.15660529391562134,0.20482633654200433,6.347303732228636,731.0,11.898167717669796
283,2011-11-08,STORE_2_325,10.999999999999998,0,2,-0.018483405694013147,0.01627870056519877,0.13717319302531158,0.06871581236945985,0.0,0.11868978733129844,,0.21180681132221577,0.0,5.072098765432101,25.0,8.244444444444444,8.0,0.0,25.0,0.03853580486895678,0.08940041122931089,0.12802981358544185,0.15660529391562134,0.20482633654200433,6.2948366769133655,742.0,11.89608233193296
284,2011-11-09,STORE_2_325,15.999999999999995,0,2,0.04481234441636227,0.06329575011037541,0.11868978733129844,0.02413367971671936,0.0,0.22678396729186853,,0.18832571547269286,0.0,5.066666666666666,25.0,8.422222222222222,8.5,0.0,25.0,0.04699656267622356,0.09439252168261134,0.12802981358544185,0.16434544850134705,0.20482633654200433,6.285309745887457,758.0,11.893996946196122
285,2011-11-10,STORE_2_325,10.0,0,2,-0.05435766232259266,-0.09917000673895493,0.1635021317476607,0.0,0.0,0.12802981358544185,,0.10914446942506804,0.0,4.98814814814815,25.0,8.533333333333333,9.0,0.0,25.0,0.04699656267622356,0.0993846321359118,0.12802981358544185,0.16434544850134705,0.20482633654200433,6.222828577553616,768.0,11.891911560459281
286,2011-11-11,STORE_2_325,9.0,1,2,-0.009759837289156248,0.044597825033436414,0.10914446942506804,0.0,0.0,0.23408320603336794,,0.12802981358544185,0.0993846321359118,4.98814814814815,25.0,8.533333333333333,9.0,0.0,25.0,0.04699656267622356,0.0993846321359118,0.12802981358544185,0.16434544850134705,0.20482633654200433,6.222828577553616,768.0,11.889826174722444
287,2011-11-12,STORE_2_325,22.0,0,2,0.11242217918630397,0.12218201647546022,0.0993846321359118,0.0993846321359118,0.0,0.13717319302531158,,0.12802981358544185,0.19629464514396822,5.0098765432098755,25.0,8.555555555555555,9.0,0.0,25.0,0.04699656267622356,0.0993846321359118,0.12802981358544185,0.16434544850134705,0.21180681132221577,6.267646747807815,770.0,11.887740788985607
288,2011-11-13,STORE_2_325,3.000000000000001,0,2,-0.17609125905568124,-0.2885134382419852,0.21180681132221577,0.15490195998574316,0.0,0.08940041122931089,,0.1719352992845235,0.04699656267622356,5.021234567901232,25.0,8.544444444444444,9.0,0.0,25.0,0.04699656267622356,0.0993846321359118,0.12802981358544185,0.16434544850134705,0.21180681132221577,6.276693309488149,769.0,11.88565540324877
289,2011-11-14,STORE_2_325,14.0,0,2,0.11041248341170348,0.28650374246738475,0.03571555226653452,0.08940041122931089,0.0,0.04699656267622356,,0.13717319302531158,0.11868978733129844,5.053827160493828,25.0,8.577777777777778,9.0,0.0,25.0,0.04699656267622356,0.0993846321359118,0.12802981358544185,0.16434544850134705,0.21180681132221577,6.297810887326991,772.0,11.883570017511932
290,2011-11-15,STORE_2_325,12.000000000000004,0,2,-0.018098222092796157,-0.12851070550449964,0.146128035678238,0.21180681132221577,0.0,0.21180681132221577,,0.11868978733129844,0.02413367971671936,5.0138271604938245,25.0,8.688888888888888,9.0,0.0,25.0,0.04699656267622356,0.0993846321359118,0.12802981358544185,0.16434544850134705,0.21180681132221577,6.2686027768580495,782.0,11.881484631775091
291,2011-11-16,STORE_2_325,12.000000000000004,0,2,0.0,0.018098222092796157,0.12802981358544185,0.18832571547269286,0.0,0.146128035678238,,0.1635021317476607,0.03571555226653452,4.980740740740741,25.0,8.78888888888889,9.0,0.0,25.0,0.04699656267622356,0.0993846321359118,0.12802981358544185,0.16434544850134705,0.21180681132221577,6.248585358005408,791.0,11.879399246038254
292,2011-11-17,STORE_2_325,4.999999999999999,0,2,-0.0700378666077551,-0.0700378666077551,0.12802981358544185,0.10914446942506804,0.0,0.08940041122931089,,0.10914446942506804,0.06871581236945985,4.992592592592592,25.0,8.777777777777779,9.0,0.0,25.0,0.04699656267622356,0.0993846321359118,0.12802981358544185,0.16434544850134705,0.21180681132221577,6.254486529509458,790.0,11.877313860301417
293,2011-11-18,STORE_2_325,10.0,0,2,0.05115252244738129,0.12119038905513639,0.057991946977686754,0.12802981358544185,0.0,0.0,,0.0993846321359118,0.04699656267622356,4.94716049382716,25.0,8.844444444444445,9.0,0.0,25.0,0.04699656267622356,0.0993846321359118,0.12802981358544185,0.16434544850134705,0.21180681132221577,6.234934401520269,796.0,11.87522847456458
294,2011-11-19,STORE_2_325,18.0,0,2,0.07106335582544536,0.01991083337806407,0.10914446942506804,0.12802981358544185,0.0,0.0,,0.21180681132221577,0.10914446942506804,5.028148148148148,25.0,8.933333333333334,9.0,0.0,25.0,0.04699656267622356,0.0993846321359118,0.12802981358544185,0.17276255188112255,0.21180681132221577,6.308189790024258,804.0,11.873143088827739
295,2011-11-20,STORE_2_325,13.0,0,2,-0.04303463222520182,-0.11409798805064718,0.1802078252505134,0.1719352992845235,0.0,0.0,,0.03571555226653452,0.02413367971671936,4.990123456790121,25.0,9.055555555555555,9.0,0.0,25.0,0.04699656267622356,0.0993846321359118,0.12802981358544185,0.17276255188112255,0.21180681132221577,6.278841070891036,815.0,11.871057703090901
296,2011-11-21,STORE_2_325,12.000000000000004,0,2,-0.009143379439869731,0.03389125278533209,0.13717319302531158,0.13717319302531158,0.0,0.04699656267622356,,0.146128035678238,0.08940041122931089,5.011111111111114,25.0,9.1,9.5,0.0,25.0,0.04699656267622356,0.10426455078048992,0.12802981358544185,0.17276255188112255,0.21180681132221577,6.285438852859338,819.0,11.868972317354064
297,2011-11-22,STORE_2_325,18.0,0,2,0.05217801166507155,0.06132139110494128,0.12802981358544185,0.11868978733129844,0.0,0.21935994921266164,,0.12802981358544185,0.04699656267622356,5.049876543209874,25.0,9.255555555555556,10.0,0.0,25.0,0.04699656267622356,0.10914446942506804,0.12802981358544185,0.1802078252505134,0.21180681132221577,6.330878688522549,833.0,11.866886931617227
298,2011-11-23,STORE_2_325,6.999999999999999,0,2,-0.10102657920288859,-0.15320459086796012,0.1802078252505134,0.1635021317476607,0.0,0.0993846321359118,,0.12802981358544185,0.0,4.97037037037037,25.0,9.333333333333334,10.0,0.0,25.0,0.04699656267622356,0.10914446942506804,0.12802981358544185,0.1802078252505134,0.21180681132221577,6.258477396766944,840.0,11.86480154588039
299,2011-11-24,STORE_2_325,5.999999999999999,1,2,-0.010465433678164965,0.09056114552472362,0.07918124604762482,0.10914446942506804,0.0,0.06871581236945985,,0.057991946977686754,0.12802981358544185,4.977777777777777,25.0,9.266666666666667,9.5,0.0,25.0,0.04699656267622356,0.10426455078048992,0.12802981358544185,0.1802078252505134,0.21180681132221577,6.26170813469016,834.0,11.862716160143549
300,2011-11-25,STORE_2_325,12.000000000000004,0,2,0.059314001215982,0.06977943489414697,0.06871581236945985,0.0993846321359118,0.0,0.02413367971671936,,0.10914446942506804,0.10914446942506804,5.0,25.0,9.28888888888889,9.5,0.0,25.0,0.04699656267622356,0.10426455078048992,0.12802981358544185,0.1802078252505134,0.21180681132221577,6.267885768741127,836.0,11.860630774406712
301,2011-11-26,STORE_2_325,10.0,0,2,-0.01888534416037381,-0.07819934537635581,0.12802981358544185,0.21180681132221577,0.0,0.0,,0.1802078252505134,0.0,4.90222222222222,25.0,9.4,10.0,0.0,25.0,0.04974540875158936,0.10914446942506804,0.12802981358544185,0.1802078252505134,0.21180681132221577,6.189516326786011,846.0,11.858545388669874
302,2011-11-27,STORE_2_325,15.0,0,2,0.045757490560675115,0.06464283472104893,0.10914446942506804,0.03571555226653452,0.0,0.0,,0.13717319302531158,0.146128035678238,4.913086419753085,25.0,9.411111111111111,10.0,0.0,25.0,0.04974540875158936,0.10914446942506804,0.12802981358544185,0.1802078252505134,0.21180681132221577,6.198757476880228,847.0,11.856460002933037
303,2011-11-28,STORE_2_325,15.0,0,2,0.0,-0.045757490560675115,0.15490195998574316,0.146128035678238,0.0,0.0993846321359118,,0.12802981358544185,0.06871581236945985,4.932839506172842,25.0,9.511111111111111,10.0,0.0,25.0,0.04974540875158936,0.10914446942506804,0.12802981358544185,0.1802078252505134,0.21180681132221577,6.215682313047304,856.0,11.8543746171962
304,2011-11-29,STORE_2_325,2.0,0,2,-0.1307682802690238,-0.1307682802690238,0.15490195998574316,0.12802981358544185,0.0,0.15490195998574316,,0.1802078252505134,0.04699656267622356,4.9560493827160474,25.0,9.488888888888889,10.0,0.0,25.0,0.04974540875158936,0.10914446942506804,0.12802981358544185,0.1802078252505134,0.21180681132221577,6.239137876997892,854.0,11.852289231459359
305,2011-11-30,STORE_2_325,4.999999999999999,0,2,0.0338582672609674,0.16462654752999117,0.02413367971671936,0.12802981358544185,0.0,0.08940041122931089,,0.07918124604762482,0.12802981358544185,4.979753086419751,25.0,9.411111111111111,10.0,0.0,25.0,0.04974540875158936,0.10914446942506804,0.12802981358544185,0.1802078252505134,0.21180681132221577,6.251102274834173,847.0,11.850203845722522
306,2011-12-01,STORE_2_325,24.0,0,2,0.16879202031418178,0.13493375305321437,0.057991946977686754,0.057991946977686754,0.0,0.21180681132221577,,0.06871581236945985,0.11868978733129844,5.120987654320985,25.0,9.555555555555555,10.0,0.0,25.0,0.04974540875158936,0.10914446942506804,0.13488734816534415,0.1802078252505134,0.21180681132221577,6.435699434869534,860.0,11.848118459985685
307,2011-12-02,STORE_2_325,9.0,0,2,-0.12739933515595675,-0.29619135547013853,0.22678396729186853,0.10914446942506804,0.0,0.18832571547269286,,0.12802981358544185,0.12802981358544185,5.1000000000000005,25.0,9.522222222222222,9.5,0.0,25.0,0.04974540875158936,0.10426455078048992,0.13488734816534415,0.1802078252505134,0.21180681132221577,6.430663512304886,857.0,11.846033074248847
308,2011-12-03,STORE_2_325,10.999999999999998,0,2,0.019305155195386642,0.1467044903513434,0.0993846321359118,0.1802078252505134,0.0,0.10914446942506804,,0.10914446942506804,0.0,5.0079012345679015,25.0,9.644444444444444,10.0,0.0,25.0,0.057991946977686754,0.10914446942506804,0.13488734816534415,0.1802078252505134,0.21180681132221577,6.351698191240612,868.0,11.843947688512007
309,2011-12-04,STORE_2_325,19.999999999999996,0,2,0.07760485781266978,0.058299702617283136,0.11868978733129844,0.13717319302531158,0.0,0.12802981358544185,,0.15490195998574316,0.13717319302531158,5.083950617283951,25.0,9.722222222222221,10.0,0.0,25.0,0.057991946977686754,0.10914446942506804,0.13488734816534415,0.18101961427273142,0.21180681132221577,6.4355539432751225,875.0,11.84186230277517
310,2011-12-05,STORE_2_325,15.999999999999995,0,2,-0.03279251339630751,-0.11039737120897729,0.19629464514396822,0.12802981358544185,0.0,0.12802981358544185,,0.15490195998574316,0.06871581236945985,5.107407407407407,25.0,9.833333333333334,10.0,0.0,25.0,0.057991946977686754,0.10914446942506804,0.13717319302531158,0.18101961427273142,0.21180681132221577,6.456857690545382,885.0,11.839776917038332
311,2011-12-06,STORE_2_325,19.0,0,2,0.024823583725032156,0.057616097121339666,0.1635021317476607,0.1802078252505134,0.0,0.1719352992845235,,0.02413367971671936,0.12802981358544185,5.181728395061727,25.0,9.911111111111111,10.0,0.0,25.0,0.057991946977686754,0.10914446942506804,0.13717319302531158,0.18832571547269286,0.21180681132221577,6.525050164591607,892.0,11.837691531301495
312,2011-12-07,STORE_2_325,13.0,0,2,-0.05115252244738128,-0.07597610617241343,0.18832571547269286,0.07918124604762482,0.0,0.13717319302531158,,0.057991946977686754,0.04699656267622356,5.145185185185186,25.0,10.011111111111111,10.0,0.0,25.0,0.06067291332563003,0.10914446942506804,0.13717319302531158,0.18832571547269286,0.21180681132221577,6.502366802362001,901.0,11.835606145564658
313,2011-12-08,STORE_2_325,15.0,0,2,0.017728766960431575,0.06888128940781285,0.13717319302531158,0.06871581236945985,0.0,0.11868978733129844,,0.22678396729186853,0.12802981358544185,5.180740740740737,25.0,10.044444444444444,10.0,0.0,25.0,0.06067291332563003,0.10914446942506804,0.1438893250150064,0.18832571547269286,0.21180681132221577,6.520341741769611,904.0,11.833520759827817
314,2011-12-09,STORE_2_325,21.0,0,2,0.049218022670181605,0.03148925570975003,0.15490195998574316,0.12802981358544185,0.0,0.1635021317476607,,0.0993846321359118,0.12802981358544185,5.287407407407407,25.0,10.144444444444444,10.0,0.0,25.0,0.06067291332563003,0.10914446942506804,0.146128035678238,0.18912260843982046,0.21180681132221577,6.618939646759191,913.0,11.83143537409098
315,2011-12-10,STORE_2_325,15.999999999999995,0,2,-0.04061785090826406,-0.08983587357844566,0.20411998265592476,0.10914446942506804,0.0,0.10914446942506804,,0.11868978733129844,0.10914446942506804,5.353827160493827,25.0,10.21111111111111,10.0,0.0,25.0,0.06067291332563003,0.10914446942506804,0.15270847890886688,0.18912260843982046,0.21180681132221577,6.647622612032815,919.0,11.829349988354142
316,2011-12-11,STORE_2_325,12.000000000000004,0,2,-0.03547231816221885,0.005145532746045206,0.1635021317476607,0.15490195998574316,0.0,0.0993846321359118,,0.19629464514396822,0.02413367971671936,5.284938271604935,25.0,10.322222222222223,10.0,0.0,25.0,0.06871581236945985,0.10914446942506804,0.15270847890886688,0.18912260843982046,0.21180681132221577,6.59217748509597,929.0,11.827264602617305
317,2011-12-12,STORE_2_325,8.0,0,2,-0.038629402356130965,-0.003157084193912113,0.12802981358544185,0.15490195998574316,0.0,0.21180681132221577,,0.1635021317476607,0.0993846321359118,5.295802469135805,25.0,10.311111111111112,10.0,0.0,25.0,0.06871581236945985,0.10914446942506804,0.15270847890886688,0.18912260843982046,0.21180681132221577,6.595273153179001,928.0,11.825179216880468
318,2011-12-13,STORE_2_325,12.000000000000004,0,2,0.038629402356130965,0.07725880471226193,0.08940041122931089,0.02413367971671936,0.0,0.03571555226653452,,0.18832571547269286,0.07918124604762482,5.277777777777779,25.0,10.366666666666667,10.5,0.0,25.0,0.06871581236945985,0.11391712837818324,0.15270847890886688,0.18912260843982046,0.21180681132221577,6.588123464729305,933.0,11.823093831143627
319,2011-12-14,STORE_2_325,12.000000000000004,0,2,0.0,-0.038629402356130965,0.12802981358544185,0.057991946977686754,0.0,0.146128035678238,,0.13717319302531158,0.04699656267622356,5.223209876543213,25.0,10.455555555555556,11.0,0.0,25.0,0.06871581236945985,0.11868978733129844,0.15270847890886688,0.18912260843982046,0.21180681132221577,6.55514398081678,941.0,11.82100844540679
320,2011-12-15,STORE_2_325,6.999999999999999,0,2,-0.048848567537817036,-0.048848567537817036,0.12802981358544185,0.22678396729186853,0.0,0.12802981358544185,,0.15490195998574316,0.15490195998574316,5.211111111111112,25.0,10.366666666666667,10.5,0.0,25.0,0.06871581236945985,0.11391712837818324,0.146128035678238,0.18912260843982046,0.21180681132221577,6.547063841434588,933.0,11.818923059669952
321,2011-12-16,STORE_2_325,10.999999999999998,0,2,0.03950854128367362,0.08835710882149066,0.07918124604762482,0.0993846321359118,0.0,0.12802981358544185,,0.20411998265592476,0.0,5.100246913580246,25.0,10.488888888888889,11.0,0.0,25.0,0.06871581236945985,0.11868978733129844,0.146128035678238,0.18912260843982046,0.21180681132221577,6.45336676253452,944.0,11.816837673933115
322,2011-12-17,STORE_2_325,9.0,0,2,-0.019305155195386642,-0.05881369647906026,0.11868978733129844,0.11868978733129844,0.0,0.057991946977686754,,0.1635021317476607,0.08940041122931089,5.088888888888889,25.0,10.5,11.0,0.0,25.0,0.06871581236945985,0.11868978733129844,0.146128035678238,0.18912260843982046,0.21180681132221577,6.449893301094648,945.0,11.814752288196274
323,2011-12-18,STORE_2_325,8.0,0,2,-0.009984220906600907,0.009320934288785734,0.0993846321359118,0.19629464514396822,0.0,0.10914446942506804,,0.12802981358544185,0.04699656267622356,5.043456790123455,25.0,10.544444444444444,11.0,0.0,25.0,0.07133217078900109,0.11868978733129844,0.146128035678238,0.18912260843982046,0.21180681132221577,6.418304426432423,949.0,11.812666902459437
324,2011-12-19,STORE_2_325,12.000000000000004,0,2,0.038629402356130965,0.04861362326273187,0.08940041122931089,0.1635021317476607,0.0,0.1802078252505134,,0.08940041122931089,0.0,4.936543209876546,25.0,10.677777777777777,11.0,0.0,25.0,0.07918124604762482,0.11868978733129844,0.146128035678238,0.18912260843982046,0.21180681132221577,6.320695058099081,961.0,11.8105815167226
325,2011-12-20,STORE_2_325,6.999999999999999,0,2,-0.048848567537817036,-0.087477969893948,0.12802981358544185,0.18832571547269286,0.0,0.13717319302531158,,0.12802981358544185,0.0,4.855308641975307,25.0,10.755555555555556,11.0,0.0,25.0,0.07918124604762482,0.11868978733129844,0.146128035678238,0.18912260843982046,0.21180681132221577,6.230247188111304,968.0,11.808496130985763
326,2011-12-21,STORE_2_325,8.0,0,2,0.010219165181686071,0.05906773271950311,0.07918124604762482,0.13717319302531158,0.0,0.12802981358544185,,0.12802981358544185,0.012234456417011623,4.774074074074073,25.0,10.833333333333334,11.0,0.0,25.0,0.07918124604762482,0.11868978733129844,0.146128035678238,0.18912260843982046,0.21180681132221577,6.150271757949337,975.0,11.806410745248925
327,2011-12-22,STORE_2_325,10.999999999999998,0,2,0.02928937610198755,0.019070210920301478,0.08940041122931089,0.15490195998574316,0.0,0.1802078252505134,,0.07918124604762482,0.12802981358544185,4.763456790123454,25.0,10.822222222222223,11.0,0.0,25.0,0.07918124604762482,0.11868978733129844,0.146128035678238,0.18912260843982046,0.21180681132221577,6.149043549957661,974.0,11.804325359512085
328,2011-12-23,STORE_2_325,18.0,0,2,0.061518037919214966,0.032228661817227416,0.11868978733129844,0.20411998265592476,0.0,0.07918124604762482,,0.11868978733129844,0.08940041122931089,4.804444444444445,25.0,10.933333333333334,11.0,0.0,25.0,0.07918124604762482,0.11868978733129844,0.15270847890886688,0.18912260843982046,0.21180681132221577,6.187700740132654,984.0,11.802239973775247
329,2011-12-24,STORE_2_325,8.0,0,2,-0.09080741402120251,-0.15232545194041747,0.1802078252505134,0.1635021317476607,0.0,0.06871581236945985,,0.0993846321359118,0.02413367971671936,4.733333333333333,25.0,11.0,11.0,0.0,25.0,0.08173603734304634,0.11868978733129844,0.15270847890886688,0.18912260843982046,0.21180681132221577,6.122348084470184,990.0,11.80015458803841
330,2011-12-25,STORE_2_325,0.0,1,2,-0.08940041122931089,0.0014070027918916261,0.08940041122931089,0.12802981358544185,0.0,0.12802981358544185,,0.08940041122931089,0.0993846321359118,4.839999999999998,25.0,10.9,11.0,0.0,25.0,0.07918124604762482,0.11868978733129844,0.15270847890886688,0.18912260843982046,0.21180681132221577,6.227972418808404,981.0,11.798069202301573
331,2011-12-26,STORE_2_325,18.0,1,2,0.1802078252505134,0.2696082364798243,0.0,0.08940041122931089,0.0,0.10914446942506804,,0.12802981358544185,0.06871581236945985,4.856296296296299,25.0,11.033333333333333,11.0,0.0,25.0,0.08173603734304634,0.11868978733129844,0.15490195998574316,0.18912260843982046,0.21180681132221577,6.250303363424167,993.0,11.795983816564732
332,2011-12-27,STORE_2_325,6.999999999999999,0,2,-0.10102657920288859,-0.281234404453402,0.1802078252505134,0.12802981358544185,0.0,0.15490195998574316,,0.07918124604762482,0.07918124604762482,4.856296296296298,25.0,11.033333333333333,11.0,0.0,25.0,0.08173603734304634,0.11868978733129844,0.15490195998574316,0.18912260843982046,0.21180681132221577,6.250303363424167,993.0,11.793898430827895
333,2011-12-28,STORE_2_325,6.999999999999999,0,2,0.0,0.10102657920288859,0.07918124604762482,0.12802981358544185,0.0,0.15490195998574316,,0.08940041122931089,0.06871581236945985,4.845432098765429,25.0,11.044444444444444,11.0,0.0,25.0,0.08173603734304634,0.11868978733129844,0.15490195998574316,0.18912260843982046,0.21180681132221577,6.2421386264412915,994.0,11.791813045091057
334,2011-12-29,STORE_2_325,9.0,0,2,0.02020338608828698,0.02020338608828698,0.07918124604762482,0.07918124604762482,0.0,0.02413367971671936,,0.11868978733129844,0.03571555226653452,4.780246913580245,25.0,11.11111111111111,11.0,0.0,25.0,0.08940041122931089,0.11868978733129844,0.15490195998574316,0.18912260843982046,0.21180681132221577,6.18705506981745,1000.0,11.78972765935422
335,2011-12-30,STORE_2_325,14.0,0,2,0.046743403542326215,0.026540017454039236,0.0993846321359118,0.11868978733129844,0.0,0.057991946977686754,,0.1802078252505134,0.12802981358544185,4.8029629629629635,25.0,11.133333333333333,11.0,0.0,25.0,0.08940041122931089,0.11868978733129844,0.15490195998574316,0.18912260843982046,0.21180681132221577,6.193871563393951,1002.0,11.787642273617383
336,2011-12-31,STORE_2_325,10.999999999999998,0,2,-0.027438248346939573,-0.07418165188926579,0.146128035678238,0.0993846321359118,0.0,0.22678396729186853,,0.08940041122931089,0.10914446942506804,4.792098765432098,25.0,11.144444444444444,11.0,0.0,25.0,0.08940041122931089,0.11868978733129844,0.15490195998574316,0.18912260843982046,0.21180681132221577,6.192712482437508,1003.0,11.785556887880542
337,2012-01-01,STORE_2_325,12.000000000000004,1,2,0.009340026254143416,0.03677827460108299,0.11868978733129844,0.08940041122931089,0.0,0.0993846321359118,,0.0,0.0993846321359118,4.7777777777777795,25.0,11.177777777777777,11.5,0.0,25.0,0.08940041122931089,0.12335980045837014,0.15490195998574316,0.18912260843982046,0.21180681132221577,6.1891129091128905,1006.0,11.783471502143705
338,2012-01-02,STORE_2_325,10.0,1,2,-0.01888534416037381,-0.028225370414517226,0.12802981358544185,0.12802981358544185,0.0,0.11868978733129844,,0.1802078252505134,0.12802981358544185,4.781234567901235,25.0,11.155555555555555,11.0,0.0,25.0,0.08940041122931089,0.11868978733129844,0.15490195998574316,0.18912260843982046,0.21180681132221577,6.18971802576272,1004.0,11.781386116406868
339,2012-01-03,STORE_2_325,13.0,0,2,0.02802872360024354,0.04691406776061735,0.10914446942506804,0.07918124604762482,0.0,0.19629464514396822,,0.07918124604762482,0.0,4.677777777777778,25.0,11.3,11.5,0.0,25.0,0.08940041122931089,0.12335980045837014,0.15490195998574316,0.18912260843982046,0.21180681132221577,6.07712602092118,1017.0,11.77930073067003
340,2012-01-04,STORE_2_325,5.999999999999999,0,2,-0.06845738065585173,-0.09648610425609527,0.13717319302531158,0.08940041122931089,0.0,0.1635021317476607,,0.07918124604762482,0.0,4.611111111111111,25.0,11.366666666666667,11.5,0.0,25.0,0.08940041122931089,0.12335980045837014,0.15490195998574316,0.18912260843982046,0.21180681132221577,5.983967343538844,1023.0,11.777215344933193
341,2012-01-05,STORE_2_325,15.999999999999995,0,2,0.09478631937820085,0.16324370003405259,0.06871581236945985,0.11868978733129844,0.0,0.18832571547269286,,0.0993846321359118,0.12802981358544185,4.655555555555556,25.0,11.411111111111111,11.5,0.0,25.0,0.08940041122931089,0.12335980045837014,0.15490195998574316,0.18912260843982046,0.21180681132221577,6.003546600574398,1027.0,11.775129959196352
342,2012-01-06,STORE_2_325,14.0,0,2,-0.017374096069422695,-0.11216041544762355,0.1635021317476607,0.1802078252505134,0.0,0.13717319302531158,,0.146128035678238,0.1802078252505134,4.611111111111111,25.0,11.366666666666667,11.5,0.0,25.0,0.08940041122931089,0.12335980045837014,0.15490195998574316,0.18912260843982046,0.21180681132221577,5.968927029847194,1023.0,11.773044573459515
343,2012-01-07,STORE_2_325,22.0,0,2,0.06567877564397775,0.08305287171340045,0.146128035678238,0.08940041122931089,0.0,0.15490195998574316,,0.11868978733129844,0.11868978733129844,4.722469135802469,25.0,11.488888888888889,12.0,0.0,25.0,0.08940041122931089,0.12802981358544185,0.15490195998574316,0.19707717889516393,0.21180681132221577,6.073046815887808,1034.0,11.770959187722674
344,2012-01-08,STORE_2_325,19.999999999999996,0,2,-0.01551216617824755,-0.0811909418222253,0.21180681132221577,0.0,0.0,0.20411998265592476,,0.12802981358544185,0.22678396729186853,4.679012345679012,25.0,11.444444444444445,12.0,0.0,25.0,0.08940041122931089,0.12802981358544185,0.15490195998574316,0.19629464514396822,0.21180681132221577,5.994587654590123,1030.0,11.76887380198584
345,2012-01-09,STORE_2_325,15.999999999999995,0,2,-0.03279251339630751,-0.01728034721805996,0.19629464514396822,0.1802078252505134,0.0,0.1635021317476607,,0.10914446942506804,0.12802981358544185,4.722469135802469,25.0,11.488888888888889,12.0,0.0,25.0,0.08940041122931089,0.12802981358544185,0.15490195998574316,0.19629464514396822,0.21180681132221577,6.01355107273311,1034.0,11.766788416249
346,2012-01-10,STORE_2_325,6.999999999999999,0,2,-0.08432088570003589,-0.05152837230372838,0.1635021317476607,0.07918124604762482,0.0,0.12802981358544185,,0.13717319302531158,0.23408320603336794,4.622222222222222,24.0,11.28888888888889,11.5,0.0,24.0,0.08940041122931089,0.12335980045837014,0.15490195998574316,0.18912260843982046,0.21180681132221577,5.856417673377104,1016.0,11.764703030512166
347,2012-01-11,STORE_2_325,2.0,0,2,-0.05504756633090546,0.029273319369130427,0.07918124604762482,0.07918124604762482,0.0,0.08940041122931089,,0.06871581236945985,0.13717319302531158,4.703703703703706,24.0,11.166666666666666,11.0,0.0,24.0,0.08173603734304634,0.11868978733129844,0.15490195998574316,0.18912260843982046,0.21180681132221577,5.934568318217888,1005.0,11.762617644775325
348,2012-01-12,STORE_2_325,4.0,0,2,0.022862882959504203,0.07791044929040966,0.02413367971671936,0.0993846321359118,0.0,0.12802981358544185,,0.1635021317476607,0.08940041122931089,4.747160493827158,24.0,11.122222222222222,11.0,0.0,24.0,0.07918124604762482,0.11868978733129844,0.15490195998574316,0.18912260843982046,0.21180681132221577,5.973401300442641,1001.0,11.760532259038484
349,2012-01-13,STORE_2_325,10.0,0,2,0.06214790674884448,0.039285023789340276,0.04699656267622356,0.146128035678238,0.0,0.12802981358544185,,0.146128035678238,0.04699656267622356,4.681975308641973,24.0,11.188888888888888,11.0,0.0,24.0,0.08173603734304634,0.11868978733129844,0.15490195998574316,0.18912260843982046,0.21180681132221577,5.926316180449847,1007.0,11.75844687330165
350,2012-01-14,STORE_2_325,15.0,0,2,0.045757490560675115,-0.016390416188169367,0.10914446942506804,0.11868978733129844,0.0,0.07918124604762482,,0.21180681132221577,0.21180681132221577,4.602469135802467,24.0,11.11111111111111,11.0,0.0,24.0,0.08173603734304634,0.11868978733129844,0.15490195998574316,0.18832571547269286,0.2083477384223848,5.827953645610161,1000.0,11.75636148756481
351,2012-01-15,STORE_2_325,14.0,0,2,-0.008773924307505149,-0.054531414868180264,0.15490195998574316,0.12802981358544185,0.0,0.11868978733129844,,0.19629464514396822,0.146128035678238,4.602469135802467,24.0,11.11111111111111,11.0,0.0,24.0,0.08173603734304634,0.11868978733129844,0.15490195998574316,0.18832571547269286,0.2083477384223848,5.827953645610162,1000.0,11.754276101827976
352,2012-01-16,STORE_2_325,19.0,1,2,0.04219767979445485,0.05097160410196,0.146128035678238,0.10914446942506804,0.0,0.0993846321359118,,0.1635021317476607,0.08940041122931089,4.655555555555557,24.0,11.233333333333333,11.5,0.0,24.0,0.08173603734304634,0.12335980045837014,0.15490195998574316,0.18832571547269286,0.2083477384223848,5.877112338402445,1011.0,11.752190716091135
353,2012-01-17,STORE_2_325,12.000000000000004,0,2,-0.06029590188725101,-0.10249358168170586,0.18832571547269286,0.13717319302531158,0.0,0.08940041122931089,,0.07918124604762482,0.0,4.536296296296296,24.0,11.366666666666667,12.0,0.0,24.0,0.08940041122931089,0.12802981358544185,0.15490195998574316,0.18832571547269286,0.2083477384223848,5.754236348557137,1023.0,11.750105330354295
354,2012-01-18,STORE_2_325,10.999999999999998,0,2,-0.009340026254143416,0.05095587563310759,0.12802981358544185,0.06871581236945985,0.0,0.12802981358544185,,0.02413367971671936,0.0,4.411358024691359,24.0,11.488888888888889,12.0,0.0,24.0,0.08940041122931089,0.12802981358544185,0.15490195998574316,0.18832571547269286,0.2083477384223848,5.62547265318971,1034.0,11.748019944617461
355,2012-01-19,STORE_2_325,2.0,0,2,-0.09455610761457908,-0.08521608136043567,0.11868978733129844,0.1635021317476607,0.0,0.07918124604762482,,0.04699656267622356,0.0,4.388641975308642,24.0,11.511111111111111,12.0,0.0,24.0,0.08940041122931089,0.12802981358544185,0.15490195998574316,0.18832571547269286,0.2083477384223848,5.583371065890723,1036.0,11.74593455888062
356,2012-01-20,STORE_2_325,12.000000000000004,0,2,0.1038961338687225,0.1984522414833016,0.02413367971671936,0.146128035678238,0.0,0.08940041122931089,,0.10914446942506804,0.04699656267622356,4.306666666666667,24.0,11.6,12.0,0.0,24.0,0.08940041122931089,0.12802981358544185,0.15490195998574316,0.18832571547269286,0.2083477384223848,5.525833101051294,1044.0,11.743849173143786
357,2012-01-21,STORE_2_325,21.0,0,2,0.07609016907048291,-0.027805964798239588,0.12802981358544185,0.21180681132221577,0.0,0.11868978733129844,,0.15490195998574316,0.21935994921266164,4.2854320987654315,24.0,11.577777777777778,12.0,0.0,24.0,0.08940041122931089,0.12802981358544185,0.15490195998574316,0.18832571547269286,0.20411998265592476,5.483330771944806,1042.0,11.741763787406946
358,2012-01-22,STORE_2_325,14.0,0,2,-0.057991946977686754,-0.13408211604816966,0.20411998265592476,0.19629464514396822,0.0,0.1802078252505134,,0.146128035678238,0.0993846321359118,4.28,24.0,11.633333333333333,12.0,0.0,24.0,0.08940041122931089,0.12802981358544185,0.15490195998574316,0.18832571547269286,0.20411998265592476,5.4822491898649846,1047.0,11.739678401670105
359,2012-01-23,STORE_2_325,5.999999999999999,0,2,-0.07741222330877816,-0.019420276331091404,0.146128035678238,0.1635021317476607,0.0,0.08940041122931089,,0.18832571547269286,0.06871581236945985,4.28,24.0,11.633333333333333,12.0,0.0,24.0,0.08940041122931089,0.12802981358544185,0.15490195998574316,0.18832571547269286,0.20411998265592476,5.4822491898649846,1047.0,11.737593015933271
360,2012-01-24,STORE_2_325,9.0,0,2,0.030668819766451944,0.1080810430752301,0.06871581236945985,0.07918124604762482,0.0,0.0,,0.12802981358544185,0.02413367971671936,4.197037037037037,24.0,11.71111111111111,12.0,0.0,24.0,0.08940041122931089,0.12802981358544185,0.15490195998574316,0.18832571547269286,0.20411998265592476,5.392971798459199,1054.0,11.73550763019643
361,2012-01-25,STORE_2_325,17.0,0,2,0.0725506671486117,0.04188184738215976,0.0993846321359118,0.02413367971671936,0.0,0.1802078252505134,,0.11868978733129844,0.0,4.10888888888889,24.0,11.9,12.0,0.0,24.0,0.09189646645596111,0.12802981358544185,0.15490195998574316,0.18832571547269286,0.20411998265592476,5.274594611399699,1071.0,11.733422244459597
362,2012-01-26,STORE_2_325,9.0,0,2,-0.0725506671486117,-0.1451013342972234,0.1719352992845235,0.04699656267622356,0.0,0.07918124604762482,,0.02413367971671936,0.0,4.0,24.0,12.0,12.0,0.0,24.0,0.0993846321359118,0.12802981358544185,0.15490195998574316,0.18832571547269286,0.20411998265592476,5.129776480663951,1080.0,11.731336858722756
363,2012-01-27,STORE_2_325,5.999999999999999,0,2,-0.030668819766451944,0.04188184738215976,0.0993846321359118,0.10914446942506804,0.0,0.07918124604762482,,0.12802981358544185,0.0993846321359118,4.036296296296298,24.0,11.966666666666667,12.0,0.0,24.0,0.09189646645596111,0.12802981358544185,0.15490195998574316,0.18832571547269286,0.20411998265592476,5.159152443239517,1077.0,11.729251472985915
364,2012-01-28,STORE_2_325,12.000000000000004,0,2,0.059314001215982,0.08998282098243394,0.06871581236945985,0.15490195998574316,0.0,0.0993846321359118,,0.20411998265592476,0.15490195998574316,4.005925925925926,24.0,11.933333333333334,12.0,0.0,24.0,0.09189646645596111,0.12802981358544185,0.15490195998574316,0.18832571547269286,0.20411998265592476,5.149015396224971,1074.0,11.727166087249081
365,2012-01-29,STORE_2_325,15.0,0,2,0.026872146400301306,-0.032441854815680696,0.12802981358544185,0.146128035678238,0.0,0.146128035678238,0.0,0.146128035678238,0.08940041122931089,3.9911111111111124,24.0,12.011111111111111,12.0,0.0,24.0,0.0993846321359118,0.12802981358544185,0.15490195998574316,0.18832571547269286,0.20411998265592476,5.141797098607252,1081.0,11.72508070151224
366,2012-01-30,STORE_2_325,4.999999999999999,0,2,-0.0969100130080564,-0.12378215940835771,0.15490195998574316,0.18832571547269286,0.0,0.11868978733129844,0.0,0.06871581236945985,0.21180681132221577,3.9713580246913605,24.0,11.822222222222223,12.0,0.0,24.0,0.09189646645596111,0.12802981358544185,0.15490195998574316,0.18832571547269286,0.2005985807755443,5.082637945928105,1064.0,11.7229953157754
367,2012-01-31,STORE_2_325,10.0,0,2,0.05115252244738129,0.14806253545543768,0.057991946977686754,0.12802981358544185,0.0,0.12802981358544185,0.0,0.0993846321359118,0.18832571547269286,3.918518518518518,24.0,11.722222222222221,12.0,0.0,24.0,0.09189646645596111,0.12802981358544185,0.15490195998574316,0.18101961427273142,0.2005985807755443,5.02807349748687,1055.0,11.720909930038566
368,2012-02-01,STORE_2_325,2.0,0,2,-0.08501078970834869,-0.13616331215572997,0.10914446942506804,0.11868978733129844,0.0,0.10914446942506804,0.0,0.1719352992845235,0.10914446942506804,4.013333333333334,24.0,11.633333333333333,12.0,0.0,24.0,0.08940041122931089,0.12802981358544185,0.15490195998574316,0.18101961427273142,0.2005985807755443,5.128571652128031,1047.0,11.718824544301725
369,2012-02-02,STORE_2_325,0.0,0,2,-0.02413367971671936,0.06087710999162933,0.02413367971671936,0.02413367971671936,0.0,0.13717319302531158,0.0,0.0993846321359118,0.12802981358544185,4.144444444444445,24.0,11.5,12.0,0.0,24.0,0.08940041122931089,0.12802981358544185,0.15490195998574316,0.18101961427273142,0.2005985807755443,5.2728901739479515,1035.0,11.716739158564891
370,2012-02-03,STORE_2_325,13.0,0,2,0.13717319302531158,0.16130687274203095,0.0,0.12802981358544185,0.0,0.06871581236945985,0.0,0.06871581236945985,0.12802981358544185,4.1550617283950615,24.0,11.511111111111111,12.0,0.0,24.0,0.08940041122931089,0.12802981358544185,0.15490195998574316,0.18101961427273142,0.2005985807755443,5.2750088011949465,1036.0,11.71465377282805
371,2012-02-04,STORE_2_325,29.0,0,2,0.12493873660829993,-0.012234456417011652,0.13717319302531158,0.20411998265592476,0.0,0.1635021317476607,0.0,0.12802981358544185,0.1719352992845235,4.282469135802469,29.0,11.644444444444444,12.0,0.0,29.0,0.08940041122931089,0.12802981358544185,0.15490195998574316,0.18832571547269286,0.20411998265592476,5.559304602683524,1048.0,11.71256838709121
372,2012-02-05,STORE_2_325,15.999999999999995,0,2,-0.09860979788595081,-0.22354853449425074,0.2621119296336115,0.146128035678238,0.0,0.146128035678238,0.0,0.15490195998574316,0.13717319302531158,4.31432098765432,29.0,11.677777777777777,12.0,0.0,29.0,0.08940041122931089,0.12802981358544185,0.15490195998574316,0.18832571547269286,0.20411998265592476,5.576491139884334,1051.0,11.710483001354376
373,2012-02-06,STORE_2_325,12.000000000000004,0,2,-0.03547231816221885,0.06313747972373196,0.1635021317476607,0.06871581236945985,0.0,0.21180681132221577,0.0,0.057991946977686754,0.11868978733129844,4.309629629629631,29.0,11.688888888888888,12.0,0.0,29.0,0.08940041122931089,0.12802981358544185,0.15490195998574316,0.18832571547269286,0.20411998265592476,5.576121733160172,1052.0,11.708397615617535
374,2012-02-07,STORE_2_325,26.0,0,2,0.1132319770750495,0.14870429523726836,0.12802981358544185,0.0993846321359118,0.0,0.19629464514396822,0.0,0.10914446942506804,0.1635021317476607,4.413333333333333,29.0,11.8,12.0,0.0,29.0,0.08940041122931089,0.12802981358544185,0.15490195998574316,0.18912260843982046,0.2083477384223848,5.759603606834863,1062.0,11.706312229880702
375,2012-02-08,STORE_2_325,10.999999999999998,0,2,-0.12257200332919292,-0.23580398040424244,0.24126179066049136,0.1719352992845235,0.0,0.1635021317476607,0.0,0.02413367971671936,0.10914446942506804,4.401481481481478,29.0,11.811111111111112,12.0,0.0,29.0,0.08940041122931089,0.12802981358544185,0.15490195998574316,0.18912260843982046,0.2083477384223848,5.757056138407376,1063.0,11.70422684414386
376,2012-02-09,STORE_2_325,13.0,0,2,0.018483405694013147,0.14105540902320607,0.11868978733129844,0.0993846321359118,0.0993846321359118,0.07918124604762482,0.0,0.0,0.0993846321359118,4.379506172839506,29.0,11.855555555555556,12.0,0.0,29.0,0.08940041122931089,0.12802981358544185,0.15490195998574316,0.18912260843982046,0.2083477384223848,5.750546844755971,1067.0,11.70214145840702
377,2012-02-10,STORE_2_325,8.0,0,2,-0.047772781796000696,-0.06625618749001384,0.13717319302531158,0.06871581236945985,0.19629464514396822,0.02413367971671936,0.0,0.13717319302531158,0.21180681132221577,4.320000000000001,29.0,11.7,12.0,0.0,29.0,0.08940041122931089,0.12802981358544185,0.15490195998574316,0.18832571547269286,0.20411998265592476,5.6617184829144644,1053.0,11.700056072670186
378,2012-02-11,STORE_2_325,19.999999999999996,0,2,0.10689423391465733,0.15466701571065802,0.08940041122931089,0.12802981358544185,0.04699656267622356,0.04699656267622356,0.0,0.2621119296336115,0.03571555226653452,4.298765432098763,29.0,11.88888888888889,12.0,0.0,29.0,0.08940041122931089,0.12802981358544185,0.15490195998574316,0.18912260843982046,0.20411998265592476,5.651775985057124,1070.0,11.697970686933346
379,2012-02-12,STORE_2_325,21.0,0,2,0.007825337511956548,-0.09906889640270078,0.19629464514396822,0.15490195998574316,0.11868978733129844,0.10914446942506804,0.0,0.1635021317476607,0.146128035678238,4.369629629629631,29.0,11.966666666666667,12.0,0.0,29.0,0.08940041122931089,0.12802981358544185,0.15490195998574316,0.19629464514396822,0.20411998265592476,5.72879578302417,1077.0,11.695885301196512
380,2012-02-13,STORE_2_325,13.0,0,2,-0.06694678963061318,-0.07477212714256973,0.20411998265592476,0.057991946977686754,0.02413367971671936,0.15490195998574316,0.0,0.12802981358544185,0.12802981358544185,4.379753086419753,29.0,11.977777777777778,12.0,0.0,29.0,0.08940041122931089,0.12802981358544185,0.15490195998574316,0.19629464514396822,0.20411998265592476,5.729830826331352,1078.0,11.693799915459671
381,2012-02-14,STORE_2_325,12.000000000000004,0,2,-0.009143379439869731,0.05780341019074345,0.13717319302531158,0.10914446942506804,0.03571555226653452,0.146128035678238,0.0,0.24126179066049136,0.12802981358544185,4.379753086419753,29.0,11.977777777777778,12.0,0.0,29.0,0.08940041122931089,0.12802981358544185,0.15490195998574316,0.19629464514396822,0.20411998265592476,5.729830826331352,1078.0,11.69171452972283
382,2012-02-15,STORE_2_325,14.0,0,2,0.018098222092796157,0.027241601532665888,0.12802981358544185,0.02413367971671936,0.06871581236945985,0.18832571547269286,0.0,0.11868978733129844,0.057991946977686754,4.334320987654323,29.0,12.077777777777778,12.0,0.0,29.0,0.08940041122931089,0.12802981358544185,0.15490195998574316,0.19629464514396822,0.20411998265592476,5.685044005398798,1087.0,11.689629143985997
383,2012-02-16,STORE_2_325,9.0,0,2,-0.046743403542326215,-0.06484162563512237,0.146128035678238,0.0,0.04699656267622356,0.12802981358544185,0.0,0.13717319302531158,0.10914446942506804,4.343703703703703,29.0,12.066666666666666,12.0,0.0,29.0,0.08940041122931089,0.12802981358544185,0.15490195998574316,0.19629464514396822,0.20411998265592476,5.690125489818976,1086.0,11.687543758249156
384,2012-02-17,STORE_2_325,4.0,0,2,-0.052388069459688234,-0.00564466591736202,0.0993846321359118,0.13717319302531158,0.10914446942506804,0.11868978733129844,0.0,0.08940041122931089,0.1802078252505134,4.3634567901234576,29.0,11.911111111111111,12.0,0.0,29.0,0.08940041122931089,0.12802981358544185,0.15490195998574316,0.19629464514396822,0.20411998265592476,5.717397939709879,1072.0,11.685458372512322
385,2012-02-18,STORE_2_325,27.0,0,2,0.20132708247175463,0.25371515193144284,0.04699656267622356,0.2621119296336115,0.02413367971671936,0.02413367971671936,0.0,0.19629464514396822,0.13717319302531158,4.522962962962962,29.0,12.066666666666666,12.0,0.0,29.0,0.08940041122931089,0.12802981358544185,0.15490195998574316,0.19629464514396822,0.2083477384223848,5.933716269256978,1086.0,11.683372986775481
386,2012-02-19,STORE_2_325,14.0,0,2,-0.10219560946974018,-0.30352269194149484,0.2483236451479782,0.1635021317476607,0.08940041122931089,0.12802981358544185,0.0,0.20411998265592476,0.12802981358544185,4.547160493827163,29.0,12.088888888888889,12.0,0.0,29.0,0.08940041122931089,0.12802981358544185,0.15490195998574316,0.19629464514396822,0.2083477384223848,5.937207841553783,1088.0,11.68128760103864
387,2012-02-20,STORE_2_325,23.0,1,2,0.07323191353442363,0.1754275230041638,0.146128035678238,0.12802981358544185,0.04699656267622356,0.20411998265592476,0.0,0.13717319302531158,0.1802078252505134,4.611358024691358,29.0,12.144444444444444,12.0,0.0,29.0,0.08940041122931089,0.12802981358544185,0.15490195998574316,0.19707717889516393,0.21596103716196097,6.016010681452521,1093.0,11.679202215301807
388,2012-02-21,STORE_2_325,14.0,0,2,-0.07323191353442363,-0.14646382706884725,0.21935994921266164,0.24126179066049136,0.0,0.146128035678238,0.0,0.12802981358544185,0.07918124604762482,4.585185185185186,29.0,12.222222222222221,12.0,0.0,29.0,0.08940041122931089,0.12802981358544185,0.15490195998574316,0.19707717889516393,0.21596103716196097,5.99396283871198,1100.0,11.677116829564966
389,2012-02-22,STORE_2_325,4.999999999999999,0,2,-0.08813608870055126,-0.014904175166127631,0.146128035678238,0.11868978733129844,0.12802981358544185,0.06871581236945985,0.0,0.146128035678238,0.06871581236945985,4.594814814814814,29.0,12.21111111111111,12.0,0.0,29.0,0.08940041122931089,0.12802981358544185,0.15490195998574316,0.19707717889516393,0.21596103716196097,6.006540338784729,1099.0,11.675031443828125
390,2012-02-23,STORE_2_325,2.0,0,2,-0.0338582672609674,0.05427782143958386,0.057991946977686754,0.13717319302531158,0.10914446942506804,0.0993846321359118,0.0,0.0993846321359118,0.12802981358544185,4.691111111111113,29.0,12.1,12.0,0.0,29.0,0.08940041122931089,0.12802981358544185,0.15490195998574316,0.19707717889516393,0.21596103716196097,6.102219157952737,1089.0,11.672946058091291
391,2012-02-24,STORE_2_325,8.0,0,2,0.06526673151259153,0.09912499877355893,0.02413367971671936,0.08940041122931089,0.0,0.1719352992845235,0.0,0.04699656267622356,0.10914446942506804,4.710370370370371,29.0,12.077777777777778,12.0,0.0,29.0,0.08940041122931089,0.12802981358544185,0.15490195998574316,0.19707717889516393,0.21596103716196097,6.113583655974759,1087.0,11.67086067235445
392,2012-02-25,STORE_2_325,14.0,0,2,0.05672762444892712,-0.008539107063664411,0.08940041122931089,0.19629464514396822,0.146128035678238,0.0993846321359118,0.0,0.2483236451479782,0.15490195998574316,4.697777777777778,29.0,12.066666666666666,12.0,0.0,29.0,0.08940041122931089,0.12802981358544185,0.15490195998574316,0.19707717889516393,0.21596103716196097,6.109120093320047,1086.0,11.668775286617617
393,2012-02-26,STORE_2_325,31.000000000000007,0,2,0.12934785551335504,0.07262023106442791,0.146128035678238,0.20411998265592476,0.06871581236945985,0.06871581236945985,0.0,0.146128035678238,0.15490195998574316,4.899259259259262,31.0,12.244444444444444,12.0,0.0,31.0,0.08940041122931089,0.12802981358544185,0.16135208880718133,0.20411998265592476,0.2234431591562254,6.420317313575027,1102.0,11.666689900880776
394,2012-02-27,STORE_2_325,13.0,0,2,-0.13830269816628146,-0.2676505536796365,0.27547589119159305,0.13717319302531158,0.04699656267622356,0.12802981358544185,0.0,0.21935994921266164,0.02413367971671936,4.807407407407409,31.0,12.366666666666667,12.0,0.0,31.0,0.08940041122931089,0.12802981358544185,0.16135208880718133,0.20411998265592476,0.2234431591562254,6.327130808641696,1113.0,11.664604515143935
395,2012-02-28,STORE_2_325,4.0,0,2,-0.09017663034908802,0.048126067817193446,0.13717319302531158,0.12802981358544185,0.12802981358544185,0.15490195998574316,0.0,0.146128035678238,0.057991946977686754,4.817283950617284,31.0,12.355555555555556,12.0,0.0,31.0,0.08940041122931089,0.12802981358544185,0.16135208880718133,0.20411998265592476,0.2234431591562254,6.341075496470221,1112.0,11.662519129407102
396,2012-02-29,STORE_2_325,5.999999999999999,0,2,0.02171924969323629,0.11189588004232431,0.04699656267622356,0.146128035678238,0.11868978733129844,0.057991946977686754,0.0,0.057991946977686754,0.22678396729186853,4.731851851851853,31.0,12.155555555555555,12.0,0.0,31.0,0.08940041122931089,0.12802981358544185,0.15490195998574316,0.19707717889516393,0.21596103716196097,6.252929400879598,1094.0,11.66043374367026
397,2012-03-01,STORE_2_325,14.0,0,2,0.07741222330877816,0.05569297361554187,0.06871581236945985,0.0993846321359118,0.12802981358544185,0.10914446942506804,0.0,0.02413367971671936,0.0993846321359118,4.723456790123456,31.0,12.21111111111111,12.0,0.0,31.0,0.08940041122931089,0.12802981358544185,0.15490195998574316,0.19707717889516393,0.21596103716196097,6.246786939392704,1099.0,11.658348357933427
398,2012-03-02,STORE_2_325,10.999999999999998,0,2,-0.027438248346939573,-0.10485047165571773,0.146128035678238,0.04699656267622356,0.0,0.02413367971671936,0.0,0.08940041122931089,0.11868978733129844,4.723456790123456,31.0,12.21111111111111,12.0,0.0,31.0,0.08940041122931089,0.12802981358544185,0.15490195998574316,0.19707717889516393,0.21596103716196097,6.246786939392703,1099.0,11.656262972196586
399,2012-03-03,STORE_2_325,21.0,0,2,0.08543019532462633,0.1128684436715659,0.11868978733129844,0.2483236451479782,0.13717319302531158,0.0,0.0,0.146128035678238,0.19629464514396822,4.735802469135804,31.0,12.222222222222221,12.0,0.0,31.0,0.08940041122931089,0.12802981358544185,0.15490195998574316,0.20411998265592476,0.21596103716196097,6.261668259199354,1100.0,11.654177586459745
400,2012-03-04,STORE_2_325,43.0,0,2,-0.1420217123985799,-0.22745190772320623,0.20411998265592476,0.146128035678238,0.06871581236945985,0.13717319302531158,0.0,0.27547589119159305,0.1635021317476607,4.75411851851852,31.0,12.104222222222223,12.0,0.0,31.0,0.08940041122931089,0.12802981358544185,0.15490195998574316,0.20411998265592476,0.21596103716196097,6.289680147237758,1089.38,11.652092200722912
401,2012-03-05,STORE_2_325,13.0,0,2,0.07507492276796673,0.21709663516654665,0.062098270257344844,0.21935994921266164,0.12802981358544185,0.2621119296336115,0.0,0.13717319302531158,0.18832571547269286,4.678562962962966,31.0,12.037555555555556,12.0,0.0,31.0,0.08940041122931089,0.12802981358544185,0.15270847890886688,0.20411998265592476,0.21596103716196097,6.2474241543451035,1083.38,11.650006814986071
402,2012-03-06,STORE_2_325,23.0,0,2,0.08218675618735005,0.007111833419383318,0.13717319302531158,0.146128035678238,0.04699656267622356,0.1635021317476607,0.0,0.04699656267622356,0.13717319302531158,4.804488888888887,31.0,12.148666666666667,12.0,0.0,31.0,0.08940041122931089,0.12802981358544185,0.15490195998574316,0.20411998265592476,0.21935994921266164,6.352770995860206,1093.38,11.647921429249237
