soundwave-77/time-series-mts-hse/models/STORE_2_714/train_data.csv
index,timestamp,segment,target,holiday,target_change_points,target_diff_1,target_diff_2,target_lag_1,target_lag_14,target_lag_180,target_lag_30,target_lag_365,target_lag_7,target_lag_90,target_mad,target_max,target_mean,target_median,target_min,target_minmax_diff,target_q_0.25,target_q_0.50,target_q_0.75,target_q_0.90,target_q_0.95,target_std,target_sum,target_trend
0,2011-01-29,STORE_2_714,18.0,0,0,,,,,,,,,,0.0,18.0,18.0,18.0,18.0,0.0,0.08432088570003587,0.08432088570003587,0.08432088570003587,0.08432088570003587,0.08432088570003587,0.0,18.0,24.224864073020257
1,2011-01-30,STORE_2_714,17.0,0,0,-0.004278797979274981,,0.08432088570003587,,,,,,,0.5,18.0,17.5,17.5,17.0,1.0,0.08111178721557964,0.08218148671039838,0.08325118620521713,0.08389300590210838,0.08410694580107213,0.7071067811865476,35.0,24.21586980406184
2,2011-01-31,STORE_2_714,10.0,0,0,-0.031193520182943905,-0.026914722203668924,0.0800420877207609,,,,,,,3.3333333333333335,18.0,15.0,17.0,10.0,8.0,0.06444532762928894,0.0800420877207609,0.08218148671039838,0.08346512610418087,0.08389300590210838,4.358898943540674,45.0,24.206875535103393
3,2011-02-01,STORE_2_714,14.999999999999998,0,0,0.02250734099785124,0.053700861180795145,0.04884856753781699,,,,,,,2.5,18.0,15.0,16.0,10.0,8.0,0.06572907328620542,0.07569899812821457,0.08111178721557964,0.08303724630625338,0.08367906600314462,3.559026084010437,60.0,24.197881266144975
4,2011-02-02,STORE_2_714,6.999999999999993,0,0,-0.03659380227645631,-0.05910114327430755,0.07135590853566823,,,,,,,3.9200000000000004,18.0,13.4,15.0,7.0,11.0,0.04884856753781699,0.07135590853566823,0.0800420877207609,0.08260936650832588,0.08346512610418087,4.722287581247038,67.0,24.18888699718653
5,2011-02-03,STORE_2_714,13.000000000000002,0,0,0.027730341945151255,0.06432414422160757,0.03476210625921192,,,,,,,3.3333333333333335,18.0,13.333333333333334,14.0,7.0,11.0,0.05225953770445353,0.0669241783700157,0.07787054292448772,0.08218148671039838,0.08325118620521713,4.226897995772629,80.0,24.17989272822811
6,2011-02-04,STORE_2_714,24.000000000000004,0,0,0.04665202122070486,0.018921679275553605,0.06249244820436317,,,,,,,4.163265306122449,24.0,14.857142857142858,15.0,7.0,17.0,0.05567050787109008,0.07135590853566823,0.08218148671039838,0.09425031919004874,0.10169739430755836,5.5805785670356025,104.0,24.170898459269694
7,2011-02-05,STORE_2_714,30.0,0,0,0.023481095849522876,-0.023170925371181983,0.10914446942506803,,,,,0.08432088570003587,,5.5,30.0,16.75,16.0,7.0,23.0,0.05908147803772663,0.07569899812821457,0.0905267816312939,0.11618879817992489,0.12440718172725788,7.44023809142845,134.0,24.161904190311247
8,2011-02-06,STORE_2_714,30.0,0,0,0.0,-0.023481095849522876,0.1326255652745909,,,,,0.0800420877207609,,6.518518518518518,30.0,18.22222222222222,17.0,7.0,23.0,0.06249244820436317,0.0800420877207609,0.10914446942506803,0.1326255652745909,0.1326255652745909,8.242842012585493,164.0,24.15290992135283
9,2011-02-07,STORE_2_714,23.0,0,0,-0.027521073651262953,-0.027521073651262953,0.1326255652745909,,,,,0.04884856753781699,,6.440000000000002,30.0,18.7,17.5,7.0,23.0,0.06470831328718943,0.08218148671039838,0.10813447497463301,0.1326255652745909,0.1326255652745909,7.916929820187733,187.0,24.143915652394384
10,2011-02-08,STORE_2_714,15.999999999999998,0,0,-0.02938377768520964,-0.0018627040339466855,0.10510449162332795,,,,,0.07135590853566823,,6.033057851239669,30.0,18.454545454545453,17.0,7.0,23.0,0.0669241783700157,0.0800420877207609,0.10712448052419798,0.1326255652745909,0.1326255652745909,7.554649381190849,203.0,24.134921383435966
11,2011-02-09,STORE_2_714,12.0,0,0,-0.017728766960431575,0.011655010724778064,0.07572071393811831,,,,,0.03476210625921192,,5.902777777777779,30.0,17.916666666666668,16.5,7.0,23.0,0.06136732289769406,0.0778814008294396,0.10611448607376298,0.13027745568963864,0.1326255652745909,7.440165361472863,215.0,24.12592711447752
12,2011-02-10,STORE_2_714,15.999999999999998,0,0,0.017728766960431575,0.03545753392086315,0.05799194697768674,,,,,0.06249244820436317,,5.562130177514794,30.0,17.76923076923077,16.0,7.0,23.0,0.06249244820436317,0.07572071393811831,0.10510449162332795,0.12792934610468634,0.1326255652745909,7.143223433831608,231.0,24.116932845519102
13,2011-02-11,STORE_2_714,24.000000000000004,0,0,0.033423755486949716,0.01569498852651814,0.07572071393811831,,,,,0.10914446942506803,,5.704081632653064,30.0,18.214285714285715,16.5,7.0,23.0,0.06470831328718943,0.0778814008294396,0.10813447497463301,0.12558123651973407,0.1326255652745909,7.062126193550097,255.0,24.107938576560684
14,2011-02-12,STORE_2_714,36.0,0,0,0.0457574905606751,0.012333735073725385,0.10914446942506803,0.08432088570003587,,,,0.1326255652745909,,6.74666666666667,36.0,19.4,17.0,7.0,29.0,0.0669241783700157,0.0800420877207609,0.10914446942506803,0.1326255652745909,0.13930848368793655,8.209750300709517,291.0,24.09894430760224
15,2011-02-13,STORE_2_714,31.999999999999996,0,0,-0.014723256820706354,-0.060480747381381456,0.15490195998574313,0.0800420877207609,,,,0.1326255652745909,,7.2109375,36.0,20.1875,17.5,7.0,29.0,0.06914004345284197,0.08218148671039838,0.11501474338744874,0.13640213421981384,0.14385951737021335,8.534000624951153,323.0,24.08995003864382
16,2011-02-14,STORE_2_714,15.999999999999998,0,0,-0.06445798922691846,-0.04973473240621211,0.14017870316503678,0.04884856753781699,,,,0.10510449162332795,,6.989619377162629,36.0,19.941176470588236,17.0,7.0,29.0,0.07135590853566823,0.0800420877207609,0.10914446942506803,0.13564682043076925,0.14312335452917804,8.325192101652176,339.0,24.080955769685374
17,2011-02-15,STORE_2_714,14.999999999999998,0,0,-0.0043648054024500865,0.06009318382446838,0.07572071393811831,0.07135590853566823,,,,0.07572071393811831,,6.814814814814816,36.0,19.666666666666668,16.5,7.0,29.0,0.07135590853566823,0.0778814008294396,0.10914446942506803,0.13489150664172467,0.1423871916881427,8.16016147475757,354.0,24.071961500726957
18,2011-02-16,STORE_2_714,19.0,0,0,0.017202030107622307,0.021566835510072394,0.07135590853566823,0.03476210625921192,,,,0.05799194697768674,,6.481994459833796,36.0,19.63157894736842,17.0,7.0,29.0,0.07135590853566823,0.0800420877207609,0.10914446942506803,0.13413619285268008,0.14165102884710737,7.931726211976457,373.0,24.06296723176851
19,2011-02-17,STORE_2_714,12.0,0,0,-0.030565991665603795,-0.0477680217732261,0.08855793864329053,0.06249244820436317,,,,0.07572071393811831,,6.425,36.0,19.25,16.5,7.0,29.0,0.06914004345284197,0.0778814008294396,0.10914446942506803,0.1333808790636355,0.14091486600607211,7.906526284958322,385.0,24.053972962810093
20,2011-02-18,STORE_2_714,23.0,0,0,0.04711254464564121,0.07767853631124501,0.05799194697768674,0.10914446942506803,,,,0.10914446942506803,,6.340136054421767,36.0,19.428571428571427,17.0,7.0,29.0,0.07135590853566823,0.0800420877207609,0.10914446942506803,0.1326255652745909,0.14017870316503678,7.749654370173089,408.0,24.044978693851647
21,2011-02-19,STORE_2_714,33.99999999999999,0,0,0.04249822962091572,-0.004614315024725493,0.10510449162332795,0.1326255652745909,,,,0.15490195998574313,,6.834710743801653,36.0,20.09090909090909,17.5,7.0,29.0,0.07135590853566823,0.08218148671039838,0.10914446942506803,0.13942338937599222,0.14723152034028333,8.176092272503096,442.0,24.03598442489323
22,2011-02-20,STORE_2_714,37.0,0,0,0.01090336301032474,-0.03159486661059098,0.14760272124424367,0.1326255652745909,,,,0.14017870316503678,,7.368620037807186,37.0,20.82608695652174,18.0,7.0,30.0,0.07135590853566823,0.08432088570003587,0.12088501734982947,0.1461179176284023,0.15417203611159316,8.73161535566974,479.0,24.02699015593481
23,2011-02-21,STORE_2_714,18.0,1,0,-0.07418519855453254,-0.08508856156485728,0.1585060842545684,0.10510449162332795,,,,0.07572071393811831,,7.159722222222225,37.0,20.708333333333332,18.0,7.0,30.0,0.07135590853566823,0.08432088570003587,0.11501474338744874,0.1453755158204816,0.1538070741745182,8.5591505402706,497.0,24.017995886976365
24,2011-02-22,STORE_2_714,18.0,0,0,0.0,0.07418519855453254,0.08432088570003587,0.07572071393811831,,,,0.07135590853566823,,6.959999999999999,37.0,20.6,18.0,7.0,30.0,0.07135590853566823,0.08432088570003587,0.10914446942506803,0.14463311401256093,0.15344211223744322,8.396427811873332,515.0,24.009001618017948
25,2011-02-23,STORE_2_714,24.000000000000004,0,0,0.024823583725032156,0.024823583725032156,0.08432088570003587,0.05799194697768674,,,,0.08855793864329053,,6.843195266272189,37.0,20.73076923076923,18.0,7.0,30.0,0.07244710988628075,0.08432088570003587,0.10914446942506803,0.14389071220464023,0.15307715030036828,8.253763710248519,539.0,24.0000073490595
26,2011-02-24,STORE_2_714,10.0,0,0,-0.06029590188725104,-0.08511948561228319,0.10914446942506803,0.07572071393811831,,,,0.05799194697768674,,6.913580246913581,37.0,20.333333333333332,18.0,7.0,30.0,0.07135590853566823,0.08432088570003587,0.10914446942506803,0.14314831039671955,0.15271218836329328,8.352797780937282,549.0,23.991013080101084
27,2011-02-25,STORE_2_714,19.0,0,0,0.03970937110547355,0.10000527299272459,0.04884856753781699,0.10914446942506803,,,,0.10510449162332795,,6.70408163265306,37.0,20.285714285714285,18.0,7.0,30.0,0.07135590853566823,0.08432088570003587,0.10914446942506803,0.14240590858879884,0.1523472264262183,8.20052908346024,568.0,23.982018811142638
28,2011-02-26,STORE_2_714,20.999999999999996,0,0,0.008352074364765844,-0.0313572967407077,0.08855793864329053,0.15490195998574313,,,,0.14760272124424367,,6.501783590963141,37.0,20.310344827586206,18.0,7.0,30.0,0.07135590853566823,0.08432088570003587,0.10914446942506803,0.14166350678087816,0.15198226448914334,8.053851998870133,589.0,23.97302454218422
29,2011-02-27,STORE_2_714,18.0,0,0,-0.012589127308020504,-0.020941201672786347,0.09691001300805638,0.14017870316503678,,,,0.1585060842545684,,6.346666666666669,37.0,20.233333333333334,18.0,7.0,30.0,0.07244710988628075,0.08432088570003587,0.10914446942506803,0.14092110497295748,0.15161730255206834,7.925007705134221,607.0,23.964030273225802
30,2011-02-28,STORE_2_714,10.0,0,0,-0.03547231816221889,-0.022883190854198383,0.08432088570003587,0.07572071393811831,,0.08432088570003587,,0.08432088570003587,,6.397502601456815,37.0,19.903225806451612,18.0,7.0,30.0,0.07135590853566823,0.08432088570003587,0.10914446942506803,0.14017870316503678,0.1512523406149934,8.00564317095417,617.0,23.955036004267356
31,2011-03-01,STORE_2_714,13.000000000000002,0,0,0.013643880666546183,0.04911619882876507,0.04884856753781699,0.07135590853566823,,0.0800420877207609,,0.08432088570003587,,6.359375,37.0,19.6875,18.0,7.0,30.0,0.06914004345284197,0.08432088570003587,0.10914446942506803,0.13942338937599222,0.15088737867791843,7.9694477082288175,630.0,23.94604173530894
32,2011-03-02,STORE_2_714,14.999999999999998,0,0,0.008863460331305056,-0.004780420335241127,0.06249244820436317,0.08855793864329053,,0.04884856753781699,,0.10914446942506803,,6.269972451790636,37.0,19.545454545454547,18.0,7.0,30.0,0.07135590853566823,0.08432088570003587,0.10914446942506803,0.1386680755869476,0.15052241674084343,7.8862653910569,645.0,23.937047466350492
33,2011-03-03,STORE_2_714,33.99999999999999,0,0,0.07624681270857545,0.06738335237727039,0.07135590853566823,0.05799194697768674,,0.07135590853566823,,0.04884856753781699,,6.610726643598616,37.0,19.970588235294116,18.0,7.0,30.0,0.07135590853566823,0.08432088570003587,0.10914446942506803,0.1453755158204816,0.15015745480376846,8.151911075873455,679.0,23.928053197392074
34,2011-03-04,STORE_2_714,30.0,0,0,-0.014977155969652767,-0.09122396867822821,0.14760272124424367,0.10510449162332795,,0.03476210625921192,,0.08855793864329053,,6.765714285714286,37.0,20.257142857142856,18.0,7.0,30.0,0.07135590853566823,0.08432088570003587,0.10914446942506803,0.14463311401256093,0.1497924928666935,8.208112404426338,709.0,23.91905892843363
35,2011-03-05,STORE_2_714,28.000000000000004,0,0,-0.0076868286662909735,0.007290327303361793,0.1326255652745909,0.14760272124424367,,0.06249244820436317,,0.09691001300805638,,6.828703703703705,37.0,20.47222222222222,18.0,7.0,30.0,0.07135590853566823,0.08432088570003587,0.113093036220876,0.14389071220464023,0.14942753092961852,8.192282469708433,737.0,23.91006465947521
36,2011-03-06,STORE_2_714,25.0,0,0,-0.011791524729557995,-0.0041046960632670215,0.12493873660829993,0.1585060842545684,,0.10914446942506803,,0.08432088570003587,,6.7830533235938635,37.0,20.594594594594593,18.0,7.0,30.0,0.07135590853566823,0.08432088570003587,0.11314721187874194,0.14314831039671952,0.14906256899254353,8.11192352671691,762.0,23.901070390516793
37,2011-03-07,STORE_2_714,27.0,0,0,0.00789648084603381,0.019688005575591805,0.11314721187874194,0.08432088570003587,,0.1326255652745909,,0.04884856753781699,,6.790858725761773,37.0,20.763157894736842,18.5,7.0,30.0,0.07135590853566823,0.0864394121716632,0.1190695725132673,0.14240590858879887,0.14869760705546858,8.068739177860527,789.0,23.892076121558347
38,2011-03-08,STORE_2_714,22.0,0,0,-0.02001711352188719,-0.027913594367921,0.12104369272477575,0.08432088570003587,,0.1326255652745909,,0.06249244820436317,,6.650887573964496,37.0,20.794871794871796,19.0,7.0,30.0,0.07135590853566823,0.08855793864329053,0.11709545230175884,0.1416635067808782,0.14833264511839364,7.9643266711779335,811.0,23.88308185259993
39,2011-03-09,STORE_2_714,8.999999999999996,0,0,-0.05682291671083513,-0.03680580318894794,0.10102657920288856,0.10914446942506803,,0.10510449162332795,,0.07135590853566823,,6.75,37.0,20.5,18.5,7.0,30.0,0.07135590853566823,0.0864394121716632,0.11512133209025038,0.14092110497295748,0.14796768318131862,8.079730891685148,820.0,23.874087583641483
40,2011-03-10,STORE_2_714,8.999999999999996,0,0,0.0,0.05682291671083513,0.04420366249205343,0.04884856753781699,,0.07572071393811831,,0.14760272124424367,,6.831647828673412,37.0,20.21951219512195,18.0,7.0,30.0,0.07135590853566823,0.08432088570003587,0.11314721187874194,0.14017870316503678,0.14760272124424367,8.177750898388721,829.0,23.865093314683065
41,2011-03-11,STORE_2_714,17.0,0,0,0.03583842522870746,0.03583842522870746,0.04420366249205343,0.08855793864329053,,0.05799194697768674,,0.1326255652745909,,6.734693877551022,37.0,20.142857142857142,18.0,7.0,30.0,0.07135590853566823,0.08432088570003587,0.11214652626532345,0.1394233893759922,0.14760272124424367,8.092668855118578,846.0,23.85609904572462
42,2011-03-12,STORE_2_714,19.0,0,0,0.008515850922529641,-0.02732257430617782,0.0800420877207609,0.09691001300805638,,0.07572071393811831,,0.12493873660829993,,6.600324499729581,37.0,20.11627906976744,18.0,7.0,30.0,0.07135590853566823,0.08432088570003587,0.11114584065190498,0.13866807558694763,0.14760272124424367,7.997646386893433,865.0,23.8471047767662
43,2011-03-13,STORE_2_714,19.0,0,0,0.0,-0.008515850922529641,0.08855793864329053,0.08432088570003587,,0.10914446942506803,,0.11314721187874194,,6.4710743801652875,37.0,20.09090909090909,18.5,7.0,30.0,0.07135590853566823,0.0864394121716632,0.11014515503848651,0.13791276179790304,0.14760272124424367,7.905894715170275,884.0,23.838110507807755
44,2011-03-14,STORE_2_714,26.000000000000004,0,0,0.028555460453052822,0.028555460453052822,0.08855793864329053,0.04884856753781699,,0.15490195998574313,,0.12104369272477575,,6.479012345679013,37.0,20.22222222222222,19.0,7.0,30.0,0.07135590853566823,0.08855793864329053,0.11314721187874194,0.13715744800885843,0.14760272124424367,7.865022940753948,910.0,23.829116238849338
45,2011-03-15,STORE_2_714,11.0,0,0,-0.06366907986937725,-0.09222454032243008,0.11711339909634336,0.06249244820436317,,0.14017870316503678,,0.10102657920288856,,6.503780718336481,37.0,20.02173913043478,18.5,7.0,30.0,0.07135590853566823,0.0864394121716632,0.11214652626532345,0.13640213421981384,0.14760272124424367,7.895115593931853,921.0,23.82012196989092
46,2011-03-16,STORE_2_714,14.0,0,0,0.013502470403647097,0.07717155027302436,0.053444319226966096,0.07135590853566823,,0.07572071393811831,,0.04420366249205343,,6.468990493435945,37.0,19.893617021276597,18.0,7.0,30.0,0.06915134908314072,0.08432088570003587,0.11114584065190498,0.13564682043076925,0.14760272124424367,7.8580726770605045,935.0,23.811127700932474
47,2011-03-17,STORE_2_714,14.999999999999998,0,0,0.0044091189050550345,-0.009093351498592063,0.0669467896306132,0.14760272124424367,,0.07135590853566823,,0.04420366249205343,,6.414930555555557,37.0,19.791666666666668,18.0,7.0,30.0,0.07025362880940447,0.08432088570003587,0.11014515503848651,0.1348915066417247,0.14760272124424367,7.806048754851623,950.0,23.802133431974056
48,2011-03-18,STORE_2_714,12.0,0,0,-0.013363961557981488,-0.017773080463036522,0.07135590853566823,0.1326255652745909,,0.08855793864329053,,0.0800420877207609,,6.407330279050393,37.0,19.632653061224488,18.0,7.0,30.0,0.0669467896306132,0.08432088570003587,0.10914446942506803,0.1341361928526801,0.14760272124424367,7.804095819800386,962.0,23.79313916301561
49,2011-03-19,STORE_2_714,15.999999999999998,0,0,0.017728766960431575,0.031092728518413063,0.05799194697768674,0.12493873660829993,,0.05799194697768674,,0.08855793864329053,,6.3344000000000005,37.0,19.56,18.0,7.0,30.0,0.06804906935687695,0.08432088570003587,0.10914446942506803,0.1333808790636355,0.14760272124424367,7.741117358571932,978.0,23.784144894057192
50,2011-03-20,STORE_2_714,17.0,0,0,0.004321373782642579,-0.013407393177788995,0.07572071393811831,0.11314721187874194,,0.10510449162332795,,0.08855793864329053,,6.247597078046904,37.0,19.50980392156863,18.0,7.0,30.0,0.06915134908314072,0.08432088570003587,0.10914446942506803,0.1326255652745909,0.14760272124424367,7.671694855817997,995.0,23.775150625098746
51,2011-03-21,STORE_2_714,14.999999999999998,0,0,-0.008686179185092666,-0.013007552967735245,0.0800420877207609,0.12104369272477575,,0.14760272124424367,,0.11711339909634336,,6.190828402366863,37.0,19.423076923076923,18.0,7.0,30.0,0.07025362880940447,0.08432088570003587,0.10914446942506803,0.1326255652745909,0.14760272124424367,7.6218112042468285,1010.0,23.76615635614033
52,2011-03-22,STORE_2_714,2.9999999999999964,0,0,-0.05611594197893137,-0.0474297627938387,0.07135590853566823,0.10102657920288856,,0.1585060842545684,,0.053444319226966096,,6.296190815236738,37.0,19.11320754716981,18.0,3.0,34.0,0.0669467896306132,0.08432088570003587,0.10914446942506803,0.1326255652745909,0.14760272124424367,7.878061986785472,1013.0,23.75716208718191
53,2011-03-23,STORE_2_714,10.0,0,0,0.03360860098108013,0.0897245429600115,0.015239966556736859,0.04420366249205343,,0.08432088570003587,,0.0669467896306132,,6.306584362139919,37.0,18.944444444444443,17.5,3.0,34.0,0.06360603356092567,0.08218148671039838,0.10914446942506803,0.1326255652745909,0.14760272124424367,7.901317460402594,1023.0,23.748167818223465
54,2011-03-24,STORE_2_714,13.000000000000002,0,0,0.013643880666546183,-0.019964720314533946,0.04884856753781699,0.04420366249205343,,0.08432088570003587,,0.07135590853566823,,6.282314049586775,37.0,18.836363636363636,17.0,3.0,34.0,0.06249244820436317,0.0800420877207609,0.10914446942506803,0.1326255652745909,0.14760272124424367,7.868746514990283,1036.0,23.739173549265047
55,2011-03-25,STORE_2_714,12.0,0,0,-0.004500501226676432,-0.018144381893222615,0.06249244820436317,0.0800420877207609,,0.10914446942506803,,0.05799194697768674,,6.270408163265307,37.0,18.714285714285715,17.0,3.0,34.0,0.06249244820436317,0.0800420877207609,0.10914446942506803,0.1326255652745909,0.14760272124424367,7.85022127242118,1048.0,23.7301792803066
56,2011-03-26,STORE_2_714,13.000000000000002,0,0,0.004500501226676432,0.009001002453352863,0.05799194697768674,0.08855793864329053,,0.04884856753781699,,0.07572071393811831,,6.241305016928285,37.0,18.614035087719298,17.0,3.0,34.0,0.06249244820436317,0.0800420877207609,0.10914446942506803,0.1326255652745909,0.14760272124424367,7.816544692338059,1061.0,23.721185011348183
57,2011-03-27,STORE_2_714,13.000000000000002,0,0,0.0,-0.004500501226676432,0.06249244820436317,0.08855793864329053,,0.08855793864329053,,0.0800420877207609,,6.210463733650417,37.0,18.517241379310345,17.0,3.0,34.0,0.06249244820436317,0.0800420877207609,0.10813447497463301,0.1326255652745909,0.14760272124424367,7.782664900807288,1074.0,23.712190742389737
58,2011-03-28,STORE_2_714,8.999999999999996,0,0,-0.01828878571230974,-0.01828878571230974,0.06249244820436317,0.11711339909634336,,0.09691001300805638,,0.07135590853566823,,6.230968112611319,37.0,18.35593220338983,17.0,3.0,34.0,0.06249244820436317,0.0800420877207609,0.10712448052419798,0.1326255652745909,0.14760272124424367,7.814139950611209,1083.0,23.70319647343132
59,2011-03-29,STORE_2_714,14.0,0,0,0.022743127138559763,0.041031912850869504,0.04420366249205343,0.053444319226966096,,0.08432088570003587,,0.015239966556736859,,6.182777777777779,37.0,18.283333333333335,16.5,3.0,34.0,0.06249244820436317,0.0778814008294396,0.10611448607376298,0.1326255652745909,0.14760272124424367,7.768017146961008,1097.0,23.6942022044729
60,2011-03-30,STORE_2_714,15.999999999999998,0,0,0.008773924307505121,-0.013969202831054642,0.0669467896306132,0.0669467896306132,,0.04884856753781699,,0.04884856753781699,,6.109647944101048,37.0,18.24590163934426,16.0,3.0,34.0,0.06249244820436317,0.07572071393811831,0.10510449162332795,0.1326255652745909,0.14760272124424367,7.708557447635534,1113.0,23.685207935514455
61,2011-03-31,STORE_2_714,14.999999999999998,0,0,-0.0043648054024500865,-0.013138729709955208,0.07572071393811831,0.07135590853566823,,0.06249244820436317,,0.06249244820436317,,6.049947970863684,37.0,18.193548387096776,16.0,3.0,34.0,0.06249244820436317,0.07572071393811831,0.10510449162332795,0.1326255652745909,0.1472315203402833,7.65621725216666,1128.0,23.676213666556038
62,2011-04-01,STORE_2_714,33.99999999999999,0,0,0.07624681270857545,0.08061161811102553,0.07135590853566823,0.05799194697768674,,0.07135590853566823,,0.05799194697768674,,6.264550264550264,37.0,18.444444444444443,16.0,3.0,34.0,0.06249244820436317,0.07572071393811831,0.10712448052419798,0.1326255652745909,0.14760272124424367,7.850986742540151,1162.0,23.66721939759759
63,2011-04-02,STORE_2_714,27.0,0,0,-0.026559028519467925,-0.10280584122804337,0.14760272124424367,0.07572071393811831,,0.14760272124424367,,0.06249244820436317,,6.32958984375,37.0,18.578125,16.5,3.0,34.0,0.06249244820436317,0.0778814008294396,0.10914446942506803,0.1326255652745909,0.14760272124424367,7.861508978096916,1189.0,23.658225128639174
64,2011-04-03,STORE_2_714,39.0,0,0,0.04458213265274047,0.0711411611722084,0.12104369272477575,0.0800420877207609,,0.1326255652745909,,0.06249244820436317,,6.609230769230769,39.0,18.892307692307693,17.0,3.0,36.0,0.06249244820436317,0.0800420877207609,0.10914446942506803,0.13715744800885843,0.14760272124424367,8.200844234214314,1228.0,23.649230859680728
65,2011-04-04,STORE_2_714,30.0,0,0,-0.03300026010292531,-0.07758239275566578,0.16562582537751622,0.07135590853566823,,0.12493873660829993,,0.04420366249205343,,6.715335169880625,39.0,19.060606060606062,17.0,3.0,36.0,0.06249244820436317,0.0800420877207609,0.10914446942506803,0.13640213421981384,0.14760272124424367,8.251580338854982,1258.0,23.64023659072231
66,2011-04-05,STORE_2_714,25.0,0,0,-0.01947835339584897,0.013521906707076342,0.1326255652745909,0.015239966556736859,,0.11314721187874194,,0.0669467896306132,,6.7288928491869,39.0,19.149253731343283,17.0,3.0,36.0,0.06249244820436317,0.0800420877207609,0.11114584065190498,0.13564682043076925,0.14760272124424367,8.220915180461475,1283.0,23.631242321763892
67,2011-04-06,STORE_2_714,15.999999999999998,0,0,-0.037426497940623624,-0.017948144544774655,0.11314721187874194,0.04884856753781699,,0.12104369272477575,,0.07572071393811831,,6.662629757785467,39.0,19.102941176470587,17.0,3.0,36.0,0.06249244820436317,0.0800420877207609,0.11014515503848651,0.1348915066417247,0.14760272124424367,8.16826715009335,1299.0,23.622248052805446
68,2011-04-07,STORE_2_714,19.0,0,0,0.01283722470517222,0.050263722645795844,0.07572071393811831,0.06249244820436317,,0.10102657920288856,,0.07135590853566823,,6.567107750472588,39.0,19.10144927536232,17.0,3.0,36.0,0.06249244820436317,0.0800420877207609,0.10914446942506803,0.1341361928526801,0.14760272124424367,8.10799338259733,1318.0,23.61325378384703
69,2011-04-08,STORE_2_714,17.0,0,0,-0.008515850922529641,-0.021353075627701862,0.08855793864329053,0.05799194697768674,,0.04420366249205343,,0.14760272124424367,,6.493877551020407,39.0,19.071428571428573,17.0,3.0,36.0,0.06249244820436317,0.0800420877207609,0.10914446942506803,0.1333808790636355,0.14760272124424367,8.052943342674855,1335.0,23.604259514888582
70,2011-04-09,STORE_2_714,30.0,0,0,0.05258347755383001,0.061099328476359654,0.0800420877207609,0.06249244820436317,,0.04420366249205343,,0.12104369272477575,,6.601864709383058,39.0,19.225352112676056,17.0,3.0,36.0,0.06249244820436317,0.0800420877207609,0.11114584065190498,0.1326255652745909,0.14760272124424367,8.099730477171256,1365.0,23.595265245930165
71,2011-04-10,STORE_2_714,29.0,0,0,-0.0038264078530528822,-0.056409885406882895,0.1326255652745909,0.06249244820436317,,0.0800420877207609,,0.16562582537751622,,6.68364197530864,39.0,19.36111111111111,17.0,3.0,36.0,0.06249244820436317,0.0800420877207609,0.11314721187874194,0.1326255652745909,0.14760272124424367,8.124568123829603,1394.0,23.58627097697172
72,2011-04-11,STORE_2_714,20.999999999999996,0,0,-0.031889144413481646,-0.028062736560428764,0.12879915742153802,0.04420366249205343,,0.08855793864329053,,0.1326255652745909,,6.62037905798461,39.0,19.383561643835616,17.0,3.0,36.0,0.06249244820436317,0.0800420877207609,0.11314721187874194,0.1326255652745909,0.14760272124424367,8.070230165013024,1415.0,23.5772767080133
73,2011-04-12,STORE_2_714,14.0,0,0,-0.029963223377443185,0.001925921036038461,0.09691001300805638,0.0669467896306132,,0.08855793864329053,,0.11314721187874194,,6.584002921840761,39.0,19.31081081081081,17.0,3.0,36.0,0.06360603356092567,0.0800420877207609,0.11214652626532345,0.1326255652745909,0.14760272124424367,8.03916044767382,1429.0,23.568282439054855
74,2011-04-13,STORE_2_714,20.000000000000004,0,0,0.02580726360628549,0.055770486983728676,0.0669467896306132,0.07572071393811831,,0.11711339909634336,,0.07572071393811831,,6.507733333333331,39.0,19.32,17.0,3.0,36.0,0.06471961891748818,0.0800420877207609,0.11114584065190498,0.1326255652745909,0.14760272124424367,7.985053605398093,1449.0,23.559288170096437
75,2011-04-14,STORE_2_714,5.0,0,0,-0.06764333265386757,-0.09345059626015306,0.09275405323689868,0.07135590853566823,,0.053444319226966096,,0.08855793864329053,,6.5609418282548475,39.0,19.13157894736842,17.0,3.0,36.0,0.06249244820436317,0.0800420877207609,0.11014515503848651,0.1326255652745909,0.14760272124424367,8.099945852104046,1454.0,23.55029390113802
76,2011-04-15,STORE_2_714,27.0,0,0,0.09593297214174465,0.16357630479561222,0.025110720583031106,0.14760272124424367,,0.0669467896306132,,0.0800420877207609,,6.603137122617642,39.0,19.233766233766232,17.0,3.0,36.0,0.06249244820436317,0.0800420877207609,0.11314721187874194,0.1326255652745909,0.14760272124424367,8.09628911730245,1481.0,23.541299632179573
77,2011-04-16,STORE_2_714,30.0,0,0,0.011581872549815159,-0.08435109959192949,0.12104369272477575,0.12104369272477575,,0.07135590853566823,,0.1326255652745909,,6.688362919132149,39.0,19.371794871794872,17.5,3.0,36.0,0.06360603356092567,0.08218148671039838,0.11314721187874194,0.1326255652745909,0.14760272124424367,8.135394808160738,1511.0,23.532305363221155
78,2011-04-17,STORE_2_714,35.0,0,0,0.018642110056058175,0.007060237506243017,0.1326255652745909,0.16562582537751622,,0.05799194697768674,,0.12879915742153802,,6.844095497516419,39.0,19.569620253164558,18.0,3.0,36.0,0.06471961891748818,0.08432088570003587,0.11513030548754265,0.1341361928526801,0.1479692166528842,8.272108750933882,1546.0,23.52331109426271
79,2011-04-18,STORE_2_714,18.0,0,0,-0.06694678963061321,-0.08558889968667138,0.15126767533064908,0.1326255652745909,,0.07572071393811831,,0.09691001300805638,,6.7737500000000015,39.0,19.55,18.0,3.0,36.0,0.06583320427405069,0.08432088570003587,0.1141387586831423,0.13338087906363555,0.14778596894856394,8.221460032335566,1564.0,23.51431682530429
80,2011-04-19,STORE_2_714,18.0,0,0,0.0,0.06694678963061321,0.08432088570003587,0.11314721187874194,,0.0800420877207609,,0.0669467896306132,,6.704770614235633,39.0,19.530864197530864,18.0,3.0,36.0,0.0669467896306132,0.08432088570003587,0.11314721187874194,0.1326255652745909,0.14760272124424367,8.171729345360573,1582.0,23.505322556345845
81,2011-04-20,STORE_2_714,20.000000000000004,0,0,0.00843316753686281,0.00843316753686281,0.08432088570003587,0.07572071393811831,,0.07135590853566823,,0.09275405323689868,,6.62998215348007,39.0,19.536585365853657,18.0,3.0,36.0,0.0669467896306132,0.08432088570003587,0.11314721187874194,0.1326255652745909,0.14760272124424367,8.121295162097402,1602.0,23.496328287387428
82,2011-04-21,STORE_2_714,15.999999999999998,0,0,-0.01703333929878037,-0.02546650683564318,0.09275405323689868,0.08855793864329053,,0.015239966556736859,,0.025110720583031106,,6.582958339381622,39.0,19.49397590361446,18.0,3.0,36.0,0.0669467896306132,0.08432088570003587,0.11314721187874194,0.1326255652745909,0.14760272124424367,8.080952452279229,1618.0,23.48733401842901
83,2011-04-22,STORE_2_714,20.000000000000004,0,0,0.01703333929878037,0.03406667859756074,0.07572071393811831,0.0800420877207609,,0.04884856753781699,,0.12104369272477575,,6.511904761904762,39.0,19.5,18.0,3.0,36.0,0.0669467896306132,0.08432088570003587,0.11314721187874194,0.1326255652745909,0.14760272124424367,8.032314254880509,1638.0,23.478339749470564
84,2011-04-23,STORE_2_714,31.0,0,0,0.043664501054831314,0.026631161756050944,0.09275405323689868,0.1326255652745909,,0.06249244820436317,,0.1326255652745909,,6.597647058823526,39.0,19.63529411764706,18.0,3.0,36.0,0.0669467896306132,0.08432088570003587,0.11314721187874194,0.1349013586848744,0.14760272124424367,8.081205501219554,1669.0,23.469345480512146
85,2011-04-24,STORE_2_714,33.0,0,0,0.007488021392549948,-0.036176479662281366,0.13641855429173,0.12879915742153802,,0.05799194697768674,,0.15126767533064908,,6.705246078961601,39.0,19.790697674418606,18.0,3.0,36.0,0.0669467896306132,0.08432088570003587,0.116121852291943,0.1382986287283834,0.14760272124424367,8.161770683129644,1702.0,23.4603512115537
86,2011-04-25,STORE_2_714,19.0,0,0,-0.05534863704098941,-0.06283665843353936,0.14390657568427995,0.09691001300805638,,0.06249244820436317,,0.08432088570003587,,6.635486854274016,39.0,19.7816091954023,18.0,3.0,36.0,0.0669467896306132,0.08432088570003587,0.11513030548754265,0.13792261384105273,0.14760272124424367,8.114622585552638,1721.0,23.451356942595282
87,2011-04-26,STORE_2_714,20.999999999999996,0,0,0.008352074364765844,0.06370071140575526,0.08855793864329053,0.0669467896306132,,0.06249244820436317,,0.08432088570003587,,6.576446280991737,39.0,19.795454545454547,18.0,3.0,36.0,0.0669467896306132,0.08432088570003587,0.1141387586831423,0.137546598953722,0.14760272124424367,8.06889741774798,1742.0,23.442362673636836
88,2011-04-27,STORE_2_714,18.0,0,0,-0.012589127308020504,-0.020941201672786347,0.09691001300805638,0.09275405323689868,,0.04420366249205343,,0.09275405323689868,,6.5188738795606636,39.0,19.775280898876403,18.0,3.0,36.0,0.0669467896306132,0.08432088570003587,0.11314721187874194,0.13717058406639138,0.14760272124424367,8.025177439257204,1760.0,23.43336840467842
89,2011-04-28,STORE_2_714,14.999999999999998,0,0,-0.012964977164367647,-0.0003758498563471435,0.08432088570003587,0.025110720583031106,,0.0669467896306132,,0.07572071393811831,,6.488888888888888,39.0,19.72222222222222,18.0,3.0,36.0,0.06804906935687695,0.08432088570003587,0.11314721187874194,0.13679456917906072,0.14760272124424367,7.9958244408808925,1775.0,23.42437413572
90,2011-04-29,STORE_2_714,24.000000000000004,0,0,0.0377885608893998,0.05075353805376745,0.07135590853566823,0.12104369272477575,,0.07572071393811831,,0.09275405323689868,0.08432088570003587,6.529135802469137,39.0,19.788888888888888,18.0,3.0,36.0,0.06804906935687695,0.08432088570003587,0.11314721187874194,0.13679456917906072,0.14760272124424367,8.00630993351872,1781.0,23.415379866761555
91,2011-04-30,STORE_2_714,31.0,0,0,0.02727408486666197,-0.010514476022737834,0.10914446942506803,0.1326255652745909,,0.07135590853566823,,0.13641855429173,0.0800420877207609,6.646913580246917,39.0,19.944444444444443,18.0,3.0,36.0,0.06804906935687695,0.08432088570003587,0.116121852291943,0.13679456917906072,0.14760272124424367,8.087111553787036,1795.0,23.406385597803137
92,2011-05-01,STORE_2_714,46.0,0,0,0.05324551195322508,0.02597142708656311,0.13641855429173,0.15126767533064908,,0.14760272124424367,,0.14390657568427995,0.04884856753781699,6.90222222222222,46.0,20.344444444444445,18.5,3.0,43.0,0.07135590853566823,0.0864394121716632,0.12006111931766765,0.14055149041696113,0.14961844599176663,8.470916683758082,1831.0,23.39739132884469
93,2011-05-02,STORE_2_714,39.0,0,0,-0.02403824086743886,-0.07728375282066394,0.18966406624495508,0.08432088570003587,,0.12104369272477575,,0.08855793864329053,0.07135590853566823,7.097530864197527,46.0,20.61111111111111,19.0,3.0,43.0,0.07135590853566823,0.08855793864329053,0.12104369272477575,0.14427619024027635,0.1532665318909508,8.676060883801227,1855.0,23.388397059886273
94,2011-05-03,STORE_2_714,24.000000000000004,0,0,-0.05648135595244819,-0.03244311508500933,0.16562582537751622,0.08432088570003587,,0.16562582537751622,,0.09691001300805638,0.03476210625921192,7.013333333333336,46.0,20.8,19.0,3.0,43.0,0.07135590853566823,0.08855793864329053,0.12104369272477575,0.14427619024027635,0.1532665318909508,8.56068883083756,1872.0,23.379402790927827
95,2011-05-04,STORE_2_714,30.0,0,0,0.023481095849522876,0.07996245180197106,0.10914446942506803,0.09275405323689868,,0.1326255652745909,,0.08432088570003587,0.06249244820436317,7.054074074074071,46.0,20.988888888888887,19.0,3.0,43.0,0.07135590853566823,0.08855793864329053,0.12104369272477575,0.14427619024027635,0.1532665318909508,8.574189704493318,1889.0,23.37040852196941
96,2011-05-05,STORE_2_714,31.0,0,0,0.0037929890171390923,-0.019688106832383784,0.1326255652745909,0.07572071393811831,,0.11314721187874194,,0.07135590853566823,0.10914446942506803,7.146666666666666,46.0,21.066666666666666,19.0,3.0,43.0,0.07135590853566823,0.08855793864329053,0.12396497563741889,0.14427619024027635,0.1532665318909508,8.633355747371592,1896.0,23.361414253010963
97,2011-05-06,STORE_2_714,42.0,0,0,0.03967270476395121,0.03587971574681212,0.13641855429173,0.09275405323689868,,0.07572071393811831,,0.10914446942506803,0.1326255652745909,7.306666666666667,46.0,21.2,19.0,3.0,43.0,0.07135590853566823,0.08855793864329053,0.12396497563741889,0.14760272124424367,0.15688422833359703,8.862495146668296,1908.0,23.352419984052545
98,2011-05-07,STORE_2_714,39.0,0,0,-0.010465433678164993,-0.050138138442116204,0.1760912590556812,0.13641855429173,,0.08855793864329053,,0.13641855429173,0.1326255652745909,7.426666666666665,46.0,21.3,19.0,3.0,43.0,0.07135590853566823,0.08855793864329053,0.12396497563741889,0.14760272124424367,0.1624219418721897,9.012413411823603,1917.0,23.343425715094128
99,2011-05-08,STORE_2_714,31.999999999999996,0,0,-0.02544712221247944,-0.014981688534314447,0.16562582537751622,0.14390657568427995,,0.0800420877207609,,0.18966406624495508,0.10510449162332795,7.546666666666662,46.0,21.4,19.0,3.0,43.0,0.07135590853566823,0.08855793864329053,0.1278340522182285,0.14760272124424367,0.1624219418721897,9.081157180136081,1926.0,23.33443144613568
100,2011-05-09,STORE_2_714,23.0,0,0,-0.035074211541708825,-0.009627089329229385,0.14017870316503678,0.08855793864329053,,0.1326255652745909,,0.16562582537751622,0.07572071393811831,7.518271604938269,46.0,21.477777777777778,19.0,3.0,43.0,0.07135590853566823,0.08855793864329053,0.1278340522182285,0.14760272124424367,0.1624219418721897,9.064348954697977,1933.0,23.325437177177264
101,2011-05-10,STORE_2_714,17.0,0,0,-0.02506240390256706,0.010011807639141765,0.10510449162332795,0.09691001300805638,,0.12879915742153802,,0.10914446942506803,0.05799194697768674,7.472592592592593,46.0,21.533333333333335,19.0,3.0,43.0,0.07135590853566823,0.08855793864329053,0.1278340522182285,0.14760272124424367,0.1624219418721897,9.020824845815177,1938.0,23.316442908218818
102,2011-05-11,STORE_2_714,26.000000000000004,0,0,0.037071311375582464,0.06213371527814952,0.0800420877207609,0.08432088570003587,,0.09691001300805638,,0.1326255652745909,0.07572071393811831,7.478024691358021,46.0,21.644444444444446,19.0,3.0,43.0,0.07135590853566823,0.08855793864329053,0.1278340522182285,0.14760272124424367,0.1624219418721897,9.013486912238992,1948.0,23.3074486392604
103,2011-05-12,STORE_2_714,28.000000000000004,0,0,0.007825337511956576,-0.029245973863625888,0.11711339909634336,0.07135590853566823,,0.0669467896306132,,0.13641855429173,0.10914446942506803,7.529382716049378,46.0,21.68888888888889,19.0,3.0,43.0,0.07135590853566823,0.08855793864329053,0.1278340522182285,0.14760272124424367,0.1624219418721897,9.035068313284514,1952.0,23.298454370301954
104,2011-05-13,STORE_2_714,20.999999999999996,0,0,-0.028028723600243555,-0.03585406111220013,0.12493873660829993,0.10914446942506803,,0.09275405323689868,,0.1760912590556812,0.15490195998574313,7.348395061728398,46.0,21.522222222222222,19.0,3.0,43.0,0.07135590853566823,0.08855793864329053,0.12493873660829993,0.14760272124424367,0.1624219418721897,8.905531392806646,1937.0,23.289460101343536
105,2011-05-14,STORE_2_714,22.0,0,0,0.00411656619483218,0.032145289795075735,0.09691001300805638,0.13641855429173,,0.025110720583031106,,0.16562582537751622,0.14017870316503678,7.2175308641975295,46.0,21.41111111111111,19.0,3.0,43.0,0.07135590853566823,0.08855793864329053,0.12396497563741889,0.14760272124424367,0.1624219418721897,8.835442473095549,1927.0,23.28046583238512
106,2011-05-15,STORE_2_714,22.0,0,0,0.0,-0.00411656619483218,0.10102657920288856,0.18966406624495508,,0.12104369272477575,,0.14017870316503678,0.07572071393811831,7.174320987654317,46.0,21.477777777777778,19.5,3.0,43.0,0.07135590853566823,0.0906559959400946,0.12396497563741889,0.14760272124424367,0.1624219418721897,8.81677127300008,1933.0,23.271471563426672
107,2011-05-16,STORE_2_714,14.999999999999998,0,0,-0.02967067066722033,-0.02967067066722033,0.10102657920288856,0.16562582537751622,,0.1326255652745909,,0.10510449162332795,0.07135590853566823,7.174320987654318,46.0,21.477777777777778,19.5,3.0,43.0,0.07135590853566823,0.0906559959400946,0.12396497563741889,0.14760272124424367,0.1624219418721897,8.81677127300008,1933.0,23.262477294468255
108,2011-05-17,STORE_2_714,8.999999999999996,0,0,-0.027152246043614797,0.0025184246236055335,0.07135590853566823,0.10914446942506803,,0.15126767533064908,,0.0800420877207609,0.08855793864329053,7.268148148148149,46.0,21.366666666666667,19.5,3.0,43.0,0.07135590853566823,0.0906559959400946,0.12396497563741889,0.14760272124424367,0.1624219418721897,8.910856905287888,1923.0,23.25348302550981
109,2011-05-18,STORE_2_714,14.0,0,0,0.022743127138559763,0.04989537318217456,0.04420366249205343,0.1326255652745909,,0.08432088570003587,,0.11711339909634336,0.05799194697768674,7.2493827160493876,46.0,21.38888888888889,19.5,3.0,43.0,0.07135590853566823,0.0906559959400946,0.12396497563741889,0.14760272124424367,0.1624219418721897,8.889704238510399,1925.0,23.24448875655139
110,2011-05-19,STORE_2_714,15.999999999999998,0,0,0.008773924307505121,-0.013969202831054642,0.0669467896306132,0.13641855429173,,0.08432088570003587,,0.12493873660829993,0.10510449162332795,7.277530864197535,46.0,21.31111111111111,19.0,3.0,43.0,0.07135590853566823,0.08855793864329053,0.12396497563741889,0.14760272124424367,0.1624219418721897,8.906057078423919,1918.0,23.235494487592945
111,2011-05-20,STORE_2_714,26.000000000000004,0,0,0.04139268515822504,0.03261876085071992,0.07572071393811831,0.1760912590556812,,0.09275405323689868,,0.09691001300805638,0.14760272124424367,7.1728395061728385,46.0,21.22222222222222,19.0,3.0,43.0,0.07135590853566823,0.08855793864329053,0.12104369272477575,0.14427619024027635,0.1624219418721897,8.817472156517496,1910.0,23.226500218634527
112,2011-05-21,STORE_2_714,20.000000000000004,0,0,-0.024359345859444673,-0.06575203101766972,0.11711339909634336,0.16562582537751622,,0.07572071393811831,,0.10102657920288856,0.1585060842545684,6.973333333333337,46.0,21.033333333333335,19.0,3.0,43.0,0.07135590853566823,0.08855793864329053,0.12104369272477575,0.14055149041696113,0.15916465785642597,8.656296013547442,1893.0,23.21750594967611
113,2011-05-22,STORE_2_714,14.999999999999998,0,0,-0.021398144701230457,0.002961201158214216,0.09275405323689868,0.14017870316503678,,0.09275405323689868,,0.10102657920288856,0.08432088570003587,7.0,46.0,21.0,19.0,3.0,43.0,0.07135590853566823,0.08855793864329053,0.12104369272477575,0.14055149041696113,0.15916465785642597,8.67386621156793,1890.0,23.208511680717663
114,2011-05-23,STORE_2_714,15.999999999999998,0,0,0.0043648054024500865,0.025762950103680543,0.07135590853566823,0.10510449162332795,,0.13641855429173,,0.07135590853566823,0.08432088570003587,7.01975308641975,46.0,20.977777777777778,19.0,3.0,43.0,0.07135590853566823,0.08855793864329053,0.12104369272477575,0.14055149041696113,0.15916465785642597,8.684194318490253,1888.0,23.199517411759246
115,2011-05-24,STORE_2_714,12.0,0,0,-0.017728766960431575,-0.02209357236288166,0.07572071393811831,0.0800420877207609,,0.14390657568427995,,0.04420366249205343,0.10914446942506803,7.068148148148147,46.0,20.844444444444445,19.0,3.0,43.0,0.07135590853566823,0.08855793864329053,0.12104369272477575,0.14055149041696113,0.15916465785642597,8.72927543888324,1876.0,23.1905231428008
116,2011-05-25,STORE_2_714,14.999999999999998,0,0,0.013363961557981488,0.031092728518413063,0.05799194697768674,0.11711339909634336,,0.08855793864329053,,0.0669467896306132,0.04884856753781699,7.019999999999996,46.0,20.9,19.0,3.0,43.0,0.07135590853566823,0.08855793864329053,0.12104369272477575,0.14055149041696113,0.15916465785642597,8.675226254213648,1881.0,23.18152887384238
117,2011-05-26,STORE_2_714,8.0,0,0,-0.03184736725199462,-0.04521132880997611,0.07135590853566823,0.12493873660829993,,0.09691001300805638,,0.07572071393811831,0.08855793864329053,7.125925925925928,46.0,20.77777777777778,19.0,3.0,43.0,0.07135590853566823,0.08855793864329053,0.12104369272477575,0.14055149041696113,0.15916465785642597,8.77916043409565,1870.0,23.172534604883936
118,2011-05-27,STORE_2_714,17.0,0,0,0.04053354643708729,0.07238091368908191,0.03950854128367361,0.09691001300805638,,0.08432088570003587,,0.11711339909634336,0.09691001300805638,7.1585185185185205,46.0,20.733333333333334,19.0,3.0,43.0,0.07135590853566823,0.08855793864329053,0.12104369272477575,0.14055149041696113,0.15916465785642597,8.788143186939848,1866.0,23.163540335925518
119,2011-05-28,STORE_2_714,15.999999999999998,0,0,-0.004321373782642579,-0.044854920219729866,0.0800420877207609,0.10102657920288856,,0.07135590853566823,,0.09275405323689868,0.08432088570003587,7.177283950617284,46.0,20.711111111111112,19.0,3.0,43.0,0.07135590853566823,0.08855793864329053,0.12104369272477575,0.14055149041696113,0.15916465785642597,8.797656026496451,1864.0,23.15454606696707
120,2011-05-29,STORE_2_714,19.0,0,0,0.01283722470517222,0.0171585984878148,0.07572071393811831,0.10102657920288856,,0.10914446942506803,,0.07135590853566823,0.04884856753781699,7.092839506172844,46.0,20.81111111111111,19.0,3.0,43.0,0.07135590853566823,0.08855793864329053,0.12104369272477575,0.14055149041696113,0.15916465785642597,8.725391648844068,1873.0,23.145551798008654
121,2011-05-30,STORE_2_714,13.000000000000002,1,0,-0.026065490438927363,-0.038902715144099584,0.08855793864329053,0.07135590853566823,,0.13641855429173,,0.07572071393811831,0.06249244820436317,7.092839506172844,46.0,20.81111111111111,19.0,3.0,43.0,0.07135590853566823,0.08855793864329053,0.12104369272477575,0.14055149041696113,0.15916465785642597,8.725391648844068,1873.0,23.136557529050236
122,2011-05-31,STORE_2_714,8.999999999999996,0,0,-0.01828878571230974,0.007776704726617623,0.06249244820436317,0.04420366249205343,,0.18966406624495508,,0.05799194697768674,0.07135590853566823,7.149135802469137,46.0,20.744444444444444,19.0,3.0,43.0,0.07135590853566823,0.08855793864329053,0.12104369272477575,0.14055149041696113,0.15916465785642597,8.792950586974134,1867.0,23.12756326009179
123,2011-06-01,STORE_2_714,19.0,0,0,0.044354276151237104,0.06264306186354685,0.04420366249205343,0.0669467896306132,,0.16562582537751622,,0.07135590853566823,0.14760272124424367,6.991604938271605,46.0,20.57777777777778,19.0,3.0,43.0,0.07135590853566823,0.08855793864329053,0.12006111931766765,0.13679456917906072,0.15916465785642597,8.680311931662438,1852.0,23.118568991133372
124,2011-06-02,STORE_2_714,20.999999999999996,0,0,0.008352074364765844,-0.03600220178647126,0.08855793864329053,0.07572071393811831,,0.10914446942506803,,0.03950854128367361,0.1326255652745909,6.873827160493823,46.0,20.477777777777778,19.0,3.0,43.0,0.07135590853566823,0.08855793864329053,0.11711339909634336,0.13679456917906072,0.15916465785642597,8.622192137353077,1843.0,23.109574722174926
125,2011-06-03,STORE_2_714,20.999999999999996,0,0,0.0,-0.008352074364765844,0.09691001300805638,0.11711339909634336,,0.1326255652745909,,0.0800420877207609,0.12493873660829993,6.782222222222217,46.0,20.4,19.0,3.0,43.0,0.07135590853566823,0.08855793864329053,0.11711339909634336,0.13679456917906072,0.15916465785642597,8.585066731628642,1836.0,23.10058045321651
126,2011-06-04,STORE_2_714,31.0,0,0,0.03950854128367362,0.03950854128367362,0.09691001300805638,0.09275405323689868,,0.13641855429173,,0.07572071393811831,0.11314721187874194,6.860740740740742,46.0,20.466666666666665,19.0,3.0,43.0,0.07135590853566823,0.08855793864329053,0.11711339909634336,0.13679456917906072,0.15916465785642597,8.644281086684883,1842.0,23.091586184258063
127,2011-06-05,STORE_2_714,30.0,0,0,-0.0037929890171390923,-0.04330153030081271,0.13641855429173,0.07135590853566823,,0.1760912590556812,,0.08855793864329053,0.12104369272477575,6.9,46.0,20.5,19.0,3.0,43.0,0.07135590853566823,0.08855793864329053,0.11711339909634336,0.13679456917906072,0.15916465785642597,8.675485285782013,1845.0,23.082591915299645
128,2011-06-06,STORE_2_714,22.0,0,0,-0.03159898607170235,-0.027805997054563256,0.1326255652745909,0.07572071393811831,,0.16562582537751622,,0.06249244820436317,0.10102657920288856,6.9,46.0,20.5,19.0,3.0,43.0,0.07135590853566823,0.08855793864329053,0.11711339909634336,0.13679456917906072,0.15916465785642597,8.675485285782013,1845.0,23.073597646341227
129,2011-06-07,STORE_2_714,20.999999999999996,0,0,-0.00411656619483218,0.027482419876870168,0.10102657920288856,0.05799194697768674,,0.14017870316503678,,0.04420366249205343,0.04420366249205343,6.7985185185185175,46.0,20.633333333333333,19.0,3.0,43.0,0.07135590853566823,0.08855793864329053,0.11711339909634336,0.13679456917906072,0.15916465785642597,8.58853429569415,1857.0,23.06460337738278
130,2011-06-08,STORE_2_714,22.0,0,0,0.00411656619483218,0.00823313238966436,0.09691001300805638,0.07135590853566823,,0.10510449162332795,,0.08855793864329053,0.04420366249205343,6.70370370370371,46.0,20.77777777777778,19.0,3.0,43.0,0.07135590853566823,0.08855793864329053,0.11711339909634336,0.13679456917906072,0.15916465785642597,8.499541002514972,1870.0,23.055609108424363
131,2011-06-09,STORE_2_714,17.0,0,0,-0.020984491482127665,-0.025101057676959845,0.10102657920288856,0.03950854128367361,,0.0800420877207609,,0.09691001300805638,0.0800420877207609,6.70370370370371,46.0,20.77777777777778,19.0,3.0,43.0,0.07135590853566823,0.08855793864329053,0.11711339909634336,0.13679456917906072,0.15916465785642597,8.499541002514972,1870.0,23.046614839465917
132,2011-06-10,STORE_2_714,26.000000000000004,0,0,0.037071311375582464,0.05805580285771013,0.0800420877207609,0.0800420877207609,,0.11711339909634336,,0.09691001300805638,0.08855793864329053,6.750617283950623,46.0,20.855555555555554,19.0,3.0,43.0,0.07135590853566823,0.08855793864329053,0.11711339909634336,0.13679456917906072,0.15916465785642597,8.515103714043878,1877.0,23.0376205705075
133,2011-06-11,STORE_2_714,31.999999999999996,0,0,0.02306530406869342,-0.014006007306889043,0.11711339909634336,0.07572071393811831,,0.12493873660829993,,0.13641855429173,0.08855793864329053,6.866666666666666,46.0,21.0,19.5,3.0,43.0,0.07135590853566823,0.0906559959400946,0.12006111931766765,0.14017870316503678,0.15916465785642597,8.593177330255292,1890.0,23.028626301549053
134,2011-06-12,STORE_2_714,43.0,0,0,0.03934573172903838,0.01628042766034496,0.14017870316503678,0.08855793864329053,,0.09691001300805638,,0.1326255652745909,0.11711339909634336,7.097530864197528,46.0,21.18888888888889,19.5,3.0,43.0,0.07135590853566823,0.0906559959400946,0.12104369272477575,0.14055149041696113,0.16562582537751622,8.886164532568321,1907.0,23.019632032590636
135,2011-06-13,STORE_2_714,20.999999999999996,0,0,-0.08261442188601878,-0.12196015361505716,0.17952443489407516,0.06249244820436317,,0.10102657920288856,,0.10102657920288856,0.053444319226966096,7.011111111111104,46.0,21.3,20.0,3.0,43.0,0.07135590853566823,0.09275405323689868,0.12104369272477575,0.14055149041696113,0.16562582537751622,8.81960278348333,1917.0,23.010637763632218
136,2011-06-14,STORE_2_714,38.0,0,0,0.06517053160481015,0.14778495349082893,0.09691001300805638,0.04420366249205343,,0.10102657920288856,,0.09691001300805638,0.0669467896306132,7.168888888888897,46.0,21.566666666666666,20.0,3.0,43.0,0.07135590853566823,0.09275405323689868,0.12396497563741889,0.14427619024027635,0.16562582537751622,8.95814236361209,1941.0,23.001643494673772
137,2011-06-15,STORE_2_714,28.000000000000004,0,0,-0.037141808004566595,-0.10231233960937675,0.16208054461286653,0.08855793864329053,,0.07135590853566823,,0.10102657920288856,0.07135590853566823,7.193086419753086,46.0,21.711111111111112,20.0,3.0,43.0,0.07244710988628075,0.09275405323689868,0.12493873660829993,0.14427619024027635,0.16562582537751622,8.955877417907988,1954.0,22.992649225715354
138,2011-06-16,STORE_2_714,20.999999999999996,0,0,-0.028028723600243555,0.00911308440432304,0.12493873660829993,0.09691001300805638,,0.04420366249205343,,0.0800420877207609,0.05799194697768674,7.110864197530865,46.0,21.81111111111111,20.5,3.0,43.0,0.07572071393811831,0.09483203312247754,0.12493873660829993,0.14427619024027635,0.16562582537751622,8.896274241544827,1963.0,22.983654956756908
139,2011-06-17,STORE_2_714,25.0,0,0,0.01623719887068556,0.044265922470929114,0.09691001300805638,0.09691001300805638,,0.0669467896306132,,0.11711339909634336,0.07572071393811831,7.09728395061729,46.0,21.91111111111111,21.0,3.0,43.0,0.07572071393811831,0.09691001300805638,0.12493873660829993,0.14427619024027635,0.16562582537751622,8.880789068652495,1972.0,22.97466068779849
140,2011-06-18,STORE_2_714,31.999999999999996,0,0,0.02703149128629484,0.01079429241560928,0.11314721187874194,0.13641855429173,,0.07572071393811831,,0.14017870316503678,0.0800420877207609,7.183950617283951,46.0,22.07777777777778,21.0,3.0,43.0,0.07572071393811831,0.09691001300805638,0.1278340522182285,0.14427619024027635,0.16562582537751622,8.928212798219313,1987.0,22.965666418840044
141,2011-06-19,STORE_2_714,33.0,0,0,0.0037278725192431694,-0.02330361876705167,0.14017870316503678,0.1326255652745909,,0.11711339909634336,,0.17952443489407516,0.07135590853566823,7.266666666666669,46.0,22.27777777777778,21.0,3.0,43.0,0.07572071393811831,0.09691001300805638,0.13166896331132769,0.14427619024027635,0.16562582537751622,8.969395878317142,2005.0,22.956672149881626
142,2011-06-20,STORE_2_714,27.0,0,0,-0.0228628829595042,-0.02659075547874737,0.14390657568427995,0.10102657920288856,,0.09275405323689868,,0.09691001300805638,0.015239966556736859,7.15234567901235,46.0,22.544444444444444,21.0,5.0,41.0,0.07572071393811831,0.09691001300805638,0.13166896331132769,0.14427619024027635,0.16562582537751622,8.743743973645055,2029.0,22.94767788092321
143,2011-06-21,STORE_2_714,31.0,0,0,0.015374861566954251,0.03823774452645845,0.12104369272477575,0.09691001300805638,,0.07135590853566823,,0.16208054461286653,0.04884856753781699,7.143209876543211,46.0,22.77777777777778,21.0,5.0,41.0,0.07572071393811831,0.09691001300805638,0.1326255652745909,0.14427619024027635,0.16562582537751622,8.685229328543274,2050.0,22.938683611964763
144,2011-06-22,STORE_2_714,19.0,0,0,-0.047860615648439464,-0.06323547721539372,0.13641855429173,0.10102657920288856,,0.07572071393811831,,0.12493873660829993,0.06249244820436317,7.086913580246912,46.0,22.844444444444445,21.0,5.0,41.0,0.07572071393811831,0.09691001300805638,0.1326255652745909,0.14427619024027635,0.16562582537751622,8.632198817767302,2056.0,22.929689343006345
145,2011-06-23,STORE_2_714,31.0,0,0,0.047860615648439464,0.09572123129687893,0.08855793864329053,0.0800420877207609,,0.05799194697768674,,0.09691001300805638,0.05799194697768674,7.086419753086417,46.0,23.055555555555557,21.0,5.0,41.0,0.07680105738377896,0.09691001300805638,0.1326255652745909,0.14427619024027635,0.16562582537751622,8.596264031884298,2075.0,22.9206950740479
146,2011-06-24,STORE_2_714,19.0,0,0,-0.047860615648439464,-0.09572123129687893,0.13641855429173,0.11711339909634336,,0.07135590853566823,,0.11314721187874194,0.06249244820436317,7.030123456790126,46.0,23.122222222222224,21.0,5.0,41.0,0.0800420877207609,0.09691001300805638,0.1326255652745909,0.14427619024027635,0.16562582537751622,8.540488865540542,2081.0,22.91170080508948
147,2011-06-25,STORE_2_714,38.0,0,0,0.073522605969576,0.12138322161801546,0.08855793864329053,0.14017870316503678,,0.03950854128367361,,0.14017870316503678,0.06249244820436317,7.119999999999999,46.0,23.4,21.0,5.0,41.0,0.0800420877207609,0.09691001300805638,0.1326255652745909,0.14796921665288423,0.16562582537751622,8.613811746781375,2106.0,22.902706536131035
148,2011-06-26,STORE_2_714,37.0,0,0,-0.003574460358298115,-0.07709706632787411,0.16208054461286653,0.17952443489407516,,0.0800420877207609,,0.14390657568427995,0.04420366249205343,7.145679012345679,46.0,23.711111111111112,21.5,5.0,41.0,0.0800420877207609,0.09896829610547248,0.1326255652745909,0.15199151622304108,0.16562582537751622,8.593496946109685,2134.0,22.893712267172617
149,2011-06-27,STORE_2_714,15.999999999999998,0,0,-0.0827853703164501,-0.07921090995815198,0.1585060842545684,0.09691001300805638,,0.07572071393811831,,0.12104369272477575,0.0669467896306132,7.125925925925928,46.0,23.733333333333334,21.5,5.0,41.0,0.0800420877207609,0.09896829610547248,0.1326255652745909,0.15199151622304108,0.16562582537751622,8.57065807130823,2136.0,22.88471799821417
150,2011-06-28,STORE_2_714,10.0,0,0,-0.026872146400301326,0.05591322391614877,0.07572071393811831,0.16208054461286653,,0.08855793864329053,,0.13641855429173,0.07572071393811831,7.185185185185186,46.0,23.666666666666668,21.5,5.0,41.0,0.0800420877207609,0.09896829610547248,0.1326255652745909,0.15199151622304108,0.16562582537751622,8.654413695016801,2130.0,22.875723729255753
151,2011-06-29,STORE_2_714,15.999999999999998,0,0,0.026872146400301326,0.05374429280060265,0.04884856753781699,0.12493873660829993,,0.06249244820436317,,0.08855793864329053,0.07135590853566823,7.17530864197531,46.0,23.677777777777777,21.5,5.0,41.0,0.0800420877207609,0.09896829610547248,0.1326255652745909,0.15199151622304108,0.16562582537751622,8.643797253597425,2131.0,22.866729460297336
152,2011-06-30,STORE_2_714,19.0,0,0,0.01283722470517222,-0.014034921695129106,0.07572071393811831,0.09691001300805638,,0.04420366249205343,,0.13641855429173,0.14760272124424367,7.09037037037037,46.0,23.511111111111113,21.0,5.0,41.0,0.0800420877207609,0.09691001300805638,0.1326255652745909,0.15199151622304108,0.16562582537751622,8.586956982088285,2116.0,22.85773519133889
153,2011-07-01,STORE_2_714,51.0,0,0,0.1174965437898339,0.10465931908466168,0.08855793864329053,0.11314721187874194,,0.08855793864329053,,0.08855793864329053,0.12104369272477575,7.392592592592593,51.0,23.77777777777778,21.0,5.0,46.0,0.0800420877207609,0.09691001300805638,0.1326255652745909,0.15886353029039826,0.16562582537751622,9.056350156233448,2140.0,22.848740922380472
154,2011-07-02,STORE_2_714,49.0,0,0,-0.006482127527920323,-0.12397867131775422,0.20605448243312444,0.14017870316503678,,0.09691001300805638,,0.16208054461286653,0.16562582537751622,7.5185185185185235,51.0,23.88888888888889,21.0,5.0,46.0,0.0800420877207609,0.09691001300805638,0.1326255652745909,0.15886353029039826,0.17138181390050694,9.303188343697128,2150.0,22.839746653422026
155,2011-07-03,STORE_2_714,36.0,0,0,-0.04467039491946098,-0.03818826739154066,0.1995723549052041,0.14390657568427995,,0.09691001300805638,,0.1585060842545684,0.1326255652745909,7.594074074074074,51.0,23.955555555555556,21.0,5.0,46.0,0.0800420877207609,0.09691001300805638,0.13547030703744523,0.15886353029039826,0.17138181390050694,9.368739690895211,2156.0,22.830752384463608
156,2011-07-04,STORE_2_714,28.000000000000004,1,0,-0.0299632233774432,0.014707171542017783,0.15490195998574313,0.12104369272477575,,0.13641855429173,,0.07572071393811831,0.11314721187874194,7.631851851851854,51.0,23.988888888888887,21.0,5.0,46.0,0.0800420877207609,0.09691001300805638,0.13547030703744523,0.15886353029039826,0.17138181390050694,9.377829993168676,2159.0,22.821758115505162
157,2011-07-05,STORE_2_714,44.0,0,0,0.057991946977686726,0.08795517035512992,0.12493873660829993,0.13641855429173,,0.1326255652745909,,0.04884856753781699,0.07572071393811831,7.813333333333332,51.0,24.3,21.5,5.0,46.0,0.08111178721557964,0.09896829610547248,0.13641855429173,0.16208054461286653,0.17797950576679789,9.572256258983064,2187.0,22.812763846546744
158,2011-07-06,STORE_2_714,49.0,0,0,0.016641671319217455,-0.04135027565846927,0.18293068358598666,0.08855793864329053,,0.10102657920288856,,0.07572071393811831,0.08855793864329053,8.07333333333333,51.0,24.633333333333333,22.0,5.0,46.0,0.08111178721557964,0.10102657920288856,0.13641855429173,0.16243507268933152,0.18139787167462648,9.90227530317024,2217.0,22.803769577588326
159,2011-07-07,STORE_2_714,35.0,0,0,-0.04830467957455503,-0.06494635089377249,0.1995723549052041,0.13641855429173,,0.09691001300805638,,0.08855793864329053,0.0800420877207609,8.125925925925923,51.0,24.833333333333332,22.0,5.0,46.0,0.08432088570003587,0.10102657920288856,0.13641855429173,0.16243507268933152,0.18139787167462648,9.928112395130155,2235.0,22.79477530862988
160,2011-07-08,STORE_2_714,29.0,0,0,-0.022468517909111058,0.025836161665443974,0.15126767533064908,0.08855793864329053,,0.10102657920288856,,0.20605448243312444,0.1326255652745909,8.113580246913573,51.0,24.822222222222223,22.0,5.0,46.0,0.08432088570003587,0.10102657920288856,0.13641855429173,0.16243507268933152,0.18139787167462648,9.922823286370384,2234.0,22.785781039671463
161,2011-07-09,STORE_2_714,33.0,0,0,0.015107418262741923,0.03757593617185298,0.12879915742153802,0.16208054461286653,,0.0800420877207609,,0.1995723549052041,0.12879915742153802,8.162962962962963,51.0,24.866666666666667,22.0,5.0,46.0,0.08432088570003587,0.10102657920288856,0.13641855429173,0.16243507268933152,0.18139787167462648,9.950664818848972,2238.0,22.776786770713016
162,2011-07-10,STORE_2_714,24.000000000000004,0,0,-0.03476210625921192,-0.04986952452195384,0.14390657568427995,0.1585060842545684,,0.11711339909634336,,0.15490195998574313,0.09691001300805638,8.133333333333328,51.0,24.9,22.0,5.0,46.0,0.08432088570003587,0.10102657920288856,0.13641855429173,0.16243507268933152,0.18139787167462648,9.9425880021137,2241.0,22.7677925017546
163,2011-07-11,STORE_2_714,19.0,0,0,-0.020586530781777496,0.014175575477434421,0.10914446942506803,0.07572071393811831,,0.14017870316503678,,0.12493873660829993,0.0669467896306132,8.083950617283953,51.0,24.955555555555556,22.0,5.0,46.0,0.08432088570003587,0.10102657920288856,0.13641855429173,0.16243507268933152,0.18139787167462648,9.894852947691014,2246.0,22.758798232796153
164,2011-07-12,STORE_2_714,11.0,0,0,-0.03511361941632444,-0.014527088634546943,0.08855793864329053,0.04884856753781699,,0.17952443489407516,,0.18293068358598666,0.09275405323689868,8.172839506172838,51.0,24.855555555555554,22.0,5.0,46.0,0.08432088570003587,0.10102657920288856,0.13641855429173,0.16243507268933152,0.18139787167462648,9.99051360278543,2237.0,22.749803963837735
165,2011-07-13,STORE_2_714,11.0,0,0,0.0,0.03511361941632444,0.053444319226966096,0.07572071393811831,,0.09691001300805638,,0.1995723549052041,0.025110720583031106,8.11358024691358,51.0,24.92222222222222,22.0,8.0,43.0,0.08432088570003587,0.10102657920288856,0.13641855429173,0.16243507268933152,0.18139787167462648,9.875890263130117,2243.0,22.740809694879317
166,2011-07-14,STORE_2_714,24.000000000000004,0,0,0.055700150198101935,0.055700150198101935,0.053444319226966096,0.08855793864329053,,0.16208054461286653,,0.15126767533064908,0.12104369272477575,8.0962962962963,51.0,24.88888888888889,22.0,8.0,43.0,0.08432088570003587,0.10102657920288856,0.13641855429173,0.16243507268933152,0.18139787167462648,9.873861128404695,2240.0,22.73181542592087
167,2011-07-15,STORE_2_714,26.000000000000004,0,0,0.007968929671275327,-0.04773122052682661,0.10914446942506803,0.20605448243312444,,0.12493873660829993,,0.12879915742153802,0.1326255652745909,8.045925925925925,51.0,24.844444444444445,22.0,8.0,43.0,0.08432088570003587,0.10102657920288856,0.13641855429173,0.16243507268933152,0.18139787167462648,9.859588512861293,2236.0,22.722821156962453
168,2011-07-16,STORE_2_714,29.0,0,0,0.011685758325194667,0.0037168286539193407,0.11711339909634336,0.1995723549052041,,0.09691001300805638,,0.14390657568427995,0.15126767533064908,7.970370370370373,51.0,24.77777777777778,22.0,8.0,43.0,0.08432088570003587,0.10102657920288856,0.13641855429173,0.16243507268933152,0.18139787167462648,9.810310762327216,2230.0,22.713826888004007
169,2011-07-17,STORE_2_714,24.000000000000004,0,0,-0.019654687996469994,-0.03134044632166466,0.12879915742153802,0.15490195998574313,,0.11314721187874194,,0.10914446942506803,0.08432088570003587,7.912592592592591,51.0,24.844444444444445,22.5,8.0,43.0,0.08432088570003587,0.10306553541310826,0.13641855429173,0.16243507268933152,0.18139787167462648,9.784086036801323,2236.0,22.70483261904559
170,2011-07-18,STORE_2_714,20.999999999999996,0,0,-0.012234456417011652,0.007420231579458342,0.10914446942506803,0.12493873660829993,,0.14017870316503678,,0.08855793864329053,0.08432088570003587,7.883703703703703,51.0,24.877777777777776,22.5,8.0,43.0,0.08538014893584954,0.10306553541310826,0.13641855429173,0.16243507268933152,0.18139787167462648,9.76559861731767,2239.0,22.695838350087143
171,2011-07-19,STORE_2_714,8.0,0,0,-0.05740147172438277,-0.04516701530737112,0.09691001300805638,0.18293068358598666,,0.14390657568427995,,0.053444319226966096,0.09275405323689868,7.99925925925926,51.0,24.744444444444444,22.5,8.0,43.0,0.08111178721557964,0.10306553541310826,0.13641855429173,0.16243507268933152,0.18139787167462648,9.913741582258448,2227.0,22.686844081128726
172,2011-07-20,STORE_2_714,43.0,0,0,0.14001589361040157,0.19741736533478432,0.03950854128367361,0.1995723549052041,,0.12104369272477575,,0.053444319226966096,0.07572071393811831,8.139259259259259,51.0,25.044444444444444,23.5,8.0,43.0,0.08538014893584954,0.10712448052419798,0.13641855429173,0.16562582537751622,0.18139787167462648,10.053688585900806,2254.0,22.67784981217028
173,2011-07-21,STORE_2_714,28.000000000000004,0,0,-0.054585698285775225,-0.1946015918961768,0.17952443489407516,0.15126767533064908,,0.13641855429173,,0.10914446942506803,0.09275405323689868,8.125925925925925,51.0,25.133333333333333,24.0,8.0,43.0,0.08538014893584954,0.10914446942506803,0.13641855429173,0.16562582537751622,0.18139787167462648,10.043948370855182,2262.0,22.668855543211862
174,2011-07-22,STORE_2_714,36.0,0,0,0.0299632233774432,0.08454892166321842,0.12493873660829993,0.12879915742153802,,0.08855793864329053,,0.11711339909634336,0.13641855429173,8.187654320987653,51.0,25.18888888888889,24.0,8.0,43.0,0.08538014893584954,0.10914446942506803,0.13641855429173,0.16562582537751622,0.18139787167462648,10.09048327307195,2267.0,22.659861274253444
175,2011-07-23,STORE_2_714,31.0,0,0,-0.018483405694013133,-0.04844662907145633,0.15490195998574313,0.14390657568427995,,0.13641855429173,,0.12879915742153802,0.14390657568427995,8.162962962962961,51.0,25.166666666666668,24.0,8.0,43.0,0.08538014893584954,0.10914446942506803,0.13641855429173,0.16562582537751622,0.18139787167462648,10.075278455459983,2265.0,22.650867005294998
176,2011-07-24,STORE_2_714,39.0,0,0,0.02920727108578622,0.04769067677979935,0.13641855429173,0.10914446942506803,,0.08855793864329053,,0.10914446942506803,0.08855793864329053,8.267901234567905,51.0,25.38888888888889,24.0,8.0,43.0,0.08538014893584954,0.10914446942506803,0.13641855429173,0.16562582537751622,0.18139787167462648,10.15795967795582,2285.0,22.64187273633658
177,2011-07-25,STORE_2_714,22.0,0,0,-0.06459924617462766,-0.09380651726041388,0.16562582537751622,0.08855793864329053,,0.16208054461286653,,0.09691001300805638,0.09691001300805638,8.257777777777774,51.0,25.4,24.0,8.0,43.0,0.08538014893584954,0.10914446942506803,0.13641855429173,0.16562582537751622,0.18139787167462648,10.153651028742479,2286.0,22.632878467378134
178,2011-07-26,STORE_2_714,15.999999999999998,0,0,-0.025305865264770244,0.039293380909857414,0.10102657920288856,0.053444319226966096,,0.1585060842545684,,0.03950854128367361,0.08432088570003587,8.278024691358024,51.0,25.377777777777776,24.0,8.0,43.0,0.08217105045139331,0.10914446942506803,0.13641855429173,0.16562582537751622,0.18139787167462648,10.172200250073258,2284.0,22.623884198419717
179,2011-07-27,STORE_2_714,14.999999999999998,0,0,-0.0043648054024500865,0.020941059862320158,0.07572071393811831,0.053444319226966096,,0.07572071393811831,,0.17952443489407516,0.07135590853566823,8.278024691358024,51.0,25.377777777777776,24.0,8.0,43.0,0.08217105045139331,0.10914446942506803,0.13641855429173,0.16562582537751622,0.18139787167462648,10.17220025007326,2284.0,22.61488992946127
180,2011-07-28,STORE_2_714,17.0,0,0,0.008686179185092666,0.013050984587542752,0.07135590853566823,0.10914446942506803,0.08432088570003587,0.04884856753781699,,0.12493873660829993,0.10914446942506803,8.348888888888887,51.0,25.3,24.0,8.0,43.0,0.0800420877207609,0.10914446942506803,0.13641855429173,0.16562582537751622,0.18139787167462648,10.209546094742613,2277.0,22.605895660502853
181,2011-07-29,STORE_2_714,37.0,0,0,0.07846399653380752,0.06977781734871485,0.0800420877207609,0.11711339909634336,0.0800420877207609,0.07572071393811831,,0.15490195998574313,0.13641855429173,8.421481481481482,51.0,25.366666666666667,24.0,8.0,43.0,0.0800420877207609,0.10914446942506803,0.13923866594671008,0.16562582537751622,0.18139787167462648,10.266614377998074,2283.0,22.596901391544435
182,2011-07-30,STORE_2_714,27.0,0,0,-0.037462391529792666,-0.11592638806360019,0.1585060842545684,0.12879915742153802,0.04884856753781699,0.08855793864329053,,0.13641855429173,0.18966406624495508,8.191604938271606,51.0,25.155555555555555,24.0,8.0,43.0,0.0800420877207609,0.10914446942506803,0.13641855429173,0.16562582537751622,0.17952443489407516,10.030191626779251,2264.0,22.58790712258599
183,2011-07-31,STORE_2_714,31.999999999999996,0,0,0.01913501044026103,0.056597401970053696,0.12104369272477575,0.10914446942506803,0.07135590853566823,0.20605448243312444,,0.16562582537751622,0.16562582537751622,8.106913580246914,51.0,25.07777777777778,24.0,8.0,43.0,0.0800420877207609,0.10914446942506803,0.13641855429173,0.16243507268933152,0.17952443489407516,9.948437602788657,2257.0,22.57891285362757
184,2011-08-01,STORE_2_714,31.0,0,0,-0.003760148873306779,-0.02289515931356781,0.14017870316503678,0.09691001300805638,0.03476210625921192,0.1995723549052041,,0.10102657920288856,0.10914446942506803,8.165925925925926,51.0,25.155555555555555,24.0,8.0,43.0,0.0800420877207609,0.10914446942506803,0.13641855429173,0.16243507268933152,0.17952443489407516,9.967262267223658,2264.0,22.569918584669125
185,2011-08-02,STORE_2_714,26.000000000000004,0,0,-0.019305155195386642,-0.015545006322079863,0.13641855429173,0.03950854128367361,0.06249244820436317,0.15490195998574313,,0.07572071393811831,0.1326255652745909,8.118518518518515,51.0,25.11111111111111,24.0,8.0,43.0,0.0800420877207609,0.10914446942506803,0.13641855429173,0.16243507268933152,0.17952443489407516,9.954327661926685,2260.0,22.560924315710707
186,2011-08-03,STORE_2_714,20.000000000000004,0,0,-0.024359345859444673,-0.005054190664058031,0.11711339909634336,0.17952443489407516,0.10914446942506803,0.12493873660829993,,0.07135590853566823,0.13641855429173,8.099259259259268,51.0,24.988888888888887,23.5,8.0,43.0,0.0800420877207609,0.10712448052419798,0.13641855429173,0.16243507268933152,0.17952443489407516,9.948738776646142,2249.0,22.55193004675226
187,2011-08-04,STORE_2_714,25.0,0,0,0.020393158641843254,0.044752504501287926,0.09275405323689868,0.12493873660829993,0.1326255652745909,0.18293068358598666,,0.0800420877207609,0.1760912590556812,7.89777777777777,51.0,24.8,23.5,8.0,43.0,0.0800420877207609,0.10712448052419798,0.13641855429173,0.16208054461286653,0.17952443489407516,9.782120815060985,2232.0,22.542935777793843
188,2011-08-05,STORE_2_714,29.0,0,0,0.015651945542796086,-0.004741213099047167,0.11314721187874194,0.15490195998574313,0.1326255652745909,0.1995723549052041,,0.1585060842545684,0.16562582537751622,7.779259259259256,51.0,24.68888888888889,23.5,8.0,43.0,0.0800420877207609,0.10712448052419798,0.13641855429173,0.15886353029039826,0.17952443489407516,9.675225450376102,2222.0,22.533941508835426
189,2011-08-06,STORE_2_714,27.0,0,0,-0.0077554646967622765,-0.023407410239558363,0.12879915742153802,0.13641855429173,0.10510449162332795,0.15126767533064908,,0.12104369272477575,0.14017870316503678,7.72,51.0,24.633333333333333,23.5,8.0,43.0,0.0800420877207609,0.10712448052419798,0.13641855429173,0.15886353029039826,0.17952443489407516,9.647087235784253,2217.0,22.52494723987698
190,2011-08-07,STORE_2_714,17.0,0,0,-0.041001605004014854,-0.03324614030725258,0.12104369272477575,0.16562582537751622,0.07572071393811831,0.12879915742153802,,0.14017870316503678,0.10510449162332795,7.7822222222222335,51.0,24.566666666666666,23.0,8.0,43.0,0.0800420877207609,0.1050855243139783,0.13641855429173,0.15886353029039826,0.17952443489407516,9.679179554793505,2211.0,22.515952970918562
191,2011-08-08,STORE_2_714,36.0,0,0,0.07485987226498224,0.11586147726899709,0.0800420877207609,0.10102657920288856,0.05799194697768674,0.14390657568427995,,0.13641855429173,0.0800420877207609,7.8345679012345775,51.0,24.77777777777778,24.0,8.0,43.0,0.0800420877207609,0.10914446942506803,0.13641855429173,0.15886353029039826,0.17952443489407516,9.719409259546426,2230.0,22.506958701960116
192,2011-08-09,STORE_2_714,27.0,0,0,-0.033858267260967384,-0.10871813952594962,0.15490195998574313,0.07572071393811831,0.07572071393811831,0.10914446942506803,,0.11711339909634336,0.11711339909634336,7.846172839506174,51.0,24.788888888888888,24.0,8.0,43.0,0.0800420877207609,0.10914446942506803,0.13641855429173,0.15886353029039826,0.17952443489407516,9.721393579810613,2231.0,22.497964433001698
193,2011-08-10,STORE_2_714,22.0,0,0,-0.02001711352188719,0.013841153739080195,0.12104369272477575,0.07135590853566823,0.10914446942506803,0.08855793864329053,,0.09275405323689868,0.12493873660829993,7.837037037037026,51.0,24.72222222222222,23.0,8.0,43.0,0.0800420877207609,0.1050855243139783,0.13641855429173,0.15886353029039826,0.17952443489407516,9.71969826342798,2225.0,22.488970164043252
194,2011-08-11,STORE_2_714,20.999999999999996,0,0,-0.00411656619483218,0.01590054732705501,0.10102657920288856,0.0800420877207609,0.15490195998574313,0.053444319226966096,,0.11314721187874194,0.09691001300805638,7.837037037037026,51.0,24.72222222222222,23.0,8.0,43.0,0.0800420877207609,0.1050855243139783,0.13641855429173,0.15886353029039826,0.17952443489407516,9.719698263427981,2225.0,22.479975895084834
195,2011-08-12,STORE_2_714,35.0,0,0,0.054357662322592704,0.058474228517424884,0.09691001300805638,0.1585060842545684,0.14017870316503678,0.053444319226966096,,0.12879915742153802,0.10102657920288856,7.927407407407408,51.0,24.866666666666667,24.0,8.0,43.0,0.0800420877207609,0.10914446942506803,0.13641855429173,0.15886353029039826,0.17952443489407516,9.775226656184259,2238.0,22.470981626126388
196,2011-08-13,STORE_2_714,38.0,0,0,0.010812869282217447,-0.04354479304037526,0.15126767533064908,0.12104369272477575,0.07572071393811831,0.10914446942506803,,0.12104369272477575,0.10102657920288856,8.047407407407416,51.0,25.044444444444444,24.0,8.0,43.0,0.0800420877207609,0.10914446942506803,0.13641855429173,0.16208054461286653,0.17952443489407516,9.86756246566156,2254.0,22.46198735716797
197,2011-08-14,STORE_2_714,63.00000000000001,0,0,0.08095750407342789,0.07014463479121044,0.16208054461286653,0.14017870316503678,0.07135590853566823,0.11711339909634336,,0.0800420877207609,0.07135590853566823,8.381234567901235,63.0,25.57777777777778,24.5,8.0,55.0,0.08217105045139331,0.11114584065190498,0.13923866594671008,0.16208054461286653,0.18139787167462648,10.589349936841913,2302.0,22.452993088209553
198,2011-08-15,STORE_2_714,37.0,0,0,-0.084531964431726,-0.1654894685051539,0.24303804868629442,0.13641855429173,0.08855793864329053,0.12879915742153802,,0.15490195998574313,0.04420366249205343,8.330864197530866,63.0,25.88888888888889,25.0,8.0,55.0,0.08855793864329053,0.11314721187874194,0.14017870316503678,0.16208054461286653,0.18139787167462648,10.507829552178128,2330.0,22.443998819251107
199,2011-08-16,STORE_2_714,25.0,0,0,-0.045358872375826476,0.03917309205589953,0.1585060842545684,0.11711339909634336,0.05799194697768674,0.10914446942506803,,0.12104369272477575,0.0669467896306132,8.212345679012337,63.0,26.011111111111113,25.0,8.0,55.0,0.08855793864329053,0.11314721187874194,0.14017870316503678,0.16208054461286653,0.18139787167462648,10.43168729761183,2341.0,22.43500455029269
200,2011-08-17,STORE_2_714,26.000000000000004,0,0,0.003966187217601419,0.049325059593427895,0.11314721187874194,0.09275405323689868,0.10510449162332795,0.09691001300805638,,0.10102657920288856,0.07572071393811831,8.113580246913589,63.0,26.122222222222224,25.5,8.0,55.0,0.08855793864329053,0.11513030548754265,0.14017870316503678,0.16208054461286653,0.18139787167462648,10.376970805400287,2351.0,22.426010281334243
201,2011-08-18,STORE_2_714,35.0,0,0,0.034154276234305725,0.030188089016704306,0.11711339909634336,0.11314721187874194,0.14760272124424367,0.03950854128367361,,0.09691001300805638,0.11711339909634336,8.219753086419743,63.0,26.22222222222222,25.5,8.0,55.0,0.08855793864329053,0.11513030548754265,0.14017870316503678,0.16208054461286653,0.18139787167462648,10.419059650227858,2360.0,22.417016012375825
202,2011-08-19,STORE_2_714,29.0,0,0,-0.022468517909111058,-0.05662279414341678,0.15126767533064908,0.12879915742153802,0.1585060842545684,0.17952443489407516,,0.15126767533064908,0.09275405323689868,8.188148148148146,63.0,26.322222222222223,26.0,8.0,55.0,0.08855793864329053,0.11711339909634336,0.14017870316503678,0.16208054461286653,0.18139787167462648,10.401844885822614,2369.0,22.40802174341738
203,2011-08-20,STORE_2_714,51.99999999999999,0,0,0.08046046488679778,0.10292898279590884,0.12879915742153802,0.12104369272477575,0.08432088570003587,0.12493873660829993,,0.16208054461286653,0.07135590853566823,8.365925925925929,63.0,26.733333333333334,26.0,8.0,55.0,0.08855793864329053,0.11711339909634336,0.14297460755446917,0.16243507268933152,0.1920836028115562,10.676867781235163,2406.0,22.39902747445896
204,2011-08-21,STORE_2_714,41.0,0,0,-0.036628895362161074,-0.11708936024895886,0.2092596223083358,0.0800420877207609,0.08432088570003587,0.15490195998574313,,0.24303804868629442,0.07572071393811831,8.41234567901234,63.0,27.011111111111113,26.0,8.0,55.0,0.08855793864329053,0.11711339909634336,0.14390657568427995,0.16632631553438212,0.1920836028115562,10.719607619479616,2431.0,22.390033205500544
205,2011-08-22,STORE_2_714,31.0,0,0,-0.036212172654444735,0.00041672270771633824,0.17263072694617473,0.15490195998574313,0.10914446942506803,0.13641855429173,,0.1585060842545684,0.05799194697768674,8.308641975308635,63.0,27.22222222222222,26.5,8.0,55.0,0.08960696729169257,0.11907854591055955,0.14390657568427995,0.16632631553438212,0.1920836028115562,10.607160797064475,2450.0,22.381038936542097
206,2011-08-23,STORE_2_714,33.99999999999999,0,0,0.011184166952513674,0.04739633960695841,0.13641855429173,0.12104369272477575,0.04884856753781699,0.16562582537751622,,0.11314721187874194,0.07135590853566823,8.262222222222217,63.0,27.433333333333334,27.0,8.0,55.0,0.0937930431796881,0.12104369272477575,0.14667868485425273,0.16632631553438212,0.1920836028115562,10.550094520051585,2469.0,22.37204466758368
207,2011-08-24,STORE_2_714,48.00000000000001,0,0,0.048691923899724515,0.03750775694721084,0.14760272124424367,0.10102657920288856,0.08855793864329053,0.10102657920288856,,0.11711339909634336,0.03950854128367361,8.294567901234563,63.0,27.877777777777776,27.0,8.0,55.0,0.09691001300805638,0.12104369272477575,0.15035143680904772,0.17332009774096482,0.19809738551264794,10.564757799674958,2509.0,22.363050398625234
208,2011-08-25,STORE_2_714,37.0,0,0,-0.037788560889399775,-0.08648048478912429,0.1962946451439682,0.09691001300805638,0.09691001300805638,0.07572071393811831,,0.15126767533064908,0.0800420877207609,8.286666666666669,63.0,28.1,27.0,8.0,55.0,0.09691001300805638,0.12104369272477575,0.15126767533064908,0.17332009774096482,0.19809738551264794,10.543702524319828,2529.0,22.354056129666816
209,2011-08-26,STORE_2_714,24.000000000000004,0,0,-0.04936161482950038,-0.011573053940100608,0.1585060842545684,0.15126767533064908,0.08432088570003587,0.07135590853566823,,0.12879915742153802,0.07572071393811831,8.205679012345676,63.0,28.18888888888889,27.0,8.0,55.0,0.09691001300805638,0.12104369272477575,0.15126767533064908,0.17332009774096482,0.19809738551264794,10.474039007640892,2537.0,22.34506186070837
210,2011-08-27,STORE_2_714,33.99999999999999,0,0,0.03845825181917564,0.08781986664867603,0.10914446942506803,0.16208054461286653,0.04884856753781699,0.0800420877207609,,0.2092596223083358,0.08855793864329053,8.179259259259263,63.0,28.355555555555554,27.5,8.0,55.0,0.09691001300805638,0.12299121466653784,0.15126767533064908,0.17332009774096482,0.19809738551264794,10.44548298818343,2552.0,22.336067591749952
211,2011-08-28,STORE_2_714,44.0,0,0,0.035327962341742986,-0.0031302894774326573,0.14760272124424367,0.24303804868629442,0.06249244820436317,0.1585060842545684,,0.17263072694617473,0.06249244820436317,8.19777777777778,63.0,28.7,28.0,8.0,55.0,0.09691001300805638,0.12493873660829993,0.15126767533064908,0.17952443489407516,0.19809738551264794,10.444556670579363,2583.0,22.327073322791534
212,2011-08-29,STORE_2_714,15.999999999999998,0,0,-0.10720996964786834,-0.14253793198961134,0.18293068358598666,0.1585060842545684,0.07135590853566823,0.12104369272477575,,0.13641855429173,0.04420366249205343,8.123456790123461,63.0,28.77777777777778,28.0,8.0,55.0,0.09691001300805638,0.12493873660829993,0.15126767533064908,0.17952443489407516,0.19809738551264794,10.321546981189101,2590.0,22.318079053833088
213,2011-08-30,STORE_2_714,19.0,0,0,0.01283722470517222,0.12004719435304056,0.07572071393811831,0.11314721187874194,0.14760272124424367,0.14017870316503678,,0.14760272124424367,0.08855793864329053,8.123456790123461,63.0,28.77777777777778,28.0,8.0,55.0,0.09691001300805638,0.12493873660829993,0.15126767533064908,0.17952443489407516,0.19809738551264794,10.321546981189101,2590.0,22.30908478487467
214,2011-08-31,STORE_2_714,19.0,0,0,0.0,-0.01283722470517222,0.08855793864329053,0.11711339909634336,0.1326255652745909,0.13641855429173,,0.1962946451439682,0.09691001300805638,8.14469135802469,63.0,28.755555555555556,28.0,8.0,55.0,0.09691001300805638,0.12493873660829993,0.15126767533064908,0.17952443489407516,0.19809738551264794,10.34061601528316,2588.0,22.300090515916224
215,2011-09-01,STORE_2_714,24.000000000000004,0,0,0.020586530781777496,0.020586530781777496,0.08855793864329053,0.15126767533064908,0.12493873660829993,0.11711339909634336,,0.1585060842545684,0.09691001300805638,8.11283950617284,63.0,28.788888888888888,28.0,8.0,55.0,0.09691001300805638,0.12493873660829993,0.15126767533064908,0.17952443489407516,0.19809738551264794,10.320149860035125,2591.0,22.291096246957807
216,2011-09-02,STORE_2_714,30.0,0,0,0.023481095849522876,0.0028945650677453805,0.10914446942506803,0.12879915742153802,0.11314721187874194,0.09275405323689868,,0.10914446942506803,0.13641855429173,8.101234567901237,63.0,28.77777777777778,28.0,8.0,55.0,0.09691001300805638,0.12493873660829993,0.15126767533064908,0.17952443489407516,0.19809738551264794,10.318280687912925,2590.0,22.28210197799936
217,2011-09-03,STORE_2_714,41.0,0,0,0.04000516167158383,0.01652406582206095,0.1326255652745909,0.2092596223083358,0.12104369272477575,0.11314721187874194,,0.14760272124424367,0.1326255652745909,8.228888888888886,63.0,28.9,28.0,8.0,55.0,0.09691001300805638,0.12493873660829993,0.1539933888219696,0.17952443489407516,0.19809738551264794,10.397763372286727,2601.0,22.273107709040943
218,2011-09-04,STORE_2_714,29.0,0,0,-0.04383156952463671,-0.08383673119622054,0.17263072694617473,0.17263072694617473,0.10102657920288856,0.12879915742153802,,0.18293068358598666,0.10102657920288856,8.15506172839506,63.0,28.977777777777778,28.0,8.0,55.0,0.09691001300805638,0.12493873660829993,0.1539933888219696,0.17952443489407516,0.19809738551264794,10.371718002919522,2608.0,22.264113440082525
219,2011-09-05,STORE_2_714,36.0,1,0,0.026102802564205108,0.06993437208884182,0.12879915742153802,0.13641855429173,0.04420366249205343,0.12104369272477575,,0.07572071393811831,0.09691001300805638,8.160493827160492,63.0,29.144444444444446,28.5,8.0,55.0,0.09793915455676443,0.12686894701491896,0.15490195998574313,0.17952443489407516,0.19809738551264794,10.362595994986291,2623.0,22.25511917112408
220,2011-09-06,STORE_2_714,35.0,0,0,-0.00363428465509405,-0.029737087219299158,0.15490195998574313,0.14760272124424367,0.04420366249205343,0.0800420877207609,,0.08855793864329053,0.10102657920288856,8.159012345679013,63.0,29.288888888888888,29.0,8.0,55.0,0.09793915455676443,0.12879915742153802,0.15490195998574313,0.17952443489407516,0.19809738551264794,10.35248919146626,2636.0,22.24612490216566
221,2011-09-07,STORE_2_714,37.0,0,0,0.007238408923919332,0.010872693579013382,0.15126767533064908,0.1962946451439682,0.0800420877207609,0.15490195998574313,,0.08855793864329053,0.0800420877207609,8.122962962962964,63.0,29.511111111111113,29.0,8.0,55.0,0.10102657920288856,0.12879915742153802,0.15490195998574313,0.17952443489407516,0.19809738551264794,10.300261199311041,2656.0,22.237130633207215
222,2011-09-08,STORE_2_714,24.000000000000004,0,0,-0.04936161482950038,-0.056600023753419715,0.1585060842545684,0.1585060842545684,0.08855793864329053,0.12104369272477575,,0.10914446942506803,0.11711339909634336,8.143703703703702,63.0,29.488888888888887,29.0,8.0,55.0,0.10102657920288856,0.12879915742153802,0.15490195998574313,0.17952443489407516,0.19809738551264794,10.310074100851251,2654.0,22.228136364248797
223,2011-09-09,STORE_2_714,23.0,0,0,-0.004039977801740077,0.045321637027760306,0.10914446942506803,0.10914446942506803,0.08855793864329053,0.10102657920288856,,0.1326255652745909,0.14017870316503678,8.179012345679016,63.0,29.38888888888889,29.0,8.0,55.0,0.10102657920288856,0.12879915742153802,0.15490195998574313,0.17952443489407516,0.19809738551264794,10.329073665944318,2645.0,22.21914209529035
224,2011-09-10,STORE_2_714,31.0,0,0,0.031314062668402046,0.03535404047014212,0.10510449162332795,0.14760272124424367,0.11711339909634336,0.09691001300805638,,0.17263072694617473,0.17952443489407516,8.033827160493823,63.0,29.255555555555556,29.0,8.0,55.0,0.10102657920288856,0.12879915742153802,0.15490195998574313,0.17332009774096482,0.19809738551264794,10.22836012327908,2633.0,22.210147826331934
225,2011-09-11,STORE_2_714,39.0,0,0,0.02920727108578622,-0.0021067915826158273,0.13641855429173,0.18293068358598666,0.053444319226966096,0.15126767533064908,,0.12879915742153802,0.09691001300805638,8.063703703703709,63.0,29.455555555555556,29.0,8.0,55.0,0.1020460573079984,0.12879915742153802,0.15490195998574313,0.17332009774096482,0.19809738551264794,10.241094910642563,2651.0,22.201153557373488
226,2011-09-12,STORE_2_714,26.000000000000004,0,0,-0.04851242628117286,-0.07771969736695908,0.16562582537751622,0.07572071393811831,0.0669467896306132,0.16208054461286653,,0.15490195998574313,0.16208054461286653,7.995308641975304,63.0,29.322222222222223,29.0,8.0,55.0,0.1020460573079984,0.12879915742153802,0.15490195998574313,0.17332009774096482,0.19809738551264794,10.206659841427154,2639.0,22.19215928841507
227,2011-09-13,STORE_2_714,25.0,0,0,-0.003966187217601419,0.04454623906357144,0.11711339909634336,0.08855793864329053,0.07135590853566823,0.24303804868629442,,0.15126767533064908,0.12493873660829993,8.025679012345678,63.0,29.288888888888888,29.0,8.0,55.0,0.1020460573079984,0.12879915742153802,0.15490195998574313,0.17332009774096482,0.19809738551264794,10.21592108893666,2636.0,22.183165019456652
228,2011-09-14,STORE_2_714,15.999999999999998,0,0,-0.037426497940623624,-0.033460310723022205,0.11314721187874194,0.08855793864329053,0.05799194697768674,0.1585060842545684,,0.1585060842545684,0.09691001300805638,8.076296296296297,63.0,29.233333333333334,29.0,8.0,55.0,0.1020460573079984,0.12879915742153802,0.15490195998574313,0.17332009774096482,0.19809738551264794,10.274928578991233,2631.0,22.174170750498206
229,2011-09-15,STORE_2_714,25.0,0,0,0.037426497940623624,0.07485299588124725,0.07572071393811831,0.10914446942506803,0.07572071393811831,0.11314721187874194,,0.10914446942506803,0.11314721187874194,8.076296296296297,63.0,29.233333333333334,29.0,8.0,55.0,0.1020460573079984,0.12879915742153802,0.15490195998574313,0.17332009774096482,0.19809738551264794,10.274928578991233,2631.0,22.16517648153979
230,2011-09-16,STORE_2_714,22.0,0,0,-0.01212063267585338,-0.049547130616477,0.11314721187874194,0.1326255652745909,0.0800420877207609,0.11711339909634336,,0.10510449162332795,0.14017870316503678,8.113580246913576,63.0,29.122222222222224,28.5,8.0,55.0,0.10102657920288856,0.12686894701491896,0.15490195998574313,0.17332009774096482,0.19809738551264794,10.298715724207556,2621.0,22.156182212581342
231,2011-09-17,STORE_2_714,33.0,0,0,0.04287999648139139,0.05500062915724477,0.10102657920288856,0.17263072694617473,0.07135590853566823,0.15126767533064908,,0.13641855429173,0.14390657568427995,8.113580246913576,63.0,29.122222222222224,28.5,8.0,55.0,0.10102657920288856,0.12686894701491896,0.15490195998574313,0.17332009774096482,0.19809738551264794,10.298715724207556,2621.0,22.147187943622924
232,2011-09-18,STORE_2_714,40.00000000000001,0,0,0.025235823416073444,-0.017644173065317945,0.14390657568427995,0.12879915742153802,0.015239966556736859,0.12879915742153802,,0.16562582537751622,0.12104369272477575,8.223703703703704,63.0,29.266666666666666,29.0,8.0,55.0,0.10102657920288856,0.12879915742153802,0.15490195998574313,0.17332009774096482,0.19809738551264794,10.35960174498068,2634.0,22.13819367466448
233,2011-09-19,STORE_2_714,42.0,0,0,0.0069488599553278185,-0.018286963460745626,0.1691423991003534,0.15490195998574313,0.04884856753781699,0.2092596223083358,,0.11711339909634336,0.13641855429173,8.356790123456793,63.0,29.38888888888889,29.0,8.0,55.0,0.10102657920288856,0.12879915742153802,0.15490195998574313,0.17643457663952064,0.19809738551264794,10.444819633604347,2645.0,22.12919940570606
234,2011-09-20,STORE_2_714,40.00000000000001,0,0,-0.0069488599553278185,-0.013897719910655637,0.1760912590556812,0.15126767533064908,0.06249244820436317,0.17263072694617473,,0.11314721187874194,0.08855793864329053,8.374814814814815,63.0,29.622222222222224,29.0,8.0,55.0,0.1020460573079984,0.12879915742153802,0.1576050531873621,0.17643457663952064,0.19809738551264794,10.444694129350097,2666.0,22.120205136747643
235,2011-09-21,STORE_2_714,29.0,0,0,-0.04034324167881537,-0.03339438172348755,0.1691423991003534,0.1585060842545684,0.05799194697768674,0.13641855429173,,0.07572071393811831,0.13641855429173,8.364444444444448,63.0,29.6,29.0,8.0,55.0,0.1020460573079984,0.12879915742153802,0.1576050531873621,0.17643457663952064,0.19809738551264794,10.443857395779146,2664.0,22.111210867789197
236,2011-09-22,STORE_2_714,17.0,0,0,-0.04875706970077713,-0.008413828021961764,0.12879915742153802,0.10914446942506803,0.06249244820436317,0.14760272124424367,,0.11314721187874194,0.08855793864329053,8.384691358024693,63.0,29.57777777777778,29.0,8.0,55.0,0.1020460573079984,0.12879915742153802,0.1576050531873621,0.17643457663952064,0.19809738551264794,10.468763357827761,2662.0,22.10221659883078
237,2011-09-23,STORE_2_714,39.0,0,0,0.08558373765675532,0.13434080735753245,0.0800420877207609,0.10510449162332795,0.06249244820436317,0.1962946451439682,,0.10102657920288856,0.16208054461286653,8.396790123456785,63.0,29.58888888888889,29.0,8.0,55.0,0.1020460573079984,0.12879915742153802,0.1576050531873621,0.17643457663952064,0.19809738551264794,10.478329102201004,2663.0,22.093222329872333
238,2011-09-24,STORE_2_714,30.0,0,0,-0.03300026010292531,-0.11858399775968063,0.16562582537751622,0.13641855429173,0.04420366249205343,0.1585060842545684,,0.14390657568427995,0.1585060842545684,8.312098765432095,63.0,29.511111111111113,29.0,8.0,55.0,0.1020460573079984,0.12879915742153802,0.15490195998574313,0.17643457663952064,0.19809738551264794,10.448637827938422,2656.0,22.084228060913915
239,2011-09-25,STORE_2_714,24.000000000000004,0,0,-0.023481095849522876,0.009519164253402435,0.1326255652745909,0.16562582537751622,0.0669467896306132,0.10914446942506803,,0.1691423991003534,0.07572071393811831,8.231111111111113,63.0,29.6,29.0,8.0,55.0,0.10611448607376298,0.12879915742153802,0.15490195998574313,0.17643457663952064,0.19809738551264794,10.366107262385475,2664.0,22.07523379195547
240,2011-09-26,STORE_2_714,20.999999999999996,0,0,-0.012234456417011652,0.011246639432511224,0.10914446942506803,0.11711339909634336,0.07572071393811831,0.14760272124424367,,0.1760912590556812,0.04884856753781699,8.11975308641975,63.0,29.72222222222222,29.0,8.0,55.0,0.10611448607376298,0.12879915742153802,0.15490195998574313,0.17643457663952064,0.19809738551264794,10.195865848445663,2675.0,22.06623952299705
241,2011-09-27,STORE_2_714,17.0,0,0,-0.016867925287295485,-0.004633468870283833,0.09691001300805638,0.11314721187874194,0.07135590853566823,0.18293068358598666,,0.1691423991003534,0.07572071393811831,8.10962962962963,63.0,29.733333333333334,29.0,8.0,55.0,0.10611448607376298,0.12879915742153802,0.15490195998574313,0.17643457663952064,0.19809738551264794,10.181278257973904,2676.0,22.057245254038634
242,2011-09-28,STORE_2_714,23.0,0,0,0.02506240390256706,0.041930329189862545,0.0800420877207609,0.07572071393811831,0.14760272124424367,0.07572071393811831,,0.12879915742153802,0.08855793864329053,8.069135802469138,63.0,29.77777777777778,29.0,8.0,55.0,0.10611448607376298,0.12879915742153802,0.15490195998574313,0.17643457663952064,0.19809738551264794,10.142554448292563,2680.0,22.048250985080188
243,2011-09-29,STORE_2_714,24.000000000000004,0,0,0.004039977801740077,-0.021022426100826982,0.10510449162332795,0.11314721187874194,0.12104369272477575,0.08855793864329053,,0.0800420877207609,0.20605448243312444,7.864197530864195,63.0,29.477777777777778,29.0,8.0,55.0,0.10611448607376298,0.12879915742153802,0.15490195998574313,0.17297678015712542,0.19028086244287645,9.904292314052393,2653.0,22.03925671612177
244,2011-09-30,STORE_2_714,25.0,0,0,0.004002742453673908,-3.723534806616968e-05,0.10914446942506803,0.10102657920288856,0.16562582537751622,0.08855793864329053,,0.16562582537751622,0.1995723549052041,7.661481481481482,63.0,29.211111111111112,28.5,8.0,55.0,0.10611448607376298,0.12686894701491896,0.15490195998574313,0.17263072694617473,0.18293068358598666,9.69361476905733,2629.0,22.030262447163324
245,2011-10-01,STORE_2_714,33.0,0,0,0.03075936380553801,0.0267566213518641,0.11314721187874194,0.14390657568427995,0.1326255652745909,0.10914446942506803,,0.1326255652745909,0.15490195998574313,7.623703703703706,63.0,29.177777777777777,28.5,8.0,55.0,0.10611448607376298,0.12686894701491896,0.1539933888219696,0.17263072694617473,0.18293068358598666,9.675148029268838,2626.0,22.021268178204906
246,2011-10-02,STORE_2_714,30.0,0,0,-0.01128101040968904,-0.04204037421522705,0.14390657568427995,0.1691423991003534,0.11314721187874194,0.1326255652745909,,0.10914446942506803,0.12493873660829993,7.6222222222222245,63.0,29.2,29.0,8.0,55.0,0.10611448607376298,0.12879915742153802,0.1539933888219696,0.17263072694617473,0.18293068358598666,9.674709297958259,2628.0,22.01227390924646
247,2011-10-03,STORE_2_714,15.999999999999998,0,0,-0.05690485133647259,-0.04562384092678355,0.1326255652745909,0.1760912590556812,0.07572071393811831,0.17263072694617473,,0.09691001300805638,0.18293068358598666,7.5777777777777775,63.0,28.88888888888889,28.5,8.0,55.0,0.10510449162332795,0.12686894701491896,0.15126767533064908,0.16949123188493556,0.18139787167462648,9.643586032205516,2600.0,22.003279640288042
248,2011-10-04,STORE_2_714,14.999999999999998,0,0,-0.0043648054024500865,0.052540045934022506,0.07572071393811831,0.1691423991003534,0.08855793864329053,0.12879915742153802,,0.0800420877207609,0.1995723549052041,7.500246913580243,63.0,28.511111111111113,27.5,8.0,55.0,0.1020460573079984,0.12299121466653784,0.15126767533064908,0.1691423991003534,0.17797950576679789,9.511961062049329,2566.0,21.994285371329596
249,2011-10-05,STORE_2_714,19.0,0,0,0.017202030107622307,0.021566835510072394,0.07135590853566823,0.12879915742153802,0.0800420877207609,0.15490195998574313,,0.10510449162332795,0.15126767533064908,7.525925925925931,63.0,28.333333333333332,27.0,8.0,55.0,0.10102657920288856,0.12104369272477575,0.15126767533064908,0.1691423991003534,0.17797950576679789,9.538803071923846,2550.0,21.98529110237118
250,2011-10-06,STORE_2_714,20.000000000000004,0,0,0.0041961145936081495,-0.013005915514014157,0.08855793864329053,0.0800420877207609,0.1326255652745909,0.15126767533064908,,0.10914446942506803,0.12879915742153802,7.604444444444446,63.0,28.233333333333334,27.0,8.0,55.0,0.10102657920288856,0.12104369272477575,0.15126767533064908,0.1691423991003534,0.17797950576679789,9.578827307362296,2541.0,21.97629683341276
251,2011-10-07,STORE_2_714,24.000000000000004,0,0,0.016390416188169346,0.012194301594561197,0.09275405323689868,0.16562582537751622,0.12879915742153802,0.1585060842545684,,0.11314721187874194,0.14390657568427995,7.589629629629629,63.0,28.133333333333333,26.5,8.0,55.0,0.10102657920288856,0.11907854591055955,0.15126767533064908,0.1691423991003534,0.17797950576679789,9.57548367657997,2532.0,21.967302564454315
252,2011-10-08,STORE_2_714,28.000000000000004,0,0,0.015794267183231903,-0.0005961490049374435,0.10914446942506803,0.1326255652745909,0.09691001300805638,0.10914446942506803,,0.14390657568427995,0.10914446942506803,7.549135802469137,63.0,28.177777777777777,27.0,8.0,55.0,0.10102657920288856,0.12104369272477575,0.15126767533064908,0.1691423991003534,0.17797950576679789,9.565360936091375,2536.0,21.958308295495897
253,2011-10-09,STORE_2_714,24.000000000000004,0,0,-0.015794267183231903,-0.031588534366463805,0.12493873660829993,0.10914446942506803,0.0669467896306132,0.10510449162332795,,0.1326255652745909,0.08855793864329053,7.498518518518519,63.0,28.233333333333334,27.0,8.0,55.0,0.10102657920288856,0.12104369272477575,0.15126767533064908,0.1691423991003534,0.17797950576679789,9.525896106362563,2541.0,21.94931402653745
254,2011-10-10,STORE_2_714,24.000000000000004,1,0,0.0,0.015794267183231903,0.10914446942506803,0.09691001300805638,0.09275405323689868,0.13641855429173,,0.07572071393811831,0.053444319226966096,7.366913580246911,63.0,28.377777777777776,27.0,8.0,55.0,0.1020460573079984,0.12104369272477575,0.15126767533064908,0.1691423991003534,0.17797950576679789,9.358740165115833,2554.0,21.940319757579033
255,2011-10-11,STORE_2_714,27.0,0,0,0.011899223299707717,0.011899223299707717,0.10914446942506803,0.0800420877207609,0.025110720583031106,0.16562582537751622,,0.07135590853566823,0.053444319226966096,7.204938271604939,63.0,28.555555555555557,27.0,8.0,55.0,0.10510449162332795,0.12104369272477575,0.15126767533064908,0.1691423991003534,0.17797950576679789,9.175089763037755,2570.0,21.931325488620587
256,2011-10-12,STORE_2_714,18.0,0,0,-0.03672280702473987,-0.04862203032444759,0.12104369272477575,0.10510449162332795,0.12104369272477575,0.11711339909634336,,0.08855793864329053,0.10914446942506803,7.2656790123456805,63.0,28.488888888888887,27.0,8.0,55.0,0.1020460573079984,0.12104369272477575,0.15126767533064908,0.1691423991003534,0.17797950576679789,9.23019525088923,2564.0,21.92233121966217
257,2011-10-13,STORE_2_714,23.0,0,0,0.02078360592329208,0.05750641294803195,0.08432088570003587,0.10914446942506803,0.1326255652745909,0.11314721187874194,,0.09275405323689868,0.11711339909634336,7.296049382716046,63.0,28.455555555555556,27.0,8.0,55.0,0.1020460573079984,0.12104369272477575,0.15126767533064908,0.1691423991003534,0.17797950576679789,9.244690077645133,2561.0,21.91333695070375
258,2011-10-14,STORE_2_714,28.000000000000004,0,0,0.01983424498497198,-0.0009493609383200985,0.10510449162332795,0.11314721187874194,0.15126767533064908,0.07572071393811831,,0.10914446942506803,0.12879915742153802,7.293827160493826,63.0,28.444444444444443,27.0,8.0,55.0,0.1020460573079984,0.12104369272477575,0.15126767533064908,0.1691423991003534,0.17797950576679789,9.244629307668573,2560.0,21.904342681745305
259,2011-10-15,STORE_2_714,19.0,0,0,-0.0363807979650094,-0.05621504294998138,0.12493873660829993,0.14390657568427995,0.08432088570003587,0.11314721187874194,,0.12493873660829993,0.10914446942506803,7.343209876543209,63.0,28.38888888888889,27.0,8.0,55.0,0.10102657920288856,0.12104369272477575,0.15126767533064908,0.1691423991003534,0.17797950576679789,9.286566889559198,2555.0,21.895348412786888
260,2011-10-16,STORE_2_714,14.0,0,0,-0.02161114901267734,0.014769648952332057,0.08855793864329053,0.1326255652745909,0.08432088570003587,0.10102657920288856,,0.10914446942506803,0.09691001300805638,7.4123456790123425,63.0,28.31111111111111,27.0,8.0,55.0,0.10102657920288856,0.12104369272477575,0.15126767533064908,0.1691423991003534,0.17797950576679789,9.378009712475825,2548.0,21.88635414382844
261,2011-10-17,STORE_2_714,19.0,0,0,0.02161114901267734,0.04322229802535468,0.0669467896306132,0.07572071393811831,0.09275405323689868,0.14390657568427995,,0.10914446942506803,0.03950854128367361,7.303703703703702,63.0,28.433333333333334,27.0,14.0,49.0,0.10102657920288856,0.12104369272477575,0.15126767533064908,0.1691423991003534,0.17797950576679789,9.17991211923371,2559.0,21.877359874870024
262,2011-10-18,STORE_2_714,18.0,0,0,-0.00423705294325466,-0.025848201955932,0.08855793864329053,0.07135590853566823,0.07572071393811831,0.1691423991003534,,0.12104369272477575,0.17952443489407516,7.220740740740741,63.0,28.155555555555555,27.0,14.0,49.0,0.10102657920288856,0.12104369272477575,0.15035143680904772,0.16597748274979995,0.17453401960640327,9.112173745163526,2534.0,21.868365605911578
263,2011-10-19,STORE_2_714,13.000000000000002,0,0,-0.021828437495672703,-0.017591384552418043,0.08432088570003587,0.08855793864329053,0.09275405323689868,0.1760912590556812,,0.08432088570003587,0.12493873660829993,7.365679012345681,63.0,27.988888888888887,26.5,13.0,50.0,0.09793915455676443,0.11907854591055955,0.15035143680904772,0.16597748274979995,0.17453401960640327,9.251169916230936,2519.0,21.85937133695316
264,2011-10-20,STORE_2_714,13.000000000000002,0,0,0.0,0.021828437495672703,0.06249244820436317,0.09275405323689868,0.13641855429173,0.1691423991003534,,0.10510449162332795,0.15490195998574313,7.414814814814815,63.0,27.733333333333334,26.0,13.0,50.0,0.09691001300805638,0.11711339909634336,0.14760272124424367,0.16597748274979995,0.17453401960640327,9.344589253391865,2496.0,21.850377067994742
265,2011-10-21,STORE_2_714,18.0,0,0,0.021828437495672703,0.021828437495672703,0.06249244820436317,0.10914446942506803,0.14390657568427995,0.12879915742153802,,0.12493873660829993,0.13641855429173,7.467407407407404,63.0,27.58888888888889,26.0,13.0,50.0,0.0937930431796881,0.11711339909634336,0.14760272124424367,0.16597748274979995,0.17453401960640327,9.393871351912354,2483.0,21.841382799036296
