soundwave-77/time-series-mts-hse/models/STORE_2_376/train_data.csv
index,timestamp,segment,target,holiday,target_change_points,target_diff_1,target_diff_2,target_lag_1,target_lag_14,target_lag_180,target_lag_30,target_lag_365,target_lag_7,target_lag_90,target_mad,target_max,target_mean,target_median,target_min,target_minmax_diff,target_q_0.25,target_q_0.50,target_q_0.75,target_q_0.90,target_q_0.95,target_std,target_sum,target_trend
0,2011-01-29,STORE_2_376,7.0,0,0,,,,,,,,,,0.0,7.0,7.0,7.0,7.0,0.0,0.02403824086743883,0.02403824086743883,0.02403824086743883,0.02403824086743883,0.02403824086743883,0.0,7.0,22.97673205607714
1,2011-01-30,STORE_2_376,9.0,0,0,0.006630578899013098,,0.02403824086743883,,,,,,,1.0,9.0,8.0,8.0,7.0,2.0,0.025695885592192106,0.02735353031694538,0.029011175041698655,0.03000576187655062,0.030337290821501276,1.4142135623730951,16.0,22.99272305122045
2,2011-01-31,STORE_2_376,8.0,0,0,-0.0033026355500856072,-0.009933214449098705,0.03066881976645193,,,,,,,0.6666666666666666,9.0,8.0,8.0,7.0,2.0,0.025702212541902577,0.027366184216366322,0.029017501991409126,0.030008292656434808,0.03033855621144337,1.0,24.0,23.008714046363764
3,2011-02-01,STORE_2_376,16.0,0,0,0.025743504598330816,0.029046140148416423,0.027366184216366322,,,,,,,3.0,16.0,10.0,8.5,7.0,9.0,0.026534198379134448,0.029017501991409126,0.036279037028513234,0.04637742810022358,0.04974355845746035,4.08248290463863,40.0,23.024705041507104
4,2011-02-02,STORE_2_376,8.0,0,0,-0.025743504598330816,-0.05148700919666163,0.05310968881469714,,,,,,,2.5599999999999996,16.0,9.6,8.0,7.0,9.0,0.027366184216366322,0.027366184216366322,0.03066881976645193,0.04413334119539906,0.04862151500504809,3.646916505762094,48.0,23.040696036650417
5,2011-02-03,STORE_2_376,9.0,0,0,0.0033026355500856072,0.029046140148416423,0.027366184216366322,,,,,,,2.1666666666666665,16.0,9.5,8.5,7.0,9.0,0.027366184216366322,0.029017501991409126,0.03066881976645193,0.04188925429057454,0.047499471552635834,3.271085446759225,57.0,23.05668703179373
6,2011-02-04,STORE_2_376,11.0,0,0,0.006530867158957759,0.003228231608872152,0.03066881976645193,,,,,,,2.1632653061224487,16.0,9.714285714285714,9.0,7.0,9.0,0.027366184216366322,0.03066881976645193,0.03393425334593081,0.043563687681124674,0.04833668824791089,3.0394235042348474,68.0,23.07267802693704
7,2011-02-05,STORE_2_376,11.0,0,0,0.0,-0.006530867158957759,0.03719968692540969,,,,,0.02403824086743883,,2.09375,16.0,9.875,9.0,7.0,9.0,0.027366184216366322,0.03066881976645193,0.03719968692540969,0.04197268749219592,0.047541188153446524,2.850438562747845,79.0,23.08866902208038
8,2011-02-06,STORE_2_376,16.0,0,0,0.01591000188928745,0.01591000188928745,0.03719968692540969,,,,,0.03066881976645193,,2.617283950617284,16.0,10.555555555555555,9.0,7.0,9.0,0.027366184216366322,0.03066881976645193,0.03719968692540969,0.05310968881469714,0.05310968881469714,3.3582402799349804,95.0,23.104660017223694
9,2011-02-07,STORE_2_376,8.0,0,0,-0.025743504598330816,-0.041653506487618265,0.05310968881469714,,,,,0.027366184216366322,,2.56,16.0,10.3,9.0,7.0,9.0,0.027366184216366322,0.03066881976645193,0.03719968692540969,0.05310968881469714,0.05310968881469714,3.267686915507326,103.0,23.120651012367006
10,2011-02-08,STORE_2_376,15.0,0,0,0.022607790745472242,0.04835129534380306,0.027366184216366322,,,,,0.05310968881469714,,2.793388429752066,16.0,10.727272727272727,9.0,7.0,9.0,0.027366184216366322,0.03066881976645193,0.04358683094362413,0.05310968881469714,0.05310968881469714,3.4085454109021076,118.0,23.136642007510318
11,2011-02-09,STORE_2_376,10.0,0,0,-0.016027445434150717,-0.03863523617962296,0.049973974961838565,,,,,0.027366184216366322,,2.6111111111111107,16.0,10.666666666666666,9.5,7.0,9.0,0.027366184216366322,0.03230767464706989,0.04039325893451691,0.05279611742941128,0.05310968881469714,3.2566947363946483,128.0,23.15263300265363
12,2011-02-10,STORE_2_376,8.0,0,0,-0.0065803453113215254,0.009447100122829191,0.03394652952768785,,,,,0.03066881976645193,,2.5680473372781063,16.0,10.461538461538462,9.0,7.0,9.0,0.027366184216366322,0.03066881976645193,0.03719968692540969,0.052482546044125424,0.05310968881469714,3.204564052914338,136.0,23.16862399779697
13,2011-02-11,STORE_2_376,8.0,0,0,0.0,0.0065803453113215254,0.027366184216366322,,,,,0.03719968692540969,,2.510204081632653,16.0,10.285714285714286,9.0,7.0,9.0,0.027366184216366322,0.03066881976645193,0.03719968692540969,0.052168974658839566,0.05310968881469714,3.148346853840586,144.0,23.184614992940283
14,2011-02-12,STORE_2_376,58.0,0,0,0.14040727921342025,0.14040727921342025,0.027366184216366322,0.02403824086743883,,,,0.03719968692540969,,6.817777777777779,58.0,13.466666666666667,9.0,7.0,51.0,0.027366184216366322,0.03066881976645193,0.04358683094362413,0.05310968881469714,0.08750882119922385,12.687826936908952,202.0,23.200605988083595
15,2011-02-13,STORE_2_376,77.99999999999999,0,0,0.045517482551304334,-0.09488979666211592,0.16777346342978658,0.03066881976645193,,,,0.05310968881469714,,12.625,78.0,17.5,9.5,7.0,71.0,0.027366184216366322,0.03230767464706989,0.05075790342505321,0.11044157612224186,0.17915283406761268,20.26162217921688,280.0,23.216596983226907
16,2011-02-14,STORE_2_376,40.0,0,0,-0.09100845301653106,-0.13652593556783538,0.2132909459810909,0.027366184216366322,,,,0.027366184216366322,,14.062283737024213,78.0,18.823529411764707,10.0,7.0,71.0,0.027366184216366322,0.03394652952768785,0.05310968881469714,0.14047888115065055,0.1768769599400474,20.363064891236434,320.0,23.232587978370248
17,2011-02-15,STORE_2_376,33.0,0,0,-0.019063006049496192,0.07194544696703487,0.12228249296455986,0.05310968881469714,,,,0.049973974961838565,,14.506172839506174,78.0,19.61111111111111,10.5,7.0,71.0,0.027366184216366322,0.03557310822654877,0.05310968881469714,0.1359297841041279,0.17460108581248215,20.03567080422224,353.0,23.24857897351356
18,2011-02-16,STORE_2_376,9.0,0,0,-0.07255066714861173,-0.05348766109911554,0.10321948691506366,0.027366184216366322,,,,0.03394652952768785,,13.977839335180056,78.0,19.05263157894737,10.0,7.0,71.0,0.027366184216366322,0.03394652952768785,0.05310968881469714,0.13138068705760517,0.1723252116849169,19.622758001334763,362.0,23.264569968656872
19,2011-02-17,STORE_2_376,3.0,0,0,-0.020203386088286965,0.05234728106032477,0.03066881976645193,0.03066881976645193,,,,0.027366184216366322,,13.6,78.0,18.25,9.5,3.0,75.0,0.027366184216366322,0.03230767464706989,0.05310968881469714,0.1268315900110826,0.17004933755735183,19.433760640482813,365.0,23.280560963800184
20,2011-02-18,STORE_2_376,0.0,0,0,-0.010465433678164965,0.009737952410122,0.010465433678164965,0.03719968692540969,,,,0.027366184216366322,,13.283446712018142,78.0,17.38095238095238,9.0,0.0,78.0,0.027366184216366322,0.03066881976645193,0.05310968881469714,0.12228249296455986,0.16777346342978658,19.355816155554358,365.0,23.296551958943496
21,2011-02-19,STORE_2_376,9.0,0,0,0.03066881976645193,0.041134253444616894,0.0,0.03719968692540969,,,,0.16777346342978658,,12.818181818181818,78.0,17.0,9.0,0.0,78.0,0.027366184216366322,0.03066881976645193,0.052325760351482495,0.12037619235961028,0.1654989149065252,18.973665961010276,374.0,23.312542954086837
22,2011-02-20,STORE_2_376,5.999999999999998,0,0,-0.009984220906600918,-0.04065304067305285,0.03066881976645193,0.05310968881469714,,,,0.2132909459810909,,12.42722117202268,78.0,16.52173913043478,9.0,0.0,78.0,0.027366184216366322,0.03066881976645193,0.05154183188826785,0.11846989175466063,0.16322436638326385,18.678790999461956,380.0,23.32853394923015
23,2011-02-21,STORE_2_376,9.0,1,0,0.009984220906600918,0.019968441813201836,0.020684598859851012,0.027366184216366322,,,,0.12228249296455986,,12.013888888888891,78.0,16.208333333333332,9.0,0.0,78.0,0.027366184216366322,0.03066881976645193,0.05075790342505321,0.11656359114971099,0.16094981786000248,18.332625151012504,389.0,23.34452494437346
24,2011-02-22,STORE_2_376,8.0,0,0,-0.0033026355500856072,-0.013286856456686525,0.03066881976645193,0.049973974961838565,,,,0.10321948691506366,,11.6576,78.0,15.88,9.0,0.0,78.0,0.027366184216366322,0.03066881976645193,0.049973974961838565,0.11465729054476141,0.15867526933674111,18.021561160639404,397.0,23.360515939516773
25,2011-02-23,STORE_2_376,10.0,0,0,0.0065803453113215254,0.009882980861407133,0.027366184216366322,0.03394652952768785,,,,0.03066881976645193,,11.313609467455619,78.0,15.653846153846153,9.0,0.0,78.0,0.027366184216366322,0.03066881976645193,0.046780402952731344,0.11275098993981175,0.1564007208134799,17.69506667451086,407.0,23.376506934660114
26,2011-02-24,STORE_2_376,13.0,0,0,0.009687267403131722,0.0031069220918101964,0.03394652952768785,0.027366184216366322,,,,0.010465433678164965,,10.938271604938267,78.0,15.555555555555555,9.0,0.0,78.0,0.027366184216366322,0.03066881976645193,0.04680388594632907,0.11084468933486218,0.15412617229021852,17.35895542172205,420.0,23.392497929803426
27,2011-02-25,STORE_2_376,8.0,0,0,-0.016267612714453247,-0.02595488011758497,0.04363379693081957,0.027366184216366322,,,,0.0,,10.66326530612245,78.0,15.285714285714286,9.0,0.0,78.0,0.027366184216366322,0.03066881976645193,0.04521884143857432,0.10893838872991253,0.15185162376695716,17.09419902223091,428.0,23.408488924946738
28,2011-02-26,STORE_2_376,1.0,0,0,-0.023849610493529197,-0.00758199777907595,0.027366184216366322,0.16777346342978658,,,,0.03066881976645193,,10.513674197384068,78.0,14.793103448275861,9.0,0.0,78.0,0.027366184216366322,0.03066881976645193,0.04363379693081957,0.10703208812496288,0.1495770752436958,16.99449345764014,429.0,23.42447992009005
29,2011-02-27,STORE_2_376,8.0,0,0,0.023849610493529197,0.047699220987058394,0.0035165737228371272,0.2132909459810909,,,,0.020684598859851012,,10.268888888888887,78.0,14.566666666666666,9.0,0.0,78.0,0.027366184216366322,0.03066881976645193,0.0420252694294671,0.10512578752001331,0.14730252672043442,16.744908301420722,437.0,23.440470915233362
30,2011-02-28,STORE_2_376,19.000000000000004,0,0,0.03501704872729222,0.011167438233763025,0.027366184216366322,0.12228249296455986,,0.02403824086743883,,0.03066881976645193,,10.149843912591047,78.0,14.709677419354838,9.0,0.0,78.0,0.027366184216366322,0.03066881976645193,0.04680388594632907,0.10321948691506366,0.14502797819717322,16.482705175197218,456.0,23.456461910376703
31,2011-03-01,STORE_2_376,10.0,0,0,-0.028436703415970696,-0.06345375214326292,0.062383232943658544,0.10321948691506366,,0.03066881976645193,,0.027366184216366322,,9.90625,78.0,14.5625,9.0,0.0,78.0,0.027366184216366322,0.03066881976645193,0.04521884143857432,0.09913586151792324,0.14275342967391186,16.23603618398721,466.0,23.472452905520015
32,2011-03-02,STORE_2_376,13.0,0,0,0.009687267403131722,0.03812397081910242,0.03394652952768785,0.03066881976645193,,0.027366184216366322,,0.03394652952768785,,9.629017447199264,78.0,14.515151515151516,9.0,0.0,78.0,0.027366184216366322,0.03066881976645193,0.04363379693081957,0.09505223612078267,0.1404788811506505,15.982649209614019,479.0,23.488443900663327
33,2011-03-03,STORE_2_376,13.0,0,0,0.0,-0.009687267403131722,0.04363379693081957,0.010465433678164965,,0.05310968881469714,,0.04363379693081957,,9.36678200692042,78.0,14.470588235294118,9.0,0.0,78.0,0.027366184216366322,0.03066881976645193,0.04363379693081957,0.0909686107236421,0.13820433262738913,15.740769867040497,492.0,23.50443489580664
34,2011-03-04,STORE_2_376,14.0,0,0,0.0031816587861892495,0.0031816587861892495,0.04363379693081957,0.0,,0.027366184216366322,,0.027366184216366322,,9.10530612244898,78.0,14.457142857142857,9.0,0.0,78.0,0.027366184216366322,0.03066881976645193,0.04522462632391419,0.08688498532650167,0.13592978410412773,15.507764387638892,506.0,23.52042589094998
35,2011-03-05,STORE_2_376,13.0,0,0,-0.0031816587861892495,-0.006363317572378499,0.04681545571700882,0.03066881976645193,,0.03066881976645193,,0.0035165737228371272,,8.870370370370374,78.0,14.416666666666666,9.5,0.0,78.0,0.027366184216366322,0.03230767464706989,0.044429211627366884,0.0828013599293611,0.13365523558086653,15.286548708867265,519.0,23.536416886093292
36,2011-03-06,STORE_2_376,19.000000000000004,0,0,0.018749436012838974,0.021931094799028224,0.04363379693081957,0.020684598859851012,,0.03719968692540969,,0.027366184216366322,,8.818115412710002,78.0,14.54054054054054,10.0,0.0,78.0,0.027366184216366322,0.03394652952768785,0.04681545571700882,0.07871773453222053,0.131380687057605,15.09156238615655,538.0,23.552407881236604
37,2011-03-07,STORE_2_376,15.0,0,0,-0.01240925798181998,-0.031158693994658954,0.062383232943658544,0.03066881976645193,,0.03719968692540969,,0.062383232943658544,,8.603878116343484,78.0,14.552631578947368,10.0,0.0,78.0,0.027366184216366322,0.03394652952768785,0.04918434515063113,0.07463410913508026,0.1291061385343438,14.886412031040077,553.0,23.568398876379916
38,2011-03-08,STORE_2_376,16.0,0,0,0.0031357138528585737,0.015544971834678553,0.049973974961838565,0.027366184216366322,,0.05310968881469714,,0.03394652952768785,,8.43655489809336,78.0,14.58974358974359,10.0,0.0,78.0,0.027366184216366322,0.03394652952768785,0.049973974961838565,0.07055048373793968,0.1268315900110826,14.691060562765351,569.0,23.58438987152323
39,2011-03-09,STORE_2_376,21.0,0,0,0.01534769184115458,0.012211977988296006,0.05310968881469714,0.03394652952768785,,0.027366184216366322,,0.04363379693081957,,8.45,78.0,14.75,10.0,0.0,78.0,0.027366184216366322,0.03394652952768785,0.05075790342505321,0.07193359128177296,0.12455704148782107,14.536867366131975,590.0,23.60038086666657
40,2011-03-10,STORE_2_376,18.0,0,0,-0.009143379439869752,-0.024491071281024332,0.06845738065585172,0.04363379693081957,,0.049973974961838565,,0.04363379693081957,,8.352171326591312,78.0,14.829268292682928,10.0,0.0,78.0,0.027366184216366322,0.03394652952768785,0.05310968881469714,0.06845738065585172,0.12228249296455986,14.362977475134446,608.0,23.61637186180988
41,2011-03-11,STORE_2_376,15.0,0,0,-0.009340026254143402,-0.00019664681427365022,0.05931400121598197,0.027366184216366322,,0.03394652952768785,,0.04681545571700882,,8.158730158730155,78.0,14.833333333333334,10.5,0.0,78.0,0.027366184216366322,0.03557310822654877,0.052325760351482495,0.0678499658846324,0.12132934266208496,14.186762408748388,623.0,23.632362856953193
42,2011-03-12,STORE_2_376,0.0,0,0,-0.049973974961838565,-0.04063394870769516,0.049973974961838565,0.0035165737228371272,,0.027366184216366322,,0.04363379693081957,,8.193618171984857,78.0,14.488372093023257,10.0,0.0,78.0,0.027366184216366322,0.03394652952768785,0.05154183188826785,0.06724255111341311,0.12037619235961021,14.19820929859895,623.0,23.648353852096506
43,2011-03-13,STORE_2_376,9.0,0,0,0.03066881976645193,0.0806427947282905,0.0,0.027366184216366322,,0.027366184216366322,,0.062383232943658544,,8.086776859504132,78.0,14.363636363636363,10.0,0.0,78.0,0.027366184216366322,0.03394652952768785,0.05075790342505321,0.06663513634219378,0.11942304205713546,14.056515346224575,632.0,23.664344847239846
44,2011-03-14,STORE_2_376,21.999999999999996,0,0,0.04079407102912501,0.01012525126267308,0.03066881976645193,0.062383232943658544,,0.16777346342978658,,0.049973974961838565,,8.133333333333338,78.0,14.533333333333333,10.0,0.0,78.0,0.027366184216366322,0.03394652952768785,0.05310968881469714,0.07026068673968686,0.11846989175466056,13.942414033836075,654.0,23.68033584238316
45,2011-03-15,STORE_2_376,10.0,0,0,-0.03751636126788909,-0.0783104322970141,0.07146289079557694,0.03394652952768785,,0.2132909459810909,,0.05310968881469714,,8.020793950850658,78.0,14.434782608695652,10.0,0.0,78.0,0.027366184216366322,0.03394652952768785,0.052325760351482495,0.06996013572571433,0.11751674145218581,13.802821247706401,664.0,23.69632683752647
46,2011-03-16,STORE_2_376,14.0,0,0,0.012868926189320971,0.05038528745721006,0.03394652952768785,0.04363379693081957,,0.12228249296455986,,0.06845738065585172,,7.85604345857854,78.0,14.425531914893616,10.0,0.0,78.0,0.027366184216366322,0.03394652952768785,0.05154183188826785,0.0696595847117418,0.11656359114971092,13.652113518252902,678.0,23.712317832669783
47,2011-03-17,STORE_2_376,8.0,0,0,-0.019449271500642497,-0.03231819768996347,0.04681545571700882,0.04363379693081957,,0.10321948691506366,,0.05931400121598197,,7.7760416666666705,78.0,14.291666666666666,10.0,0.0,78.0,0.027366184216366322,0.03394652952768785,0.05075790342505321,0.0693590336977693,0.11561044084723616,13.53790318679505,686.0,23.728308827813095
48,2011-03-18,STORE_2_376,15.0,0,0,0.022607790745472242,0.04205706224611474,0.027366184216366322,0.04681545571700882,,0.03066881976645193,,0.049973974961838565,,7.636817992503121,78.0,14.306122448979592,10.0,0.0,78.0,0.027366184216366322,0.03394652952768785,0.049973974961838565,0.06905848268379677,0.11465729054476127,13.396523307735254,701.0,23.744299822956435
49,2011-03-19,STORE_2_376,13.0,0,0,-0.006340178031018995,-0.028947968776491237,0.049973974961838565,0.04363379693081957,,0.010465433678164965,,0.0,,7.500799999999995,78.0,14.28,10.5,0.0,78.0,0.027366184216366322,0.03557310822654877,0.049973974961838565,0.06875793166982425,0.11370414024228652,13.260406002341657,714.0,23.760290818099747
50,2011-03-20,STORE_2_376,10.0,0,0,-0.009687267403131722,-0.003347089372112727,0.04363379693081957,0.062383232943658544,,0.0,,0.03066881976645193,,7.406382160707417,78.0,14.196078431372548,10.0,0.0,78.0,0.027366184216366322,0.03394652952768785,0.049973974961838565,0.06845738065585172,0.11275098993981175,13.14080607549345,724.0,23.77628181324306
51,2011-03-21,STORE_2_376,7.0,0,0,-0.009908288660249016,-0.00022102125711729453,0.03394652952768785,0.049973974961838565,,0.03066881976645193,,0.07146289079557694,,7.3491124260355045,78.0,14.057692307692308,10.0,0.0,78.0,0.027366184216366322,0.03394652952768785,0.049973974961838565,0.0678499658846324,0.11179783963733687,13.049548803767145,731.0,23.79227280838637
52,2011-03-22,STORE_2_376,7.0,0,0,0.0,0.009908288660249016,0.02403824086743883,0.05310968881469714,,0.020684598859851012,,0.03394652952768785,,7.296546813812741,78.0,13.924528301886792,10.0,0.0,78.0,0.027366184216366322,0.03394652952768785,0.049973974961838565,0.06724255111341311,0.1108446893348621,12.959773645642846,738.0,23.808263803529712
53,2011-03-23,STORE_2_376,10.0,0,0,0.009908288660249016,0.009908288660249016,0.02403824086743883,0.06845738065585172,,0.03066881976645193,,0.04681545571700882,,7.209876543209875,78.0,13.851851851851851,10.0,0.0,78.0,0.027366184216366322,0.03394652952768785,0.049973974961838565,0.06663513634219378,0.10989153903238723,12.848033998943786,748.0,23.824254798673024
54,2011-03-24,STORE_2_376,2.0,0,0,-0.02694162795902937,-0.03684991661927839,0.03394652952768785,0.05931400121598197,,0.027366184216366322,,0.027366184216366322,,7.2198347107437995,78.0,13.636363636363637,10.0,0.0,78.0,0.027366184216366322,0.03394652952768785,0.049973974961838565,0.06602772157097446,0.10893838872991246,12.82844587504751,750.0,23.840245793816337
55,2011-03-25,STORE_2_376,25.0,0,0,0.07335170238690097,0.10029333034593034,0.007004901568658478,0.049973974961838565,,0.03394652952768785,,0.049973974961838565,,7.359056122448982,78.0,13.839285714285714,10.0,0.0,78.0,0.027366184216366322,0.03394652952768785,0.049973974961838565,0.06996013572571433,0.10798523842743771,12.80167146148472,775.0,23.85623678895965
56,2011-03-26,STORE_2_376,11.0,0,0,-0.04315691703014976,-0.11650861941705073,0.08035660395555945,0.0,,0.04363379693081957,,0.04363379693081957,,7.263157894736841,78.0,13.789473684210526,10.0,0.0,78.0,0.027366184216366322,0.03394652952768785,0.049973974961838565,0.0696595847117418,0.10703208812496282,12.692428623431466,786.0,23.87222778410296
57,2011-03-27,STORE_2_376,5.0000000000000036,0,0,-0.019894828716939258,0.023262088313210503,0.03719968692540969,0.03066881976645193,,0.027366184216366322,,0.03394652952768785,,7.2372175980975,78.0,13.637931034482758,10.0,0.0,78.0,0.027366184216366322,0.03394652952768785,0.049973974961838565,0.0693590336977693,0.10607893782248806,12.633425832918874,791.0,23.8882187792463
58,2011-03-28,STORE_2_376,8.0,0,0,0.010061326007895891,0.02995615472483515,0.01730485820847043,0.07146289079557694,,0.0035165737228371272,,0.02403824086743883,,7.176098822177537,78.0,13.542372881355933,10.0,0.0,78.0,0.027366184216366322,0.03394652952768785,0.049973974961838565,0.06905848268379677,0.10512578752001317,12.54553366589124,799.0,23.904209774389614
59,2011-03-29,STORE_2_376,8.0,0,0,0.0,-0.010061326007895891,0.027366184216366322,0.03394652952768785,,0.027366184216366322,,0.02403824086743883,,7.114999999999997,78.0,13.45,10.0,0.0,78.0,0.027366184216366322,0.03394652952768785,0.049973974961838565,0.06875793166982425,0.10417263721753842,12.459323647883613,807.0,23.920200769532926
60,2011-03-30,STORE_2_376,8.0,0,0,0.0,0.0,0.027366184216366322,0.04681545571700882,,0.062383232943658544,,0.03394652952768785,,7.0540177371674275,78.0,13.360655737704919,10.0,0.0,78.0,0.027366184216366322,0.03394652952768785,0.049973974961838565,0.06845738065585172,0.10321948691506366,12.374749542092081,815.0,23.936191764676238
61,2011-03-31,STORE_2_376,13.0,0,0,0.016267612714453247,0.016267612714453247,0.027366184216366322,0.027366184216366322,,0.03394652952768785,,0.007004901568658478,,6.943808532778355,78.0,13.35483870967742,10.0,0.0,78.0,0.027366184216366322,0.03394652952768785,0.049973974961838565,0.0678499658846324,0.10207634276708835,12.272983489928224,828.0,23.95218275981955
62,2011-04-01,STORE_2_376,18.0,0,0,0.015680204285162397,-0.0005874084292908505,0.04363379693081957,0.049973974961838565,,0.04363379693081957,,0.08035660395555945,,6.93424036281179,78.0,13.428571428571429,10.0,0.0,78.0,0.027366184216366322,0.03394652952768785,0.049973974961838565,0.06724255111341311,0.1009331986191132,12.187664686350391,846.0,23.96817375496289
63,2011-04-02,STORE_2_376,7.0,0,0,-0.035275760348543135,-0.05095596463370553,0.05931400121598197,0.04363379693081957,,0.04363379693081957,,0.03719968692540969,,6.888671875,78.0,13.328125,10.0,0.0,78.0,0.027366184216366322,0.03394652952768785,0.049973974961838565,0.06663513634219378,0.0997900544711379,12.11722463836121,853.0,23.984164750106203
64,2011-04-03,STORE_2_376,10.0,0,0,0.009908288660249016,0.04518404900879215,0.02403824086743883,0.03394652952768785,,0.04681545571700882,,0.01730485820847043,,6.814201183431955,78.0,13.276923076923078,10.0,0.0,78.0,0.027366184216366322,0.03394652952768785,0.049973974961838565,0.06602772157097446,0.09864691032316275,12.029271190916573,863.0,24.000155745249515
65,2011-04-04,STORE_2_376,8.0,0,0,-0.0065803453113215254,-0.016488633971570542,0.03394652952768785,0.02403824086743883,,0.04363379693081957,,0.027366184216366322,,6.759412304866848,78.0,13.196969696969697,10.0,0.0,78.0,0.027366184216366322,0.03394652952768785,0.049973974961838565,0.06542030679975513,0.0975037661751876,11.95403980247128,871.0,24.016146740392827
66,2011-04-05,STORE_2_376,13.0,0,0,0.016267612714453247,0.022847958025774773,0.027366184216366322,0.02403824086743883,,0.062383232943658544,,0.027366184216366322,,6.660280686121631,78.0,13.194029850746269,10.0,0.0,78.0,0.027366184216366322,0.03394652952768785,0.049973974961838565,0.06481289202853581,0.0963606220272123,11.86315764338579,884.0,24.032137735536168
67,2011-04-06,STORE_2_376,16.0,0,0,0.009475891883877569,-0.006791720830575679,0.04363379693081957,0.03394652952768785,,0.049973974961838565,,0.027366184216366322,,6.61937716262976,78.0,13.235294117647058,10.0,0.0,78.0,0.027366184216366322,0.03394652952768785,0.049973974961838565,0.06420547725731653,0.09521747787923715,11.779209672521269,900.0,24.04812873067948
68,2011-04-07,STORE_2_376,15.0,0,0,-0.0031357138528585737,-0.012611605736736142,0.05310968881469714,0.007004901568658478,,0.05310968881469714,,0.04363379693081957,,6.5582860743541245,78.0,13.26086956521739,10.0,0.0,78.0,0.027366184216366322,0.03394652952768785,0.049973974961838565,0.0635980624860972,0.09407433373126185,11.694206929216058,915.0,24.064119725822792
69,2011-04-08,STORE_2_376,11.999999999999998,0,0,-0.009545317906230394,-0.00640960405337182,0.049973974961838565,0.08035660395555945,,0.06845738065585172,,0.05931400121598197,,6.475918367346937,78.0,13.242857142857142,10.0,0.0,78.0,0.027366184216366322,0.03394652952768785,0.049973974961838565,0.06299064771487788,0.09293118958328671,11.610135145433839,927.0,24.080110720966104
70,2011-04-09,STORE_2_376,37.0,0,0,0.07378621416091866,0.08333153206714905,0.04042865705560817,0.03719968692540969,,0.05931400121598197,,0.02403824086743883,,6.837135488990281,78.0,13.577464788732394,10.0,0.0,78.0,0.027366184216366322,0.03394652952768785,0.049973974961838565,0.06845738065585172,0.10871717906579526,11.866714519229212,964.0,24.096101716109416
71,2011-04-10,STORE_2_376,37.0,0,0,0.0,-0.07378621416091866,0.11421487121652683,0.01730485820847043,,0.049973974961838565,,0.03394652952768785,,7.175925925925924,78.0,13.902777777777779,10.0,0.0,78.0,0.027366184216366322,0.03394652952768785,0.049973974961838565,0.07116233978160441,0.11421487121652683,12.10186776670773,1001.0,24.112092711252757
72,2011-04-11,STORE_2_376,18.0,0,0,-0.05490087000054487,-0.05490087000054487,0.11421487121652683,0.027366184216366322,,0.0,,0.027366184216366322,,7.1514355413773645,78.0,13.95890410958904,10.0,0.0,78.0,0.027366184216366322,0.03394652952768785,0.049973974961838565,0.07086178876763188,0.11421487121652683,12.027097133099518,1019.0,24.12808370639607
73,2011-04-12,STORE_2_376,19.000000000000004,0,0,0.0030692317276765774,0.057970101728221445,0.05931400121598197,0.027366184216366322,,0.03066881976645193,,0.04363379693081957,,7.14463111760409,78.0,14.027027027027026,10.5,0.0,78.0,0.027366184216366322,0.03557310822654877,0.052325760351482495,0.07056123775365938,0.11421487121652683,11.95880253886831,1038.0,24.14407470153938
74,2011-04-13,STORE_2_376,30.0,0,0,0.03240308643454232,0.029333854706865746,0.062383232943658544,0.027366184216366322,,0.07146289079557694,,0.05310968881469714,,7.333333333333335,78.0,14.24,11.0,0.0,78.0,0.027366184216366322,0.03719968692540969,0.05310968881469714,0.07679911869156653,0.11421487121652683,12.020073301031161,1068.0,24.160065696682693
75,2011-04-14,STORE_2_376,21.0,0,0,-0.02632893872234915,-0.05873202515689147,0.09478631937820087,0.04363379693081957,,0.03394652952768785,,0.049973974961838565,,7.353878116343487,78.0,14.328947368421053,11.0,0.0,78.0,0.027366184216366322,0.03719968692540969,0.05310968881469714,0.07590974737556819,0.11421487121652683,11.964824175217105,1089.0,24.176056691826034
76,2011-04-15,STORE_2_376,38.0,0,0,0.048463383936600046,0.0747923226589492,0.06845738065585172,0.05931400121598197,,0.04681545571700882,,0.04042865705560817,,7.6576151121605625,78.0,14.636363636363637,11.0,0.0,78.0,0.027366184216366322,0.03719968692540969,0.05310968881469714,0.0861284901246161,0.11475604989171183,12.188118773397711,1127.0,24.192047686969346
77,2011-04-16,STORE_2_376,21.999999999999996,0,0,-0.045457873796874826,-0.09392125773347487,0.11692076459245176,0.02403824086743883,,0.027366184216366322,,0.11421487121652683,,7.68047337278107,78.0,14.73076923076923,11.0,0.0,78.0,0.027366184216366322,0.03719968692540969,0.05310968881469714,0.08468551858235183,0.11462075522291555,12.1373878497881,1149.0,24.208038682112658
78,2011-04-17,STORE_2_376,25.0,0,0,0.008893713159982511,0.05435158695685734,0.07146289079557694,0.03394652952768785,,0.049973974961838565,,0.11421487121652683,,7.7477968274315065,78.0,14.860759493670885,11.0,0.0,78.0,0.027366184216366322,0.03719968692540969,0.05621184501533955,0.08324254704008778,0.11448546055411932,12.114553842399209,1174.0,24.22402967725597
79,2011-04-18,STORE_2_376,18.0,0,0,-0.021042602739577483,-0.029936315899559994,0.08035660395555945,0.027366184216366322,,0.04363379693081957,,0.05931400121598197,,7.699999999999996,78.0,14.9,11.5,0.0,78.0,0.027366184216366322,0.03881417199050893,0.05931400121598197,0.08179957549782371,0.11435016588532307,12.04275085274398,1192.0,24.240020672399282
80,2011-04-19,STORE_2_376,19.000000000000004,0,0,0.0030692317276765774,0.02411183446725406,0.05931400121598197,0.04363379693081957,,0.03394652952768785,,0.062383232943658544,,7.667428745618042,78.0,14.950617283950617,12.0,0.0,78.0,0.027366184216366322,0.04042865705560817,0.05931400121598197,0.08035660395555945,0.11421487121652683,11.975914614934323,1211.0,24.256011667542623
81,2011-04-20,STORE_2_376,17.0,0,0,-0.006160308704818471,-0.009229540432495048,0.062383232943658544,0.05310968881469714,,0.02403824086743883,,0.09478631937820087,,7.604402141582395,78.0,14.975609756097562,12.5,0.0,78.0,0.027366184216366322,0.04203122699321387,0.05931400121598197,0.08035660395555945,0.11421487121652683,11.903911183953749,1228.0,24.272002662685935
82,2011-04-21,STORE_2_376,26.999999999999996,0,0,0.02996322337744322,0.03612353208226169,0.05622292423884007,0.049973974961838565,,0.02403824086743883,,0.06845738065585172,,7.7018435186529315,78.0,15.120481927710843,13.0,0.0,78.0,0.027366184216366322,0.04363379693081957,0.05931400121598197,0.08502023888413851,0.11421487121652683,11.904495554161867,1255.0,24.287993657829247
83,2011-04-22,STORE_2_376,24.0,0,0,-0.008773924307505135,-0.038737147684948355,0.08618614761628329,0.04042865705560817,,0.03394652952768785,,0.11692076459245176,,7.748582766439912,78.0,15.226190476190476,13.0,0.0,78.0,0.027366184216366322,0.04363379693081957,0.05931400121598197,0.08443728451806616,0.11421487121652683,11.872161616877426,1279.0,24.30398465297256
84,2011-04-23,STORE_2_376,25.0,0,0,0.0029443806467812916,0.011718304954286426,0.07741222330877816,0.11421487121652683,,0.007004901568658478,,0.07146289079557694,,7.806228373702417,78.0,15.341176470588236,13.0,0.0,78.0,0.027366184216366322,0.04363379693081957,0.05931400121598197,0.08385433015199381,0.11421487121652683,11.848802371845808,1304.0,24.3199756481159
85,2011-04-24,STORE_2_376,16.0,0,0,-0.02724691514086231,-0.030191295787643603,0.08035660395555945,0.11421487121652683,,0.08035660395555945,,0.08035660395555945,,7.725256895619252,78.0,15.348837209302326,13.0,0.0,78.0,0.027366184216366322,0.04363379693081957,0.05931400121598197,0.08327137578592136,0.11421487121652683,11.779111563282108,1320.0,24.335966643259212
86,2011-04-25,STORE_2_376,13.0,0,0,-0.009475891883877569,0.017771023256984743,0.05310968881469714,0.05931400121598197,,0.03719968692540969,,0.05931400121598197,,7.655700885189589,78.0,15.32183908045977,13.0,0.0,78.0,0.027366184216366322,0.04363379693081957,0.05931400121598197,0.08268842141984901,0.11421487121652683,11.713135394270035,1333.0,24.351957638402524
87,2011-04-26,STORE_2_376,25.0,0,0,0.03672280702473988,0.04619869890861745,0.04363379693081957,0.062383232943658544,,0.01730485820847043,,0.062383232943658544,,7.708677685950409,78.0,15.431818181818182,13.0,0.0,78.0,0.027366184216366322,0.04363379693081957,0.06008130914790111,0.08210546705377658,0.11421487121652683,11.691234022893237,1358.0,24.367948633545836
88,2011-04-27,STORE_2_376,23.000000000000004,0,0,-0.0059088596105202895,-0.04263166663526017,0.08035660395555945,0.09478631937820087,,0.027366184216366322,,0.05622292423884007,,7.729074611791446,78.0,15.51685393258427,13.0,0.0,78.0,0.027366184216366322,0.04363379693081957,0.062383232943658544,0.08152251268770423,0.11421487121652683,11.652265054437974,1381.0,24.38393962868915
89,2011-04-28,STORE_2_376,18.0,0,0,-0.015133743129057194,-0.009224883518536904,0.07444774434503916,0.06845738065585172,,0.027366184216366322,,0.08618614761628329,,7.6775308641975295,78.0,15.544444444444444,13.0,0.0,78.0,0.027366184216366322,0.04363379693081957,0.0616159250117394,0.08093955832163188,0.11421487121652683,11.589574073967517,1399.0,24.39993062383249
90,2011-04-29,STORE_2_376,26.0,0,0,0.023967155756894128,0.03910089888595132,0.05931400121598197,0.11692076459245176,,0.027366184216366322,,0.07741222330877816,0.02403824086743883,7.745679012345675,78.0,15.755555555555556,13.0,0.0,78.0,0.028191843103887726,0.04363379693081957,0.062383232943658544,0.08357165603721683,0.11421487121652683,11.605220746039025,1418.0,24.4159216189758
91,2011-04-30,STORE_2_376,21.999999999999996,0,0,-0.011818266177299155,-0.03578542193419328,0.0832811569728761,0.07146289079557694,,0.04363379693081957,,0.08035660395555945,0.03066881976645193,7.768888888888882,78.0,15.9,13.0,0.0,78.0,0.028191843103887726,0.04363379693081957,0.062383232943658544,0.08357165603721683,0.11421487121652683,11.601094485367618,1431.0,24.431912614119113
92,2011-05-01,STORE_2_376,17.0,0,0,-0.015239966556736866,-0.00342170037943771,0.07146289079557694,0.08035660395555945,,0.05931400121598197,,0.05310968881469714,0.027366184216366322,7.711111111111111,78.0,16.0,13.0,0.0,78.0,0.03066881976645193,0.04363379693081957,0.062383232943658544,0.08357165603721683,0.11421487121652683,11.570982691605678,1440.0,24.447903609262426
93,2011-05-02,STORE_2_376,31.0,0,0,0.04139268515822505,0.056632651714961915,0.05622292423884007,0.05931400121598197,,0.02403824086743883,,0.04363379693081957,0.05310968881469714,7.922222222222223,78.0,16.166666666666668,13.0,0.0,78.0,0.03066881976645193,0.04363379693081957,0.062383232943658544,0.08704616479247512,0.11421487121652683,11.678511910746087,1455.0,24.463894604405766
94,2011-05-03,STORE_2_376,31.999999999999996,0,0,0.0028109773338284155,-0.038581707824396634,0.09761560939706512,0.062383232943658544,,0.03394652952768785,,0.08035660395555945,0.027366184216366322,8.072592592592589,78.0,16.433333333333334,13.5,0.0,78.0,0.03066881976645193,0.04522462632391419,0.06693884372780343,0.09506924838008732,0.11421487121652683,11.76363660044868,1479.0,24.47988559954908
95,2011-05-04,STORE_2_376,26.999999999999996,0,0,-0.014240439114610245,-0.01705141644843866,0.10042658673089354,0.05622292423884007,,0.027366184216366322,,0.07444774434503916,0.03066881976645193,8.15185185185185,78.0,16.633333333333333,14.0,0.0,78.0,0.03066881976645193,0.04681545571700882,0.06845738065585172,0.09506924838008732,0.11421487121652683,11.788825407748728,1497.0,24.49587659469239
96,2011-05-05,STORE_2_376,28.0,0,0,0.002885688237488207,0.017126127352098452,0.08618614761628329,0.08618614761628329,,0.04363379693081957,,0.05931400121598197,0.03719968692540969,8.253333333333323,78.0,16.822222222222223,14.5,0.0,78.0,0.03066881976645193,0.04839471533942369,0.07071151326064563,0.09506924838008732,0.11421487121652683,11.833657747307022,1514.0,24.511867589835703
97,2011-05-06,STORE_2_376,28.0,0,0,0.0,-0.002885688237488207,0.0890718358537715,0.07741222330877816,,0.05310968881469714,,0.0832811569728761,0.03719968692540969,8.34691358024691,78.0,17.011111111111113,15.0,0.0,78.0,0.03066881976645193,0.049973974961838565,0.07146289079557694,0.09506924838008732,0.11421487121652683,11.875283030992032,1531.0,24.527858584979015
98,2011-05-07,STORE_2_376,16.0,0,0,-0.03596214703907436,-0.03596214703907436,0.0890718358537715,0.08035660395555945,,0.049973974961838565,,0.07146289079557694,0.05310968881469714,8.346913580246913,78.0,17.011111111111113,15.0,0.0,78.0,0.03066881976645193,0.049973974961838565,0.07146289079557694,0.09506924838008732,0.11421487121652683,11.875283030992032,1531.0,24.543849580122355
99,2011-05-08,STORE_2_376,42.0,0,0,0.07446914395981122,0.11043129099888557,0.05310968881469714,0.05310968881469714,,0.04042865705560817,,0.05622292423884007,0.027366184216366322,8.60000000000001,78.0,17.38888888888889,15.0,0.0,78.0,0.03066881976645193,0.049973974961838565,0.07146289079557694,0.09789670713044799,0.11570311257328554,12.123609100757294,1565.0,24.559840575265667
100,2011-05-09,STORE_2_376,42.0,0,0,0.0,-0.07446914395981122,0.12757883277450835,0.04363379693081957,,0.11421487121652683,,0.09761560939706512,0.049973974961838565,8.900246913580236,78.0,17.68888888888889,15.0,0.0,78.0,0.03066881976645193,0.049973974961838565,0.07370153095767361,0.10070587674931057,0.1198697151971112,12.394856168012513,1592.0,24.57583157040898
101,2011-05-10,STORE_2_376,29.0,0,0,-0.03564035626913374,-0.03564035626913374,0.12757883277450835,0.08035660395555945,,0.11421487121652683,,0.10042658673089354,0.03394652952768785,8.973333333333324,78.0,17.9,15.0,0.0,78.0,0.03066881976645193,0.049973974961838565,0.0766711035678434,0.10070587674931057,0.1198697151971112,12.424197123247176,1611.0,24.59182256555229
102,2011-05-11,STORE_2_376,21.0,0,0,-0.02348109584952289,0.012159260419610851,0.09193847650537461,0.07444774434503916,,0.05931400121598197,,0.08618614761628329,0.027366184216366322,8.921975308641972,78.0,18.044444444444444,15.5,0.0,78.0,0.03148824720676091,0.05154183188826785,0.0766711035678434,0.10070587674931057,0.1198697151971112,12.383308003260701,1624.0,24.607813560695632
103,2011-05-12,STORE_2_376,19.000000000000004,0,0,-0.0060741477121931745,0.017406948137329716,0.06845738065585172,0.05931400121598197,,0.062383232943658544,,0.0890718358537715,0.027366184216366322,8.848148148148152,78.0,18.166666666666668,16.0,0.0,78.0,0.03394652952768785,0.05310968881469714,0.0766711035678434,0.10070587674931057,0.1198697151971112,12.3372551715744,1635.0,24.623804555838944
104,2011-05-13,STORE_2_376,25.0,0,0,0.017973371011900906,0.02404751872409408,0.062383232943658544,0.0832811569728761,,0.09478631937820087,,0.0890718358537715,0.16777346342978658,8.422222222222217,78.0,17.8,16.0,0.0,78.0,0.03394652952768785,0.05310968881469714,0.0766711035678434,0.09789670713044799,0.11570311257328554,11.608985284073828,1602.0,24.639795550982257
105,2011-05-14,STORE_2_376,0.0,0,0,-0.08035660395555945,-0.09832997496746035,0.08035660395555945,0.07146289079557694,,0.06845738065585172,,0.05310968881469714,0.2132909459810909,7.838518518518511,42.0,16.933333333333334,15.5,0.0,42.0,0.03148824720676091,0.05154183188826785,0.07370153095767361,0.09506924838008732,0.11421487121652683,9.841211216219634,1524.0,24.65578654612557
106,2011-05-15,STORE_2_376,21.0,0,0,0.06845738065585172,0.14881398461141115,0.0,0.05622292423884007,,0.11692076459245176,,0.12757883277450835,0.12228249296455986,7.608641975308633,42.0,16.72222222222222,15.5,0.0,42.0,0.03148824720676091,0.05154183188826785,0.07146289079557694,0.09222326079265726,0.10926694828086837,9.540013635985094,1505.0,24.67177754126888
107,2011-05-16,STORE_2_376,23.000000000000004,0,0,0.005990363689187442,-0.06246701696666428,0.06845738065585172,0.09761560939706512,,0.07146289079557694,,0.12757883277450835,0.10321948691506366,7.487654320987645,42.0,16.61111111111111,15.5,0.0,42.0,0.03148824720676091,0.05154183188826785,0.07146289079557694,0.08935849991893184,0.1080101431979918,9.405585770986344,1495.0,24.68776853641222
108,2011-05-17,STORE_2_376,21.999999999999996,0,0,-0.0029848535494622214,-0.008975217238649663,0.07444774434503916,0.10042658673089354,,0.08035660395555945,,0.09193847650537461,0.03066881976645193,7.472592592592593,42.0,16.755555555555556,16.0,0.0,42.0,0.03394652952768785,0.05310968881469714,0.07146289079557694,0.08935849991893184,0.1080101431979918,9.387190783801385,1508.0,24.703759531555534
109,2011-05-18,STORE_2_376,20.0,0,0,-0.006031964769913065,-0.0030471112204508433,0.07146289079557694,0.08618614761628329,,0.05931400121598197,,0.06845738065585172,0.010465433678164965,7.3641975308642,42.0,16.944444444444443,16.0,0.0,42.0,0.03394652952768785,0.05310968881469714,0.07146289079557694,0.08935849991893184,0.1080101431979918,9.277689938059288,1525.0,24.719750526698846
110,2011-05-19,STORE_2_376,26.999999999999996,0,0,0.02075522159061942,0.026787186360532483,0.06543092602566387,0.0890718358537715,,0.062383232943658544,,0.062383232943658544,0.0,7.305185185185184,42.0,17.244444444444444,16.0,0.0,42.0,0.03394652952768785,0.05310968881469714,0.07370153095767361,0.08935849991893184,0.1080101431979918,9.159401274666484,1552.0,24.735741521842158
111,2011-05-20,STORE_2_376,26.0,0,0,-0.0029049906434071987,-0.023660212234026617,0.08618614761628329,0.0890718358537715,,0.05622292423884007,,0.08035660395555945,0.03066881976645193,7.319259259259252,42.0,17.433333333333334,16.5,0.0,42.0,0.03394652952768785,0.054666306526768606,0.07444774434503916,0.08935849991893184,0.1080101431979918,9.162760488809083,1569.0,24.7517325169855
112,2011-05-21,STORE_2_376,34.0,0,0,0.022713383996959685,0.025618374640366884,0.0832811569728761,0.05310968881469714,,0.08618614761628329,,0.0,0.020684598859851012,7.383209876543208,42.0,17.744444444444444,17.0,0.0,42.0,0.03394652952768785,0.05622292423884007,0.0766711035678434,0.09222326079265726,0.11051572260551584,9.245176223077378,1597.0,24.76772351212881
113,2011-05-22,STORE_2_376,26.999999999999996,0,0,-0.019808393353552486,-0.04252177735051217,0.10599454096983578,0.12757883277450835,,0.07741222330877816,,0.06845738065585172,0.03066881976645193,7.38888888888889,42.0,17.944444444444443,17.5,0.0,42.0,0.034759818877118306,0.05776846272741102,0.07962050879386412,0.09222326079265726,0.11051572260551584,9.248578525593535,1615.0,24.783714507272123
114,2011-05-23,STORE_2_376,18.0,0,0,-0.026872146400301326,-0.00706375304674884,0.08618614761628329,0.12757883277450835,,0.08035660395555945,,0.07444774434503916,0.027366184216366322,7.283950617283948,42.0,18.055555555555557,18.0,0.0,42.0,0.03800692945795931,0.05931400121598197,0.07962050879386412,0.09222326079265726,0.11051572260551584,9.18763349500033,1625.0,24.799705502415435
115,2011-05-24,STORE_2_376,24.0,0,0,0.01809822209279619,0.04497036849309752,0.05931400121598197,0.09193847650537461,,0.05310968881469714,,0.07146289079557694,0.03394652952768785,7.2743209876543204,42.0,18.211111111111112,18.0,0.0,42.0,0.04122994202441102,0.05931400121598197,0.07962050879386412,0.09222326079265726,0.11051572260551584,9.168208927120709,1639.0,24.815696497558747
116,2011-05-25,STORE_2_376,13.0,0,0,-0.03377842637795859,-0.05187664847075478,0.07741222330877816,0.06845738065585172,,0.04363379693081957,,0.06543092602566387,0.04363379693081957,7.2743209876543204,42.0,18.211111111111112,18.0,0.0,42.0,0.04122994202441102,0.05931400121598197,0.07962050879386412,0.09222326079265726,0.11051572260551584,9.168208927120709,1639.0,24.831687492702088
117,2011-05-26,STORE_2_376,24.0,0,0,0.03377842637795859,0.06755685275591718,0.04363379693081957,0.062383232943658544,,0.08035660395555945,,0.08618614761628329,0.027366184216366322,7.237037037037044,42.0,18.38888888888889,18.0,0.0,42.0,0.04363379693081957,0.05931400121598197,0.07962050879386412,0.09222326079265726,0.11051572260551584,9.122997787964273,1655.0,24.8476784878454
118,2011-05-27,STORE_2_376,34.0,0,0,0.02858231766105762,-0.005196108716900967,0.07741222330877816,0.08035660395555945,,0.07444774434503916,,0.0832811569728761,0.0035165737228371272,7.233580246913583,42.0,18.755555555555556,18.0,0.0,42.0,0.04363379693081957,0.05931400121598197,0.08035660395555945,0.09506924838008732,0.11051572260551584,9.079314817377943,1688.0,24.863669482988712
119,2011-05-28,STORE_2_376,26.0,0,0,-0.022713383996959685,-0.051295701658017306,0.10599454096983578,0.0,,0.05931400121598197,,0.10599454096983578,0.027366184216366322,7.199012345679009,42.0,18.955555555555556,18.0,0.0,42.0,0.04363379693081957,0.05931400121598197,0.08035660395555945,0.09506924838008732,0.11051572260551584,9.037886686350184,1706.0,24.879660478132024
120,2011-05-29,STORE_2_376,89.0,0,0,0.15314959251647742,0.1758629765134371,0.0832811569728761,0.06845738065585172,,0.0832811569728761,,0.08618614761628329,0.062383232943658544,8.05925925925926,89.0,19.733333333333334,18.0,0.0,89.0,0.04363379693081957,0.05931400121598197,0.08035660395555945,0.09789670713044799,0.11421487121652683,11.670379291564984,1776.0,24.895651473275336
121,2011-05-30,STORE_2_376,84.99999999999999,1,0,-0.008272525965989985,-0.1614221184824674,0.23643074948935353,0.07444774434503916,,0.07146289079557694,,0.05931400121598197,0.03394652952768785,8.762962962962979,89.0,20.566666666666666,18.5,0.0,89.0,0.04363379693081957,0.060848617079820255,0.08035660395555945,0.1009833821547878,0.11570311257328554,13.50160206890154,1851.0,24.911642468418677
122,2011-05-31,STORE_2_376,77.99999999999999,0,0,-0.014867277542272628,-0.0065947515762826425,0.22815822352336354,0.07146289079557694,,0.05622292423884007,,0.07741222330877816,0.04363379693081957,9.406913580246915,89.0,21.288888888888888,19.0,0.0,89.0,0.04363379693081957,0.062383232943658544,0.08255001871854693,0.10599454096983578,0.12278270209258285,14.771095707985982,1916.0,24.92763346356199
123,2011-06-01,STORE_2_376,76.0,0,0,-0.004342981010782204,0.010524296531490424,0.2132909459810909,0.06543092602566387,,0.09761560939706512,,0.04363379693081957,0.04363379693081957,10.031604938271622,89.0,21.988888888888887,19.0,0.0,89.0,0.04363379693081957,0.062383232943658544,0.0832811569728761,0.10681657399450495,0.12757883277450835,15.828785075103136,1979.0,24.9436244587053
124,2011-06-02,STORE_2_376,92.0,0,0,0.03358538350589871,0.03792836451668091,0.2089479649703087,0.08618614761628329,,0.10042658673089354,,0.07741222330877816,0.04681545571700882,10.912345679012365,92.0,22.855555555555554,19.0,0.0,92.0,0.04363379693081957,0.062383232943658544,0.0832811569728761,0.11421487121652683,0.17233185548219832,17.439823413645172,2057.0,24.959615453848613
125,2011-06-03,STORE_2_376,94.99999999999999,0,0,0.006018033688999419,-0.02756734981689929,0.24253334847620742,0.0832811569728761,,0.08618614761628329,,0.10599454096983578,0.04363379693081957,11.820740740740737,95.0,23.766666666666666,19.5,0.0,95.0,0.04363379693081957,0.0639070794846612,0.08545989995543149,0.11448546055411934,0.2113366045262389,18.99204446101021,2139.0,24.975606448991954
126,2011-06-04,STORE_2_376,91.0,0,0,-0.008042720255413888,-0.014060753944413307,0.24855138216520684,0.10599454096983578,,0.0890718358537715,,0.0832811569728761,0.062383232943658544,12.730370370370375,95.0,24.566666666666666,20.5,0.0,95.0,0.04363379693081957,0.06694415334075779,0.08618614761628329,0.11798657141065752,0.22146794862934083,20.262906831410614,2211.0,24.991597444135266
127,2011-06-05,STORE_2_376,63.0,0,0,-0.060900829131274564,-0.052858108875860677,0.24050866190979295,0.08618614761628329,,0.0890718358537715,,0.23643074948935353,0.049973974961838565,13.204444444444437,95.0,25.1,21.0,0.0,95.0,0.04363379693081957,0.06845738065585172,0.08618614761628329,0.12757883277450835,0.22146794862934083,20.636528102731617,2259.0,25.007588439278578
128,2011-06-06,STORE_2_376,77.99999999999999,0,0,0.03368311320257253,0.09458394233384709,0.17960783277851838,0.05931400121598197,,0.05310968881469714,,0.22815822352336354,0.05310968881469714,13.93604938271603,95.0,25.788888888888888,21.0,0.0,95.0,0.04363379693081957,0.06845738065585172,0.08618614761628329,0.1327817327749098,0.22146794862934083,21.35178567615714,2321.0,25.02357943442189
129,2011-06-07,STORE_2_376,63.999999999999986,0,0,-0.031354450883989915,-0.06503756408656244,0.2132909459810909,0.07741222330877816,,0.12757883277450835,,0.2132909459810909,0.06845738065585172,14.484444444444438,95.0,26.266666666666666,21.0,0.0,95.0,0.04363379693081957,0.06845738065585172,0.08835041379439945,0.17984069901037666,0.22146794862934083,21.72131971904743,2364.0,25.039570429565202
130,2011-06-08,STORE_2_376,62.000000000000014,0,0,-0.0046698781334851,0.026684572750504815,0.181936495097101,0.04363379693081957,,0.12757883277450835,,0.2089479649703087,0.05931400121598197,14.97432098765431,95.0,26.755555555555556,21.5,0.0,95.0,0.04363379693081957,0.06996013572571433,0.0890718358537715,0.17984069901037666,0.22146794862934083,22.026190289667756,2408.0,25.055561424708543
131,2011-06-09,STORE_2_376,46.0,0,0,-0.03928502378934029,-0.03461514565585519,0.1772666169636159,0.07741222330877816,,0.09193847650537461,,0.24253334847620742,0.049973974961838565,15.188888888888876,95.0,27.1,22.0,0.0,95.0,0.04363379693081957,0.07146289079557694,0.09122181634247384,0.17984069901037666,0.22146794862934083,22.082607930987415,2439.0,25.071552419851855
132,2011-06-10,STORE_2_376,37.0,0,0,-0.023766721957748774,0.015518301831591516,0.1379815931742756,0.10599454096983578,,0.06845738065585172,,0.24855138216520684,0.0,15.171358024691356,95.0,27.511111111111113,22.0,0.0,95.0,0.044429211627366884,0.07146289079557694,0.0940743586599943,0.17984069901037666,0.22146794862934083,21.916206329453008,2476.0,25.087543414995167
133,2011-06-11,STORE_2_376,36.0,0,0,-0.0027228583354732966,0.021043863622275477,0.11421487121652683,0.0832811569728761,,0.062383232943658544,,0.24050866190979295,0.03066881976645193,15.18000000000001,95.0,27.81111111111111,22.0,0.0,95.0,0.047605085528216254,0.07146289079557694,0.09690828689234907,0.17984069901037666,0.22146794862934083,21.844647838795634,2503.0,25.10353441013848
134,2011-06-12,STORE_2_376,79.99999999999999,0,0,0.10609891359276144,0.10882177192823474,0.11149201288105354,0.23643074948935353,,0.08035660395555945,,0.17960783277851838,0.07146289079557694,15.959012345678993,95.0,28.455555555555556,22.5,0.0,95.0,0.047605085528216254,0.07295531757030804,0.09972384239743644,0.184637642084422,0.22340293985106666,22.51649139007565,2561.0,25.11952540528182
135,2011-06-13,STORE_2_376,36.0,0,0,-0.10609891359276144,-0.21219782718552288,0.21759092647381498,0.22815822352336354,,0.0,,0.2132909459810909,0.03394652952768785,15.953333333333346,95.0,28.744444444444444,23.0,0.0,95.0,0.049973974961838565,0.07444774434503916,0.10460255241010022,0.184637642084422,0.22340293985106666,22.443717927451136,2587.0,25.135516400425132
136,2011-06-14,STORE_2_376,41.0,0,0,0.013446723727246424,0.11954563732000786,0.11149201288105354,0.2132909459810909,,0.06845738065585172,,0.181936495097101,0.04681545571700882,16.04000000000002,95.0,29.044444444444444,23.5,0.0,95.0,0.05075790342505321,0.07592998382690866,0.10599454096983578,0.184637642084422,0.22340293985106666,22.42486135946576,2614.0,25.151507395568444
137,2011-06-15,STORE_2_376,38.0,0,0,-0.008017972015848196,-0.02146469574309462,0.12493873660829996,0.2089479649703087,,0.07444774434503916,,0.1772666169636159,0.027366184216366322,16.03160493827158,95.0,29.377777777777776,24.0,0.0,95.0,0.05310968881469714,0.07741222330877816,0.1101176449032491,0.184637642084422,0.22340293985106666,22.331304061197542,2644.0,25.167498390711756
138,2011-06-16,STORE_2_376,36.0,0,0,-0.0054287517113982275,0.0025892203044499684,0.11692076459245176,0.24253334847620742,,0.07146289079557694,,0.1379815931742756,0.049973974961838565,16.028395061728382,95.0,29.61111111111111,24.0,0.0,95.0,0.05310968881469714,0.07741222330877816,0.11149201288105354,0.184637642084422,0.22340293985106666,22.28905835487596,2665.0,25.18348938585507
139,2011-06-17,STORE_2_376,42.0,0,0,0.016086819893454812,0.02151557160485304,0.11149201288105354,0.24855138216520684,,0.06543092602566387,,0.11421487121652683,0.04363379693081957,16.088888888888885,95.0,29.933333333333334,24.5,0.0,95.0,0.05388799767073287,0.0788844136321688,0.11149201288105354,0.184637642084422,0.22340293985106666,22.255816055912362,2694.0,25.19948038099841
140,2011-06-18,STORE_2_376,49.999999999999986,0,0,0.020562158914889106,0.004475339021434294,0.12757883277450835,0.24050866190979295,,0.08618614761628329,,0.11149201288105354,0.03394652952768785,16.237037037037016,95.0,30.377777777777776,25.0,0.0,95.0,0.05622292423884007,0.08035660395555945,0.1135341566326585,0.184637642084422,0.22340293985106666,22.25267451557519,2734.0,25.21547137614172
141,2011-06-19,STORE_2_376,31.999999999999996,0,0,-0.04771440495850392,-0.06827656387339302,0.14814099168939746,0.17960783277851838,,0.0832811569728761,,0.21759092647381498,0.02403824086743883,16.081728395061734,95.0,30.655555555555555,25.0,0.0,95.0,0.05699569348312555,0.08035660395555945,0.1135341566326585,0.184637642084422,0.22340293985106666,22.113172194855963,2759.0,25.231462371285033
142,2011-06-20,STORE_2_376,42.0,0,0,0.02715224604361481,0.07486665100211873,0.10042658673089354,0.2132909459810909,,0.10599454096983578,,0.11149201288105354,0.02403824086743883,16.05827160493829,95.0,31.044444444444444,25.0,0.0,95.0,0.05931400121598197,0.08035660395555945,0.11421487121652683,0.184637642084422,0.22340293985106666,21.999954602154958,2794.0,25.247453366428346
143,2011-06-21,STORE_2_376,17.0,0,0,-0.07135590853566828,-0.0985081545792831,0.12757883277450835,0.181936495097101,,0.08618614761628329,,0.12493873660829996,0.03394652952768785,16.00469135802471,95.0,31.122222222222224,25.0,0.0,95.0,0.05931400121598197,0.08035660395555945,0.11421487121652683,0.184637642084422,0.22340293985106666,21.93700264151606,2801.0,25.263444361571686
144,2011-06-22,STORE_2_376,21.999999999999996,0,0,0.015239966556736866,0.08659587509240516,0.05622292423884007,0.1772666169636159,,0.05931400121598197,,0.11692076459245176,0.007004901568658478,15.851604938271603,95.0,31.344444444444445,25.0,0.0,95.0,0.05931400121598197,0.08035660395555945,0.11421487121652683,0.184637642084422,0.22340293985106666,21.739086690505847,2821.0,25.279435356715
145,2011-06-23,STORE_2_376,23.000000000000004,0,0,0.0029848535494622214,-0.012255113007274644,0.07146289079557694,0.1379815931742756,,0.07741222330877816,,0.11149201288105354,0.08035660395555945,15.866913580246928,95.0,31.322222222222223,25.0,0.0,95.0,0.05931400121598197,0.08035660395555945,0.11421487121652683,0.184637642084422,0.22340293985106666,21.74666590887692,2819.0,25.29542635185831
146,2011-06-24,STORE_2_376,28.0,0,0,0.01462409150873234,0.011639237959270118,0.07444774434503916,0.11421487121652683,,0.04363379693081957,,0.12757883277450835,0.03719968692540969,15.73679012345679,95.0,31.511111111111113,25.0,0.0,95.0,0.05931400121598197,0.08035660395555945,0.11421487121652683,0.184637642084422,0.22340293985106666,21.64174308357303,2836.0,25.311417347001623
147,2011-06-25,STORE_2_376,13.0,0,0,-0.04543803892295193,-0.06006213043168427,0.0890718358537715,0.11149201288105354,,0.07741222330877816,,0.14814099168939746,0.01730485820847043,15.67555555555554,95.0,31.6,25.0,0.0,95.0,0.05931400121598197,0.08035660395555945,0.11421487121652683,0.184637642084422,0.22340293985106666,21.547856328636286,2844.0,25.327408342144935
148,2011-06-26,STORE_2_376,0.0,0,0,-0.04363379693081957,0.0018042419921323605,0.04363379693081957,0.21759092647381498,,0.10599454096983578,,0.10042658673089354,0.027366184216366322,15.736790123456798,95.0,31.511111111111113,25.0,0.0,95.0,0.05931400121598197,0.08035660395555945,0.11421487121652683,0.184637642084422,0.22340293985106666,21.66250031967398,2836.0,25.343399337288275
149,2011-06-27,STORE_2_376,0.0,0,0,0.0,0.04363379693081957,0.0,0.11149201288105354,,0.0832811569728761,,0.12757883277450835,0.027366184216366322,15.798024691358023,95.0,31.42222222222222,25.0,0.0,95.0,0.05931400121598197,0.08035660395555945,0.11421487121652683,0.184637642084422,0.22340293985106666,21.776173856195005,2828.0,25.359390332431587
150,2011-06-28,STORE_2_376,0.0,0,0,0.0,0.0,0.0,0.12493873660829996,,0.23643074948935353,,0.05622292423884007,0.027366184216366322,15.859259259259238,95.0,31.333333333333332,25.0,0.0,95.0,0.05931400121598197,0.08035660395555945,0.11421487121652683,0.184637642084422,0.22340293985106666,21.888892057516717,2820.0,25.3753813275749
151,2011-06-29,STORE_2_376,0.0,0,0,0.0,0.0,0.0,0.11692076459245176,,0.22815822352336354,,0.07146289079557694,0.04363379693081957,15.95876543209876,95.0,31.18888888888889,25.0,0.0,95.0,0.05931400121598197,0.08035660395555945,0.11421487121652683,0.184637642084422,0.22340293985106666,22.053507170671093,2807.0,25.39137232271821
152,2011-06-30,STORE_2_376,0.0,0,0,0.0,0.0,0.0,0.11149201288105354,,0.2132909459810909,,0.07444774434503916,0.05931400121598197,16.096790123456774,95.0,30.988888888888887,25.0,0.0,95.0,0.05931400121598197,0.08035660395555945,0.11421487121652683,0.184637642084422,0.22340293985106666,22.255156930192957,2789.0,25.407363317861552
153,2011-07-01,STORE_2_376,0.0,0,0,0.0,0.0,0.0,0.12757883277450835,,0.2089479649703087,,0.0890718358537715,0.02403824086743883,16.15209876543208,95.0,30.91111111111111,25.0,0.0,95.0,0.05931400121598197,0.08035660395555945,0.11421487121652683,0.184637642084422,0.22340293985106666,22.35195712942394,2782.0,25.423354313004864
154,2011-07-02,STORE_2_376,0.0,0,0,0.0,0.0,0.0,0.14814099168939746,,0.24253334847620742,,0.04363379693081957,0.03394652952768785,16.231111111111094,95.0,30.8,25.0,0.0,95.0,0.05931400121598197,0.08035660395555945,0.11421487121652683,0.184637642084422,0.22340293985106666,22.48155298726271,2772.0,25.439345308148177
155,2011-07-03,STORE_2_376,0.0,0,0,0.0,0.0,0.0,0.10042658673089354,,0.24855138216520684,,0.0,0.027366184216366322,16.29432098765436,95.0,30.711111111111112,25.0,0.0,95.0,0.05931400121598197,0.08035660395555945,0.11421487121652683,0.184637642084422,0.22340293985106666,22.58827599075916,2764.0,25.45533630329149
156,2011-07-04,STORE_2_376,0.0,1,0,0.0,0.0,0.0,0.12757883277450835,,0.24050866190979295,,0.0,0.04363379693081957,16.39703703703702,95.0,30.566666666666666,25.0,0.0,95.0,0.05931400121598197,0.08035660395555945,0.11421487121652683,0.184637642084422,0.22340293985106666,22.7438348233518,2751.0,25.4713272984348
157,2011-07-05,STORE_2_376,31.999999999999996,0,0,0.10042658673089354,0.10042658673089354,0.0,0.05622292423884007,,0.17960783277851838,,0.0,0.05310968881469714,16.29851851851855,95.0,30.744444444444444,25.5,0.0,95.0,0.05931400121598197,0.08181888046421777,0.11421487121652683,0.184637642084422,0.22340293985106666,22.691165984427382,2767.0,25.48731829357814
158,2011-07-06,STORE_2_376,20.0,0,0,-0.034995660705229664,-0.1354222474361232,0.10042658673089354,0.07146289079557694,,0.2132909459810909,,0.0,0.049973974961838565,16.257777777777765,95.0,30.8,25.5,0.0,95.0,0.06008130914790111,0.08181888046421777,0.11421487121652683,0.184637642084422,0.22340293985106666,22.658282212228457,2772.0,25.503309288721454
159,2011-07-07,STORE_2_376,40.0,0,0,0.05685156693889598,0.09184722764412565,0.06543092602566387,0.07444774434503916,,0.181936495097101,,0.0,0.04042865705560817,16.229629629629624,95.0,31.11111111111111,26.0,0.0,95.0,0.062383232943658544,0.0832811569728761,0.11421487121652683,0.184637642084422,0.22340293985106666,22.58937029748624,2800.0,25.519300283864766
160,2011-07-08,STORE_2_376,52.0,0,0,0.030850444282336617,-0.026001122656559364,0.12228249296455986,0.0890718358537715,,0.1772666169636159,,0.0,0.11421487121652683,16.440740740740754,95.0,31.27777777777778,26.0,0.0,95.0,0.062383232943658544,0.0832811569728761,0.11624429124847054,0.184637642084422,0.22340293985106666,22.688425885537885,2815.0,25.535291279008078
161,2011-07-09,STORE_2_376,37.0,0,0,-0.03891806603036964,-0.06976851031270626,0.15313293724689647,0.04363379693081957,,0.1379815931742756,,0.0,0.11421487121652683,16.440740740740754,95.0,31.27777777777778,26.0,0.0,95.0,0.062383232943658544,0.0832811569728761,0.11624429124847054,0.184637642084422,0.22340293985106666,22.688425885537885,2815.0,25.55128227415142
162,2011-07-10,STORE_2_376,29.0,0,0,-0.022276394711152225,0.016641671319217413,0.11421487121652683,0.0,,0.11421487121652683,,0.0,0.05931400121598197,16.351111111111152,95.0,31.4,26.0,0.0,95.0,0.062383232943658544,0.0832811569728761,0.11624429124847054,0.184637642084422,0.22340293985106666,22.645683171238954,2826.0,25.56727326929473
163,2011-07-11,STORE_2_376,30.0,0,0,0.002847842872826259,0.025124237583978484,0.09193847650537461,0.0,,0.11149201288105354,,0.0,0.062383232943658544,16.261481481481443,95.0,31.522222222222222,26.5,0.0,95.0,0.06314515621415988,0.08473365229457969,0.11624429124847054,0.184637642084422,0.22340293985106666,22.607658927833587,2837.0,25.583264264438043
164,2011-07-12,STORE_2_376,42.0,0,0,0.03279251339630748,0.029944670523481223,0.09478631937820087,0.0,,0.21759092647381498,,0.10042658673089354,0.09478631937820087,16.393580246913583,95.0,31.655555555555555,26.5,0.0,95.0,0.06314515621415988,0.08473365229457969,0.11692076459245176,0.184637642084422,0.22340293985106666,22.633951385161794,2849.0,25.599255259581355
165,2011-07-13,STORE_2_376,26.0,0,0,-0.044297675801632255,-0.07709018919793974,0.12757883277450835,0.0,,0.11149201288105354,,0.06543092602566387,0.06845738065585172,16.351604938271645,95.0,31.711111111111112,26.5,0.0,95.0,0.06314515621415988,0.08473365229457969,0.11692076459245176,0.184637642084422,0.22340293985106666,22.613630395193894,2854.0,25.615246254724667
166,2011-07-14,STORE_2_376,38.0,0,0,0.03363960761957567,0.07793728342120793,0.0832811569728761,0.0,,0.12493873660829996,,0.12228249296455986,0.11692076459245176,16.35160493827165,95.0,31.711111111111112,26.5,0.0,95.0,0.06314515621415988,0.08473365229457969,0.11692076459245176,0.184637642084422,0.22340293985106666,22.613630395193894,2854.0,25.631237249868008
167,2011-07-15,STORE_2_376,40.0,0,0,0.0053617283721080905,-0.02827787924746758,0.11692076459245176,0.0,,0.11692076459245176,,0.15313293724689647,0.07146289079557694,16.380246913580216,95.0,31.91111111111111,27.0,0.0,95.0,0.06314515621415988,0.08618614761628329,0.12094206087153284,0.184637642084422,0.22340293985106666,22.60637498058449,2872.0,25.64722824501132
168,2011-07-16,STORE_2_376,58.0,0,0,0.045490970465226724,0.04012924209311863,0.12228249296455986,0.0,,0.11149201288105354,,0.11421487121652683,0.08035660395555945,16.685185185185198,95.0,32.27777777777778,27.0,0.0,95.0,0.06314515621415988,0.08618614761628329,0.12228249296455986,0.184637642084422,0.22340293985106666,22.76012074066915,2905.0,25.663219240154632
169,2011-07-17,STORE_2_376,41.0,0,0,-0.04283472682148662,-0.08832569728671334,0.16777346342978658,0.0,,0.12757883277450835,,0.09193847650537461,0.05931400121598197,16.68592592592592,95.0,32.53333333333333,27.0,0.0,95.0,0.06543092602566387,0.08618614761628329,0.12427467569736493,0.184637642084422,0.22340293985106666,22.72710602594634,2928.0,25.679210235297944
170,2011-07-18,STORE_2_376,29.0,0,0,-0.03300026010292535,0.009834466718561266,0.12493873660829996,0.0,,0.14814099168939746,,0.09478631937820087,0.062383232943658544,16.60197530864197,95.0,32.644444444444446,27.5,0.0,95.0,0.06618753968321084,0.08762899173502739,0.12427467569736493,0.184637642084422,0.22340293985106666,22.684604050409284,2938.0,25.695201230441285
171,2011-07-19,STORE_2_376,31.999999999999996,0,0,0.00848811022551893,0.04148837032844428,0.09193847650537461,0.10042658673089354,,0.10042658673089354,,0.12757883277450835,0.05622292423884007,16.476049382716056,95.0,32.81111111111111,28.0,0.0,95.0,0.06845738065585172,0.0890718358537715,0.12427467569736493,0.184637642084422,0.22340293985106666,22.62339171486329,2953.0,25.711192225584597
172,2011-07-20,STORE_2_376,31.999999999999996,0,0,0.0,-0.00848811022551893,0.10042658673089354,0.06543092602566387,,0.12757883277450835,,0.0832811569728761,0.08618614761628329,16.43407407407404,95.0,32.86666666666667,28.0,0.0,95.0,0.06845738065585172,0.0890718358537715,0.12427467569736493,0.184637642084422,0.22340293985106666,22.61509886401591,2958.0,25.72718322072791
173,2011-07-21,STORE_2_376,31.999999999999996,0,0,0.0,0.0,0.10042658673089354,0.12228249296455986,,0.05622292423884007,,0.11692076459245176,0.07741222330877816,16.36691358024691,95.0,32.955555555555556,28.5,0.0,95.0,0.06845738065585172,0.09050515617957305,0.12427467569736493,0.184637642084422,0.22340293985106666,22.595570367877148,2966.0,25.74317421587122
174,2011-07-22,STORE_2_376,33.0,0,0,0.0027929001841701245,0.0027929001841701245,0.10042658673089354,0.15313293724689647,,0.07146289079557694,,0.12228249296455986,0.08035660395555945,16.299753086419756,95.0,33.044444444444444,29.0,0.0,95.0,0.06845738065585172,0.09193847650537461,0.12427467569736493,0.184637642084422,0.22340293985106666,22.579652325181897,2974.0,25.759165211014533
175,2011-07-23,STORE_2_376,34.0,0,0,0.0027750540547721164,-1.7846129398008115e-05,0.10321948691506366,0.11421487121652683,,0.07444774434503916,,0.16777346342978658,0.05310968881469714,16.165432098765464,95.0,33.24444444444445,29.0,0.0,95.0,0.06920875819078302,0.09193847650537461,0.12427467569736493,0.184637642084422,0.22340293985106666,22.506583861253137,2992.0,25.775156206157874
176,2011-07-24,STORE_2_376,51.0,0,0,0.04464959587336599,0.041874541818593874,0.10599454096983578,0.09193847650537461,,0.0890718358537715,,0.12493873660829996,0.04363379693081957,16.222222222222253,95.0,33.666666666666664,29.5,0.0,95.0,0.07146289079557694,0.09336239794178774,0.12493873660829996,0.184637642084422,0.22340293985106666,22.4789539522309,3030.0,25.791147201301186
177,2011-07-25,STORE_2_376,21.999999999999996,0,0,-0.07918124604762483,-0.12383084192099082,0.15064413684320177,0.09478631937820087,,0.04363379693081957,,0.09193847650537461,0.08035660395555945,16.248888888888914,95.0,33.63333333333333,29.5,0.0,95.0,0.07146289079557694,0.09336239794178774,0.12493873660829996,0.184637642084422,0.22340293985106666,22.494169032205615,3027.0,25.807138196444498
178,2011-07-26,STORE_2_376,31.0,0,0,0.026152718601488184,0.10533396464911302,0.07146289079557694,0.12757883277450835,,0.0,,0.10042658673089354,0.07444774434503916,16.177777777777774,95.0,33.72222222222222,30.5,0.0,95.0,0.07146289079557694,0.096200964387633,0.12493873660829996,0.184637642084422,0.22340293985106666,22.467468506123648,3035.0,25.82312919158781
179,2011-07-27,STORE_2_376,29.0,0,0,-0.0056771328916905145,-0.0318298514931787,0.09761560939706512,0.0832811569728761,,0.0,,0.10042658673089354,0.05931400121598197,16.08,95.0,33.84444444444444,30.5,0.0,95.0,0.07146289079557694,0.096200964387633,0.12493873660829996,0.184637642084422,0.22340293985106666,22.410827595341384,3046.0,25.839120186731122
180,2011-07-28,STORE_2_376,47.0,0,0,0.04860533343350139,0.0542824663251919,0.09193847650537461,0.11692076459245176,0.02403824086743883,0.0,,0.10042658673089354,0.0832811569728761,16.18567901234568,95.0,34.077777777777776,31.0,0.0,95.0,0.07146289079557694,0.09761560939706512,0.12691880873295625,0.184637642084422,0.22340293985106666,22.43754266511685,3067.0,25.855111181874463
181,2011-07-29,STORE_2_376,49.999999999999986,0,0,0.007597181750521459,-0.04100815168297993,0.140543809938876,0.12228249296455986,0.03066881976645193,0.0,,0.10321948691506366,0.07146289079557694,16.297530864197537,95.0,34.388888888888886,31.5,0.0,95.0,0.07146289079557694,0.09902109806397932,0.12757883277450835,0.184637642084422,0.22340293985106666,22.46230022361535,3095.0,25.871102177017775
182,2011-07-30,STORE_2_376,43.0,0,0,-0.017938015088740294,-0.025535196839261753,0.14814099168939746,0.16777346342978658,0.027366184216366322,0.0,,0.10599454096983578,0.05622292423884007,16.257777777777758,95.0,34.67777777777778,32.0,0.0,95.0,0.07220910418294249,0.10042658673089354,0.12757883277450835,0.184637642084422,0.22340293985106666,22.40326409694028,3121.0,25.887093172161087
183,2011-07-31,STORE_2_376,31.0,0,0,-0.03258736720359204,-0.014649352114851744,0.13020297660065716,0.12493873660829996,0.05310968881469714,0.0,,0.15064413684320177,0.09761560939706512,16.257777777777758,95.0,34.67777777777778,32.0,0.0,95.0,0.07220910418294249,0.10042658673089354,0.12757883277450835,0.184637642084422,0.22340293985106666,22.40326409694028,3121.0,25.9030841673044
184,2011-08-01,STORE_2_376,43.0,0,0,0.03258736720359204,0.06517473440718408,0.09761560939706512,0.09193847650537461,0.027366184216366322,0.0,,0.07146289079557694,0.10042658673089354,16.34222222222222,95.0,34.8,32.0,0.0,95.0,0.07220910418294249,0.10042658673089354,0.12757883277450835,0.184637642084422,0.22340293985106666,22.41849156488776,3132.0,25.91907516244774
185,2011-08-02,STORE_2_376,46.0,0,0,0.0077786165736184465,-0.02480875062997359,0.13020297660065716,0.10042658673089354,0.03066881976645193,0.0,,0.09761560939706512,0.08618614761628329,16.41283950617286,95.0,35.01111111111111,32.0,0.0,95.0,0.07220910418294249,0.10042658673089354,0.12757883277450835,0.184637642084422,0.22340293985106666,22.433669741649567,3151.0,25.935066157591052
186,2011-08-03,STORE_2_376,62.000000000000014,0,0,0.03928502378934029,0.03150640721572184,0.1379815931742756,0.10042658673089354,0.03719968692540969,0.0,,0.09193847650537461,0.0890718358537715,16.685185185185187,95.0,35.388888888888886,32.0,0.0,95.0,0.07220910418294249,0.10042658673089354,0.12954694064411995,0.184637642084422,0.22340293985106666,22.599937577941258,3185.0,25.951057152734364
187,2011-08-04,STORE_2_376,34.999999999999986,0,0,-0.06851464144859123,-0.10779966523793152,0.1772666169636159,0.10042658673089354,0.03719968692540969,0.10042658673089354,,0.140543809938876,0.0890718358537715,16.617777777777782,95.0,35.46666666666667,32.0,0.0,95.0,0.07220910418294249,0.10042658673089354,0.12954694064411995,0.184637642084422,0.22340293985106666,22.586264096629538,3192.0,25.967048147877676
188,2011-08-05,STORE_2_376,37.0,0,0,0.005462895701502171,0.0739775371500934,0.10875197551502466,0.10321948691506366,0.05310968881469714,0.06543092602566387,,0.14814099168939746,0.05310968881469714,16.444444444444443,95.0,35.7,32.5,0.0,95.0,0.07444774434503916,0.10182303682297861,0.12954694064411995,0.184637642084422,0.22340293985106666,22.4911718011482,3213.0,25.98303914302099
189,2011-08-06,STORE_2_376,31.0,0,0,-0.01659926181946171,-0.022062157520963882,0.11421487121652683,0.10599454096983578,0.027366184216366322,0.12228249296455986,,0.13020297660065716,0.12757883277450835,16.41037037037037,95.0,35.577777777777776,32.0,0.0,95.0,0.07444774434503916,0.10042658673089354,0.12954694064411995,0.184637642084422,0.22340293985106666,22.486439248187384,3202.0,25.99903013816433
190,2011-08-07,STORE_2_376,54.0,0,0,0.06045254552534357,0.07705180734480528,0.09761560939706512,0.15064413684320177,0.049973974961838565,0.15313293724689647,,0.09761560939706512,0.12757883277450835,16.5614814814815,95.0,35.71111111111111,32.0,0.0,95.0,0.07444774434503916,0.10042658673089354,0.13020297660065716,0.184637642084422,0.22340293985106666,22.560403038696233,3214.0,26.01502113330764
191,2011-08-08,STORE_2_376,53.0,0,0,-0.002460598547656845,-0.06291314407300042,0.1580681549224087,0.07146289079557694,0.03394652952768785,0.11421487121652683,,0.13020297660065716,0.09193847650537461,16.70864197530866,95.0,35.977777777777774,32.5,0.0,95.0,0.07444774434503916,0.10182303682297861,0.136036939030871,0.184637642084422,0.22340293985106666,22.621943099852935,3238.0,26.031012128450953
192,2011-08-09,STORE_2_376,33.0,0,0,-0.052388069459688186,-0.04992747091203134,0.15560755637475185,0.09761560939706512,0.027366184216366322,0.09193847650537461,,0.1379815931742756,0.06845738065585172,16.597530864197527,95.0,36.111111111111114,33.0,0.0,95.0,0.07518886408597392,0.10321948691506366,0.136036939030871,0.184637642084422,0.22340293985106666,22.56797195811184,3250.0,26.047003123594266
193,2011-08-10,STORE_2_376,56.0,0,0,0.05972843262543154,0.11211650208511972,0.10321948691506366,0.09193847650537461,0.027366184216366322,0.09478631937820087,,0.1772666169636159,0.062383232943658544,16.692345679012337,95.0,36.522222222222226,33.5,0.0,95.0,0.07741222330877816,0.10460701394244973,0.1379815931742756,0.184637642084422,0.22340293985106666,22.589759924204778,3287.0,26.062994118737606
194,2011-08-11,STORE_2_376,37.0,0,0,-0.04873304832396837,-0.1084614809493999,0.1629479195404952,0.140543809938876,0.16777346342978658,0.12757883277450835,,0.10875197551502466,0.08035660395555945,16.587407407407408,95.0,36.65555555555556,34.0,0.0,95.0,0.07741222330877816,0.10599454096983578,0.1379815931742756,0.184637642084422,0.22340293985106666,22.556376866162246,3299.0,26.07898511388092
195,2011-08-12,STORE_2_376,24.0,0,0,-0.036802647907748676,0.011930400416219691,0.11421487121652683,0.14814099168939746,0.2132909459810909,0.0832811569728761,,0.11421487121652683,0.0,16.356296296296296,95.0,36.922222222222224,34.0,0.0,95.0,0.07741222330877816,0.10599454096983578,0.1379815931742756,0.184637642084422,0.22340293985106666,22.258051328425555,3323.0,26.09497610902423
196,2011-08-13,STORE_2_376,24.0,0,0,0.0,0.036802647907748676,0.07741222330877816,0.13020297660065716,0.12228249296455986,0.11692076459245176,,0.09761560939706512,0.06845738065585172,16.327407407407406,95.0,36.955555555555556,34.0,0.0,95.0,0.07741222330877816,0.10599454096983578,0.1379815931742756,0.184637642084422,0.22340293985106666,22.23617414707679,3326.0,26.110967104167543
197,2011-08-14,STORE_2_376,166.0,0,0,0.006297793492092696,0.006297793492092696,0.07741222330877816,0.09761560939706512,0.10321948691506366,0.12228249296455986,,0.1580681549224087,0.07444774434503916,16.29710095882685,95.0,36.99052453468697,34.0,0.0,95.0,0.07887945672480265,0.10599454096983578,0.1379815931742756,0.184637642084422,0.22340293985106666,22.21644673976969,3329.147208121827,26.126958099310855
198,2011-08-15,STORE_2_376,150.0,0,0,0.0,-0.006297793492092696,0.08371001680087085,0.13020297660065716,0.03066881976645193,0.16777346342978658,,0.15560755637475185,0.07146289079557694,16.260418625054832,95.0,37.036604624929495,34.0,0.0,95.0,0.0832811569728761,0.10599454096983578,0.1379815931742756,0.184637642084422,0.22340293985106666,22.18928924540121,3333.2944162436547,26.142949094454195
199,2011-08-16,STORE_2_376,146.0,0,0,0.0,0.0,0.08371001680087085,0.1379815931742756,0.010465433678164965,0.12493873660829996,,0.10321948691506366,0.06543092602566387,16.20729460424892,95.0,37.10490693739425,34.0,0.0,95.0,0.0832811569728761,0.10599454096983578,0.1379815931742756,0.184637642084422,0.22340293985106666,22.14567672389044,3339.4416243654823,26.158940089597507
200,2011-08-17,STORE_2_376,76.0,0,0,0.12523794816943784,0.12523794816943784,0.08371001680087085,0.1772666169636159,0.0,0.09193847650537461,,0.1629479195404952,0.08618614761628329,16.6360744500846,95.0,37.64935138183869,34.0,0.0,95.0,0.0832811569728761,0.10599454096983578,0.13990325574772589,0.2089479649703087,0.22340293985106666,22.494044186799478,3388.4416243654823,26.17493108474082
201,2011-08-18,STORE_2_376,59.999999999999986,0,0,-0.036401986679277215,-0.16163993484871506,0.2089479649703087,0.10875197551502466,0.03066881976645193,0.10042658673089354,,0.11421487121652683,0.0832811569728761,16.82334398696497,95.0,38.02712915961647,34.5,0.0,95.0,0.08338837192987478,0.10737325824243021,0.14624169625176708,0.2089479649703087,0.22340293985106666,22.581537598225076,3422.4416243654823,26.190922079884132
202,2011-08-19,STORE_2_376,25.0,0,0,-0.09218937433547204,-0.05578738765619483,0.1725459782910315,0.11421487121652683,0.020684598859851012,0.10042658673089354,,0.07741222330877816,0.10599454096983578,16.90436046875979,95.0,37.92712915961647,34.5,0.0,95.0,0.0832811569728761,0.10737325824243021,0.14624169625176708,0.2089479649703087,0.22340293985106666,22.619467629907305,3413.4416243654823,26.206913075027472
203,2011-08-20,STORE_2_376,38.0,0,0,0.036564160636892315,0.12875353497236436,0.08035660395555945,0.09761560939706512,0.03066881976645193,0.10042658673089354,,0.07741222330877816,0.08618614761628329,16.806060036347688,95.0,38.04935138183869,35.5,0.0,95.0,0.0832811569728761,0.1101219941980391,0.14624169625176708,0.2089479649703087,0.22340293985106666,22.589459316194297,3424.4416243654823,26.222904070170785
204,2011-08-21,STORE_2_376,37.0,0,0,-0.002705893375924931,-0.039270054012817246,0.11692076459245176,0.1580681549224087,0.027366184216366322,0.10321948691506366,,0.08371001680087085,0.05931400121598197,16.641862505483495,95.0,38.260462492949806,36.0,0.0,95.0,0.08338837192987478,0.11149201288105354,0.14624169625176708,0.2089479649703087,0.22340293985106666,22.488538994116464,3443.4416243654823,26.238895065314097
205,2011-08-22,STORE_2_376,39.0,0,0,0.005395031886706161,0.008100925262631092,0.11421487121652683,0.15560755637475185,0.03394652952768785,0.10599454096983578,,0.08371001680087085,0.07741222330877816,16.52496333897349,95.0,38.42712915961647,36.0,0.0,95.0,0.08371001680087085,0.11149201288105354,0.14624169625176708,0.2089479649703087,0.22340293985106666,22.437189855691887,3458.4416243654823,26.25488606045741
206,2011-08-23,STORE_2_376,49.999999999999986,0,0,0.02853108858616446,0.0231360566994583,0.119609903103233,0.10321948691506366,0.04363379693081957,0.15064413684320177,,0.08371001680087085,0.04363379693081957,16.444113555179555,95.0,38.83824027072758,36.5,0.0,95.0,0.08371001680087085,0.11285344204879019,0.14814099168939746,0.2089479649703087,0.22340293985106666,22.304639467575676,3495.4416243654823,26.27087705560072
207,2011-08-24,STORE_2_376,45.0,0,0,-0.012736821402932558,-0.04126790998909702,0.14814099168939746,0.1629479195404952,0.027366184216366322,0.07146289079557694,,0.2089479649703087,0.07741222330877816,16.385595036661023,95.0,39.071573604060916,37.0,0.0,95.0,0.08505047156409601,0.11421487121652683,0.14814099168939746,0.2089479649703087,0.22340293985106666,22.25746225752517,3516.4416243654823,26.28686805074406
208,2011-08-25,STORE_2_376,44.0,0,0,-0.002592810578279564,0.010144010824652994,0.1354041702864649,0.11421487121652683,0.0035165737228371272,0.09761560939706512,,0.1725459782910315,0.10599454096983578,16.401288462743636,95.0,39.18268471517202,37.0,0.0,95.0,0.08505047156409601,0.11421487121652683,0.14814099168939746,0.2089479649703087,0.22340293985106666,22.256820478106974,3526.4416243654823,26.302859045887374
209,2011-08-26,STORE_2_376,33.0,0,0,-0.02959187279312167,-0.026999062214842107,0.13281135970818533,0.07741222330877816,0.027366184216366322,0.09193847650537461,,0.08035660395555945,0.0832811569728761,16.33560945039796,95.0,39.260462492949806,37.0,0.0,95.0,0.08978849601667227,0.11421487121652683,0.14814099168939746,0.2089479649703087,0.22340293985106666,22.222439593739786,3533.4416243654823,26.318850041030686
210,2011-08-27,STORE_2_376,51.0,0,0,0.04742464992813811,0.07701652272125978,0.10321948691506366,0.07741222330877816,0.062383232943658544,0.140543809938876,,0.11692076459245176,0.23643074948935353,15.851302876480556,95.0,38.83824027072758,37.0,0.0,95.0,0.08978849601667227,0.11421487121652683,0.14814099168939746,0.184637642084422,0.21565593525208915,21.619598843135016,3495.4416243654823,26.334841036173998
211,2011-08-28,STORE_2_376,58.0,0,0,0.01712932658658481,-0.0302953233415533,0.15064413684320177,0.08371001680087085,0.03394652952768785,0.14814099168939746,,0.11421487121652683,0.22815822352336354,15.511302876480537,95.0,38.538240270727584,37.0,0.0,95.0,0.08978849601667227,0.11421487121652683,0.14814099168939746,0.17984069901037666,0.2132909459810909,21.15416733000716,3468.4416243654823,26.35083203131734
212,2011-08-29,STORE_2_376,31.0,0,0,-0.07015785403272146,-0.08728718061930626,0.16777346342978658,0.08371001680087085,0.04363379693081957,0.13020297660065716,,0.119609903103233,0.2132909459810909,15.075362536817686,95.0,38.01601804850536,37.0,0.0,95.0,0.08978849601667227,0.11421487121652683,0.14624169625176708,0.17750073854510617,0.2113366045262389,20.745229026148035,3421.4416243654823,26.36682302646065
213,2011-08-30,STORE_2_376,23.000000000000004,0,0,-0.023167865052025963,0.04698998898069549,0.09761560939706512,0.08371001680087085,0.04363379693081957,0.09761560939706512,,0.14814099168939746,0.2089479649703087,14.753662969229804,95.0,37.42712915961647,36.5,0.0,95.0,0.08505047156409601,0.11285344204879019,0.13990325574772589,0.1772666169636159,0.2113366045262389,20.40432035545173,3368.4416243654823,26.382814021603963
214,2011-08-31,STORE_2_376,5.999999999999998,0,0,-0.05376314548518815,-0.03059528043316219,0.07444774434503916,0.2089479649703087,0.04681545571700882,0.13020297660065716,,0.1354041702864649,0.24253334847620742,14.427794698251553,95.0,36.471573604060914,36.0,0.0,95.0,0.08371001680087085,0.11149201288105354,0.1379815931742756,0.17301804215828998,0.19679280352736517,19.825422951584365,3282.4416243654823,26.398805016747275
215,2011-09-01,STORE_2_376,21.999999999999996,0,0,0.05077829193572593,0.10454143742091408,0.020684598859851012,0.1725459782910315,0.04363379693081957,0.1379815931742756,,0.13281135970818533,0.24855138216520684,13.924860562762426,91.0,35.660462492949804,36.0,0.0,91.0,0.08371001680087085,0.11149201288105354,0.13733723745232293,0.16825071491591112,0.1808885970537388,18.874469055320187,3209.4416243654823,26.414796011890587
216,2011-09-02,STORE_2_376,63.999999999999986,0,0,0.11047360430152406,0.05969531236579813,0.07146289079557694,0.08035660395555945,0.062383232943658544,0.1772666169636159,,0.10321948691506366,0.24050866190979295,13.631527229429073,80.0,35.3604624929498,36.0,0.0,80.0,0.08371001680087085,0.11149201288105354,0.13733723745232293,0.16825071491591112,0.1808885970537388,18.18704990047187,3182.4416243654823,26.430787007033928
217,2011-09-03,STORE_2_376,59.0,0,0,-0.011770218551424155,-0.12224382285294821,0.181936495097101,0.11692076459245176,0.049973974961838565,0.10875197551502466,,0.15064413684320177,0.17960783277851838,13.588070439305636,80.0,35.316018048505356,36.0,0.0,80.0,0.08371001680087085,0.11149201288105354,0.13733723745232293,0.16801274474137562,0.1798350499370327,18.123523637814174,3178.4416243654823,26.44677800217724
218,2011-09-04,STORE_2_376,59.999999999999986,0,0,0.002379701745354651,0.014149920296778806,0.17016627654567684,0.11421487121652683,0.05310968881469714,0.11421487121652683,,0.16777346342978658,0.2132909459810909,13.392514883750078,80.0,35.11601804850536,36.0,0.0,80.0,0.08371001680087085,0.11149201288105354,0.13733723745232293,0.16801274474137562,0.1772666169636159,17.74251048044444,3160.4416243654823,26.462768997320552
219,2011-09-05,STORE_2_376,37.0,1,0,-0.05833110707450466,-0.06071080881985931,0.1725459782910315,0.119609903103233,0.06845738065585172,0.09761560939706512,,0.09761560939706512,0.181936495097101,13.103270038227738,80.0,34.816018048505356,36.0,0.0,80.0,0.08371001680087085,0.11149201288105354,0.134755967641895,0.16777346342978658,0.1751423295609529,17.474883848081912,3133.4416243654823,26.478759992463864
220,2011-09-06,STORE_2_376,31.0,0,0,-0.01659926181946171,0.04173184525504295,0.11421487121652683,0.14814099168939746,0.05931400121598197,0.1580681549224087,,0.07444774434503916,0.1772666169636159,12.851280315848847,80.0,34.471573604060914,35.5,0.0,80.0,0.08371001680087085,0.1101219941980391,0.13215926393130328,0.1634304739294244,0.1725459782910315,17.236942516453492,3102.4416243654823,26.494750987607205
221,2011-09-07,STORE_2_376,26.999999999999996,0,0,-0.01142946178078183,0.005169800038679881,0.09761560939706512,0.1354041702864649,0.049973974961838565,0.15560755637475185,,0.020684598859851012,0.1379815931742756,12.806204173716878,80.0,34.260462492949806,34.5,0.0,80.0,0.08371001680087085,0.10737325824243021,0.13020297660065716,0.1634304739294244,0.1725459782910315,17.210492408824614,3083.4416243654823,26.510741982750517
222,2011-09-08,STORE_2_376,19.000000000000004,0,0,-0.02380291467262475,-0.012373452891842919,0.08618614761628329,0.13281135970818533,0.0,0.10321948691506366,,0.07146289079557694,0.11421487121652683,12.940881118004631,80.0,34.0604624929498,33.5,0.0,80.0,0.08338837192987478,0.10460701394244973,0.13020297660065716,0.1634304739294244,0.1725459782910315,17.282734778479583,3065.4416243654823,26.52673297789383
223,2011-09-09,STORE_2_376,37.0,0,0,0.05183163827286829,0.07563455294549304,0.062383232943658544,0.10321948691506366,0.03066881976645193,0.1629479195404952,,0.181936495097101,0.11149201288105354,12.952239142695989,80.0,34.071573604060916,33.5,0.0,80.0,0.08338837192987478,0.10460701394244973,0.13020297660065716,0.1634304739294244,0.1725459782910315,17.284317100970373,3066.4416243654823,26.54272397303714
224,2011-09-10,STORE_2_376,30.0,0,0,-0.019428551838325966,-0.07126019011119425,0.11421487121652683,0.15064413684320177,0.07146289079557694,0.11421487121652683,,0.17016627654567684,0.21759092647381498,12.473226797016975,76.0,33.51601804850536,33.0,0.0,76.0,0.08338837192987478,0.10321948691506366,0.12954694064411995,0.1585561313842174,0.1714751125056219,16.58072440956943,3016.4416243654823,26.558714968180453
225,2011-09-11,STORE_2_376,33.0,0,0,0.008433167536862796,0.027861719375188762,0.09478631937820087,0.16777346342978658,0.03394652952768785,0.07741222330877816,,0.1725459782910315,0.11149201288105354,12.44987904994673,76.0,33.48268471517203,33.0,0.0,76.0,0.08338837192987478,0.10321948691506366,0.12954694064411995,0.1585561313842174,0.1714751125056219,16.57869001123694,3013.4416243654823,26.574705963323794
226,2011-09-12,STORE_2_376,19.000000000000004,0,0,-0.04083625397140512,-0.049269421508267915,0.10321948691506366,0.09761560939706512,0.04681545571700882,0.07741222330877816,,0.11421487121652683,0.12493873660829996,12.510975747320925,76.0,33.23824027072758,33.0,0.0,76.0,0.08108774220988861,0.10321948691506366,0.12954694064411995,0.1585561313842174,0.1714751125056219,16.62871957585409,2991.4416243654823,26.590696958467106
227,2011-09-13,STORE_2_376,31.0,0,0,0.03523237645340658,0.0760686304248117,0.062383232943658544,0.07444774434503916,0.027366184216366322,0.08371001680087085,,0.09761560939706512,0.11692076459245176,12.476023061979069,76.0,33.160462492949804,32.5,0.0,76.0,0.08108774220988861,0.10182303682297861,0.12954694064411995,0.1585561313842174,0.1714751125056219,16.622566538310117,2984.4416243654823,26.606687953610418
228,2011-09-14,STORE_2_376,25.0,0,0,-0.017259005441505673,-0.05249138189491225,0.09761560939706512,0.020684598859851012,0.049973974961838565,0.08371001680087085,,0.08618614761628329,0.11149201288105354,12.521564203797707,76.0,33.038240270727584,32.0,0.0,76.0,0.08035660395555945,0.10042658673089354,0.12954694064411995,0.1585561313842174,0.1714751125056219,16.64188254426709,2973.4416243654823,26.62267894875373
229,2011-09-15,STORE_2_376,17.0,0,0,-0.024133679716719376,-0.006874674275213703,0.08035660395555945,0.07146289079557694,0.04363379693081957,0.08371001680087085,,0.062383232943658544,0.12757883277450835,12.5844469511813,76.0,32.760462492949806,32.0,0.0,76.0,0.07814831847047349,0.10042658673089354,0.12954694064411995,0.1585561313842174,0.1714751125056219,16.699161732988475,2948.4416243654823,26.63866994389707
230,2011-09-16,STORE_2_376,21.0,0,0,0.012234456417011645,0.03636813613373102,0.05622292423884007,0.181936495097101,0.03394652952768785,0.2089479649703087,,0.11421487121652683,0.14814099168939746,12.502086858432037,76.0,32.43824027072758,32.0,0.0,76.0,0.07741222330877816,0.10042658673089354,0.12757883277450835,0.1585561313842174,0.1714751125056219,16.642466531409212,2919.4416243654823,26.654660939040383
231,2011-09-17,STORE_2_376,11.999999999999998,0,0,-0.028028723600243548,-0.04026318001725519,0.06845738065585172,0.17016627654567684,0.02403824086743883,0.1725459782910315,,0.09478631937820087,0.10042658673089354,12.709494265839435,76.0,32.21601804850536,32.0,0.0,76.0,0.07518886408597392,0.10042658673089354,0.12757883277450835,0.1585561313842174,0.1714751125056219,16.781331848603322,2899.4416243654823,26.670651934183695
232,2011-09-18,STORE_2_376,18.0,0,0,0.018885344160373796,0.046914067760617344,0.04042865705560817,0.1725459782910315,0.02403824086743883,0.08035660395555945,,0.10321948691506366,0.12757883277450835,12.739537507050187,76.0,31.949351381838692,31.5,0.0,76.0,0.07444774434503916,0.09902109806397932,0.12691880873295625,0.1585561313842174,0.1714751125056219,16.81476566301267,2875.4416243654823,26.686642929327007
233,2011-09-19,STORE_2_376,40.0,0,0,0.06296849174857788,0.044083147588204086,0.05931400121598197,0.11421487121652683,0.03394652952768785,0.11692076459245176,,0.062383232943658544,0.05622292423884007,12.675420191765372,76.0,32.20490693739425,32.0,0.0,76.0,0.07518886408597392,0.10042658673089354,0.12691880873295625,0.1585561313842174,0.1714751125056219,16.759698416991885,2898.4416243654823,26.70263392447032
234,2011-09-20,STORE_2_376,56.0,0,0,0.040665426575935346,-0.022303065172642536,0.12228249296455986,0.09761560939706512,0.007004901568658478,0.11421487121652683,,0.09761560939706512,0.07146289079557694,12.843212383280065,76.0,32.58268471517203,32.0,0.0,76.0,0.07741222330877816,0.10042658673089354,0.12954694064411995,0.1629479195404952,0.1714751125056219,16.90961051962146,2932.4416243654823,26.71862491961366
235,2011-09-21,STORE_2_376,39.0,0,0,-0.043338016437262206,-0.08400344301319755,0.1629479195404952,0.08618614761628329,0.08035660395555945,0.119609903103233,,0.08035660395555945,0.07444774434503916,12.811992229115747,76.0,32.760462492949806,32.0,0.0,76.0,0.07814831847047349,0.10042658673089354,0.12954694064411995,0.1629479195404952,0.1714751125056219,16.891829761658922,2948.4416243654823,26.734615914756972
236,2011-09-22,STORE_2_376,25.0,0,0,-0.039253299147673545,0.00408471728958866,0.119609903103233,0.062383232943658544,0.03719968692540969,0.14814099168939746,,0.05622292423884007,0.0890718358537715,12.844584821708342,76.0,32.72712915961647,32.0,0.0,76.0,0.07814831847047349,0.10042658673089354,0.12954694064411995,0.1629479195404952,0.1714751125056219,16.904284745370646,2945.4416243654823,26.750606909900284
237,2011-09-23,STORE_2_376,63.0,0,0,0.09925122882295893,0.13850452797063248,0.08035660395555945,0.11421487121652683,0.01730485820847043,0.1354041702864649,,0.06845738065585172,0.04363379693081957,12.986887259509935,76.0,33.282684715172024,32.5,0.0,76.0,0.08035660395555945,0.10182303682297861,0.13020297660065716,0.1634304739294244,0.1725459782910315,17.069484669077102,2995.4416243654823,26.766597905043596
238,2011-09-24,STORE_2_376,31.0,0,0,-0.08199222338145326,-0.18124345220441218,0.17960783277851838,0.09478631937820087,0.027366184216366322,0.13281135970818533,,0.04042865705560817,0.0,12.673060099016107,76.0,33.62712915961647,32.5,0.0,76.0,0.08035660395555945,0.10182303682297861,0.13020297660065716,0.1634304739294244,0.1725459782910315,16.699083632639784,3026.4416243654823,26.78258890018691
239,2011-09-25,STORE_2_376,16.0,0,0,-0.044505920582367985,0.037486302799085276,0.09761560939706512,0.10321948691506366,0.027366184216366322,0.10321948691506366,,0.05931400121598197,0.0,12.511084790374131,76.0,33.80490693739425,32.5,0.0,76.0,0.08035660395555945,0.10182303682297861,0.13020297660065716,0.1634304739294244,0.1725459782910315,16.419902114000465,3042.4416243654823,26.79857989533025
240,2011-09-26,STORE_2_376,51.0,0,0,0.09753444802850464,0.14204036861087263,0.05310968881469714,0.062383232943658544,0.027366184216366322,0.15064413684320177,,0.12228249296455986,0.0,12.372566271855607,76.0,34.37157360406091,33.0,0.0,76.0,0.08108774220988861,0.10321948691506366,0.13215926393130328,0.1634304739294244,0.1725459782910315,16.11739690832899,3093.4416243654823,26.81457089047356
241,2011-09-27,STORE_2_376,14.0,0,0,-0.10382868112619295,-0.2013631291546976,0.15064413684320177,0.09761560939706512,0.04363379693081957,0.16777346342978658,,0.1629479195404952,0.0,12.230837876793878,76.0,34.52712915961647,33.0,0.0,76.0,0.08108774220988861,0.10321948691506366,0.13215926393130328,0.1634304739294244,0.1725459782910315,15.84723105479564,3107.4416243654823,26.830561885616873
242,2011-09-28,STORE_2_376,28.0,0,0,0.04225638013676268,0.14608506126295562,0.04681545571700882,0.08035660395555945,0.05931400121598197,0.09761560939706512,,0.119609903103233,0.0,11.947381086670426,76.0,34.83824027072758,33.0,0.0,76.0,0.08338837192987478,0.10321948691506366,0.13215926393130328,0.1634304739294244,0.1725459782910315,15.431166774214905,3135.4416243654823,26.846552880760186
243,2011-09-29,STORE_2_376,14.0,0,0,-0.04225638013676268,-0.08451276027352536,0.0890718358537715,0.05622292423884007,0.02403824086743883,0.07444774434503916,,0.08035660395555945,0.0,11.805652691608694,76.0,34.99379582628314,33.0,0.0,76.0,0.08338837192987478,0.10321948691506366,0.13215926393130328,0.1634304739294244,0.1725459782910315,15.143920910309182,3149.4416243654823,26.862543875903526
244,2011-09-30,STORE_2_376,19.000000000000004,0,0,0.015567777226649725,0.057824157363412405,0.04681545571700882,0.06845738065585172,0.03394652952768785,0.020684598859851012,,0.17960783277851838,0.0,11.617860500094,76.0,35.20490693739425,33.0,0.0,76.0,0.08338837192987478,0.10321948691506366,0.13215926393130328,0.1634304739294244,0.1725459782910315,14.778642711600396,3168.4416243654823,26.87853487104684
245,2011-10-01,STORE_2_376,23.000000000000004,0,0,0.012064511401380616,-0.0035032658252691085,0.062383232943658544,0.04042865705560817,0.027366184216366322,0.07146289079557694,,0.09761560939706512,0.0,11.390700006266844,76.0,35.4604624929498,33.0,0.0,76.0,0.08338837192987478,0.10321948691506366,0.13215926393130328,0.1634304739294244,0.1725459782910315,14.355844230767541,3191.4416243654823,26.89452586619015
246,2011-10-02,STORE_2_376,34.0,0,0,0.03154679662479662,0.019482285223416003,0.07444774434503916,0.05931400121598197,0.04363379693081957,0.181936495097101,,0.05310968881469714,0.0,11.054897537131035,76.0,35.83824027072758,33.0,6.0,70.0,0.08371001680087085,0.10321948691506366,0.13215926393130328,0.1634304739294244,0.1725459782910315,13.850679439985651,3225.4416243654823,26.910516861333463
247,2011-10-03,STORE_2_376,29.0,0,0,-0.014056064464461171,-0.04560286108925779,0.10599454096983578,0.12228249296455986,0.05310968881469714,0.17016627654567684,,0.15064413684320177,0.10042658673089354,11.084527166760674,76.0,35.80490693739425,33.0,6.0,70.0,0.08371001680087085,0.10321948691506366,0.13215926393130328,0.1634304739294244,0.1725459782910315,13.863624299594296,3222.4416243654823,26.926507856476775
248,2011-10-04,STORE_2_376,25.0,0,0,-0.011581872549815159,0.0024741919146460123,0.09193847650537461,0.1629479195404952,0.049973974961838565,0.1725459782910315,,0.04681545571700882,0.06543092602566387,11.035144450711293,76.0,35.8604624929498,33.0,6.0,70.0,0.08371001680087085,0.10321948691506366,0.13215926393130328,0.1634304739294244,0.1725459782910315,13.809490369232403,3227.4416243654823,26.942498851620115
249,2011-10-05,STORE_2_376,21.999999999999996,0,0,-0.008893713159982511,0.002688159389832648,0.08035660395555945,0.119609903103233,0.04042865705560817,0.11421487121652683,,0.0890718358537715,0.12228249296455986,11.116488061665725,76.0,35.660462492949804,33.0,6.0,70.0,0.08338837192987478,0.10321948691506366,0.13215926393130328,0.1634304739294244,0.1725459782910315,13.879034713990363,3209.4416243654823,26.958489846763428
250,2011-10-06,STORE_2_376,20.0,0,0,-0.006031964769913065,0.0028617483900694463,0.07146289079557694,0.08035660395555945,0.11421487121652683,0.09761560939706512,,0.04681545571700882,0.15313293724689647,11.053634141755975,76.0,35.30490693739425,32.5,6.0,70.0,0.08108774220988861,0.10182303682297861,0.13020297660065716,0.1634304739294244,0.1725459782910315,13.865626656937525,3177.4416243654823,26.97448084190674
251,2011-10-07,STORE_2_376,15.0,0,0,-0.01545695106382531,-0.009424986293912245,0.06543092602566387,0.17960783277851838,0.11421487121652683,0.08618614761628329,,0.062383232943658544,0.11421487121652683,11.216953061352386,76.0,35.0604624929498,32.0,6.0,70.0,0.08035660395555945,0.10042658673089354,0.13020297660065716,0.1634304739294244,0.1725459782910315,14.028376842342993,3155.4416243654823,26.990471837050052
252,2011-10-08,STORE_2_376,25.0,0,0,0.030382628993720885,0.045839580057546195,0.049973974961838565,0.09761560939706512,0.05931400121598197,0.062383232943658544,,0.07444774434503916,0.09193847650537461,11.253496271228933,76.0,35.01601804850536,32.0,6.0,70.0,0.08035660395555945,0.10042658673089354,0.13020297660065716,0.1634304739294244,0.1725459782910315,14.054105993697592,3151.4416243654823,27.006462832193392
253,2011-10-09,STORE_2_376,37.0,0,0,0.033858267260967384,0.003475638267246499,0.08035660395555945,0.05310968881469714,0.062383232943658544,0.11421487121652683,,0.10599454096983578,0.09478631937820087,11.231905746694244,76.0,35.093795826283134,32.5,6.0,70.0,0.08035660395555945,0.10182303682297861,0.13020297660065716,0.1634304739294244,0.1725459782910315,14.045401495848205,3158.4416243654823,27.022453827336705
254,2011-10-10,STORE_2_376,21.0,1,0,-0.045757490560675115,-0.0796157578216425,0.11421487121652683,0.15064413684320177,0.09478631937820087,0.09478631937820087,,0.09193847650537461,0.12757883277450835,11.273387228175727,76.0,34.8604624929498,32.0,6.0,70.0,0.08035660395555945,0.10042658673089354,0.13020297660065716,0.1634304739294244,0.1725459782910315,14.103694395156838,3137.4416243654823,27.038444822480017
255,2011-10-11,STORE_2_376,19.000000000000004,0,0,-0.0060741477121931745,0.03968334284848194,0.06845738065585172,0.04681545571700882,0.06845738065585172,0.10321948691506366,,0.08035660395555945,0.0832811569728761,11.339066240521394,76.0,34.782684715172024,32.0,6.0,70.0,0.08035660395555945,0.10042658673089354,0.13020297660065716,0.1634304739294244,0.1725459782910315,14.172241200787237,3130.4416243654823,27.05443581762333
256,2011-10-12,STORE_2_376,20.0,0,0,0.0030476930820053302,0.009121840794198505,0.062383232943658544,0.0890718358537715,0.11692076459245176,0.062383232943658544,,0.07146289079557694,0.11692076459245176,11.43201478974745,76.0,34.58268471517203,32.0,6.0,70.0,0.07814831847047349,0.10042658673089354,0.13020297660065716,0.1634304739294244,0.1725459782910315,14.253106142009306,3112.4416243654823,27.07042681276664
257,2011-10-13,STORE_2_376,21.999999999999996,0,0,0.006031964769913065,0.0029842716879077344,0.06543092602566387,0.04681545571700882,0.07146289079557694,0.09761560939706512,,0.06543092602566387,0.12228249296455986,11.47163000564016,76.0,34.382684715172026,31.5,6.0,70.0,0.07741222330877816,0.09902109806397932,0.13020297660065716,0.1634304739294244,0.1725459782910315,14.302438991200976,3094.4416243654823,27.08641780790998
258,2011-10-14,STORE_2_376,14.0,0,0,-0.02464743507856812,-0.030679399848481184,0.07146289079557694,0.062383232943658544,0.08035660395555945,0.08035660395555945,,0.049973974961838565,0.16777346342978658,11.331767876167198,76.0,33.89379582628314,31.0,6.0,70.0,0.07518886408597392,0.09761560939706512,0.12888691660256785,0.1629479195404952,0.1725459782910315,14.237939458236117,3050.4416243654823,27.102408803053294
259,2011-10-15,STORE_2_376,17.0,0,0,0.009407468521831254,0.034054903600399374,0.04681545571700882,0.07444774434503916,0.05931400121598197,0.05622292423884007,,0.08035660395555945,0.12493873660829996,11.387185561195707,76.0,33.62712915961647,31.0,6.0,70.0,0.07444774434503916,0.09761560939706512,0.12822285569163283,0.1629479195404952,0.1725459782910315,14.327817714573037,3026.4416243654823,27.118399798196606
260,2011-10-16,STORE_2_376,23.000000000000004,0,0,0.018224820106199087,0.008817351584367833,0.05622292423884007,0.10599454096983578,0.062383232943658544,0.06845738065585172,,0.11421487121652683,0.09193847650537461,11.440518894529053,76.0,33.5604624929498,31.0,6.0,70.0,0.07444774434503916,0.09761560939706512,0.12822285569163283,0.1629479195404952,0.1725459782910315,14.36350385683633,3020.4416243654823,27.134390793339918
261,2011-10-17,STORE_2_376,18.0,0,0,-0.015133743129057194,-0.03335856323525628,0.07444774434503916,0.09193847650537461,0.05622292423884007,0.04042865705560817,,0.06845738065585172,0.10042658673089354,11.564963338973492,76.0,33.404906937394244,31.0,6.0,70.0,0.07220910418294249,0.09761560939706512,0.12822285569163283,0.1629479195404952,0.1725459782910315,14.456104345340885,3006.4416243654823,27.15038178848326
262,2011-10-18,STORE_2_376,21.999999999999996,0,0,0.012148889579594972,0.027282632708652166,0.05931400121598197,0.08035660395555945,0.08618614761628329,0.05931400121598197,,0.062383232943658544,0.10042658673089354,11.65385222786238,76.0,33.29379582628314,31.0,6.0,70.0,0.07146289079557694,0.09761560939706512,0.12822285569163283,0.1629479195404952,0.1725459782910315,14.505370501253262,2996.4416243654823,27.16637278362657
263,2011-10-19,STORE_2_376,23.000000000000004,0,0,0.0029848535494622214,-0.00916403603013275,0.07146289079557694,0.07146289079557694,0.07741222330877816,0.12228249296455986,,0.06543092602566387,0.10042658673089354,11.733852227862382,76.0,33.193795826283136,31.0,6.0,70.0,0.07146289079557694,0.09761560939706512,0.12822285569163283,0.1629479195404952,0.1725459782910315,14.545358020696366,2987.4416243654823,27.182363778769883
264,2011-10-20,STORE_2_376,26.999999999999996,0,0,0.011738403271244133,0.008753549721781911,0.07444774434503916,0.06543092602566387,0.08035660395555945,0.1629479195404952,,0.07146289079557694,0.10321948691506366,11.787185561195706,76.0,33.12712915961647,31.0,6.0,70.0,0.07146289079557694,0.09761560939706512,0.12822285569163283,0.1629479195404952,0.1725459782910315,14.559998960321614,2981.4416243654828,27.198354773913195
265,2011-10-21,STORE_2_376,15.0,0,0,-0.03621217265444473,-0.04795057592568886,0.08618614761628329,0.049973974961838565,0.05310968881469714,0.119609903103233,,0.04681545571700882,0.10599454096983578,11.93758475903991,76.0,32.916018048505364,30.5,6.0,70.0,0.07146289079557694,0.096200964387633,0.12822285569163283,0.1629479195404952,0.1725459782910315,14.684413315125887,2962.4416243654828,27.214345769056507
266,2011-10-22,STORE_2_376,14.0,0,0,-0.0031585192448297453,0.03305365340961498,0.049973974961838565,0.08035660395555945,0.04363379693081957,0.08035660395555945,,0.05622292423884007,0.15064413684320177,11.873743184809177,76.0,32.50490693739425,29.5,6.0,70.0,0.07146289079557694,0.09336239794178774,0.12161434549922814,0.1629479195404952,0.1725459782910315,14.690370509136905,2925.4416243654828,27.230336764199848
