soundwave-77/time-series-mts-hse/models/STORE_2_090/train_data.csv
index,timestamp,segment,target,holiday,target_change_points,target_diff_1,target_diff_2,target_lag_1,target_lag_14,target_lag_180,target_lag_30,target_lag_365,target_lag_7,target_lag_90,target_mad,target_max,target_mean,target_median,target_min,target_minmax_diff,target_q_0.25,target_q_0.50,target_q_0.75,target_q_0.90,target_q_0.95,target_std,target_sum,target_trend
0,2011-01-29,STORE_2_090,108.00000000000001,0,0,,,,,,,,,,0.0,108.0,108.0,108.0,108.0,0.0,0.057493617052782726,0.057493617052782726,0.057493617052782726,0.057493617052782726,0.057493617052782726,0.0,108.0,-70.80681032286157
1,2011-01-30,STORE_2_090,132.0,0,0,0.01180488030824877,,0.057493617052782726,,,,,,,12.0,132.0,120.0,120.0,108.0,24.0,0.06044483712984492,0.06339605720690711,0.0663472772839693,0.06811800933020662,0.06870825334561906,16.97056274847714,240.0,-69.89898181024
2,2011-01-31,STORE_2_090,102.0,0,0,-0.014806927851097752,-0.026611808159346523,0.0692984973610315,,,,,,,12.0,132.0,114.0,108.0,102.0,30.0,0.055992593281358236,0.057493617052782726,0.06339605720690711,0.06693752129938174,0.06811800933020662,15.874507866387544,342.0,-68.99115329761844
3,2011-02-01,STORE_2_090,119.99999999999999,0,0,0.008944596112754354,0.023751523963852106,0.054491569509933745,,,,,,,10.5,132.0,115.5,114.0,102.0,30.0,0.056743105167070484,0.060464891337735416,0.06490174855727394,0.06753979783952847,0.06841914760027998,13.30413469565007,462.0,-68.08332478499506
4,2011-02-02,STORE_2_090,106.0,0,0,-0.006940927128902111,-0.015885523241656464,0.0634361656226881,,,,,,,9.919999999999998,132.0,113.6,108.0,102.0,30.0,0.05649523849378599,0.057493617052782726,0.0634361656226881,0.06695356466569413,0.06812603101336281,12.280065146407,568.0,-67.1754962723735
5,2011-02-03,STORE_2_090,123.0,0,0,0.008413945438384293,0.015354872567286404,0.05649523849378599,,,,,,,9.833333333333334,132.0,115.16666666666667,114.0,102.0,30.0,0.05674483313353517,0.060464891337735416,0.06454092935479974,0.06710384064660088,0.06820116900381619,11.634718160173312,691.0,-66.26766775975011
6,2011-02-04,STORE_2_090,279.00000000000006,0,0,0.07043399707645494,0.062020051638070645,0.06490918393217028,,,,,,,40.122448979591844,279.0,138.57142857142858,120.0,102.0,177.0,0.056994427773284354,0.0634361656226881,0.06710384064660088,0.09571637082006901,0.11552977591434706,62.82742804130783,970.0,-65.35983924712855
7,2011-02-05,STORE_2_090,175.0,0,0,-0.045664880584441236,-0.11609887766089617,0.13534318100862522,,,,,0.057493617052782726,,41.9375,279.0,143.125,121.5,102.0,177.0,0.05724402241303354,0.06417267477742919,0.07439344812681961,0.10337776459951635,0.11936047280407076,59.575732115878,1145.0,-64.45201073450698
8,2011-02-06,STORE_2_090,186.0,0,0,0.0050633740482282225,0.05072825463266946,0.08967830042418398,,,,,0.0692984973610315,,43.62962962962964,279.0,147.88888888888889,123.0,102.0,177.0,0.057493617052782726,0.06490918393217028,0.08967830042418398,0.10286197577965481,0.11910257839414,57.531392396769874,1331.0,-63.5441822218836
9,2011-02-07,STORE_2_090,119.99999999999999,0,0,-0.031305508849724106,-0.03636888289795233,0.0947416744724122,,,,,0.054491569509933745,,40.94000000000001,279.0,145.1,121.5,102.0,177.0,0.05897925419525907,0.06417267477742919,0.08458334965839587,0.09880182512603349,0.11707250306732932,54.953414614360206,1451.0,-62.63635370926204
10,2011-02-08,STORE_2_090,0.0,0,0,-0.0634361656226881,-0.03213065677296399,0.0634361656226881,,,,,0.0634361656226881,,44.4297520661157,279.0,131.9090909090909,120.0,0.0,279.0,0.056994427773284354,0.0634361656226881,0.07948839889260774,0.0947416744724122,0.1150424277405187,68.05799665793072,1451.0,-61.72852519663866
11,2011-02-09,STORE_2_090,0.0,0,0,0.0,0.0634361656226881,0.0,,,,,0.05649523849378599,,48.40277777777777,279.0,120.91666666666667,120.0,0.0,279.0,0.05599432124782293,0.0634361656226881,0.07439344812681961,0.09423533706758938,0.11301235241370804,75.23835860822993,1451.0,-60.82069668401709
12,2011-02-10,STORE_2_090,0.0,0,0,0.0,0.0,0.0,,,,,0.06490918393217028,,54.41420118343194,279.0,111.61538461538461,120.0,0.0,279.0,0.054491569509933745,0.0634361656226881,0.0692984973610315,0.09372899966276656,0.11098227708689735,79.45914931747264,1451.0,-59.91286817139371
13,2011-02-11,STORE_2_090,0.0,0,0,0.0,0.0,0.0,,,,,0.13534318100862522,,59.459183673469404,279.0,103.64285714285714,114.0,0.0,279.0,0.013622892377483436,0.060464891337735416,0.06820116900381619,0.09322266225794375,0.10895220176008674,81.96303776971398,1451.0,-59.00503965877215
14,2011-02-12,STORE_2_090,0.0,0,0,0.0,0.0,0.0,0.057493617052782726,,,,0.08967830042418398,,64.48888888888888,279.0,96.73333333333333,108.0,0.0,279.0,0.0,0.057493617052782726,0.06710384064660088,0.09271632485312091,0.10692212643327606,83.39190322692919,1451.0,-58.097211146150585
15,2011-02-13,STORE_2_090,0.0,0,0,0.0,0.0,0.0,0.0692984973610315,,,,0.0947416744724122,,68.015625,279.0,90.6875,107.0,0.0,279.0,0.0,0.056994427773284354,0.06600651228938559,0.09220998744829809,0.10489205110646546,84.11557029864724,1451.0,-57.1893826335272
16,2011-02-14,STORE_2_090,0.0,0,0,0.0,0.0,0.0,0.054491569509933745,,,,0.0634361656226881,,70.29065743944639,279.0,85.3529411764706,106.0,0.0,279.0,0.0,0.05649523849378599,0.06490918393217028,0.09170365004347528,0.10286197577965478,84.36227028155906,1451.0,-56.28155412090564
17,2011-02-15,STORE_2_090,0.0,0,0,0.0,0.0,0.0,0.0634361656226881,,,,0.0,,71.65432098765433,279.0,80.61111111111111,104.0,0.0,279.0,0.0,0.05549340400185987,0.06454092935479974,0.09119731263865245,0.1008319004528441,84.27974349390661,1451.0,-55.37372560828226
18,2011-02-16,STORE_2_090,0.0,0,0,0.0,0.0,0.0,0.05649523849378599,,,,0.0,,72.3490304709141,279.0,76.36842105263158,102.0,0.0,279.0,0.0,0.054491569509933745,0.06417267477742919,0.09069097523382963,0.09880182512603342,83.96706399688695,1451.0,-54.465897095660694
19,2011-02-17,STORE_2_090,0.0,0,0,0.0,0.0,0.0,0.06490918393217028,,,,0.0,,72.55000000000001,279.0,72.55,51.0,0.0,279.0,0.0,0.027245784754966872,0.06380442020005864,0.0901846378290068,0.09677174979922289,83.49249887517473,1451.0,-53.55806858303913
20,2011-02-18,STORE_2_090,0.0,0,0,0.0,0.0,0.0,0.13534318100862522,,,,0.0,,72.38548752834467,279.0,69.0952380952381,0.0,0.0,279.0,0.0,0.0,0.0634361656226881,0.08967830042418398,0.0947416744724122,82.90410409738757,1451.0,-52.65024007041575
21,2011-02-19,STORE_2_090,0.0,0,0,0.0,0.0,0.0,0.08967830042418398,,,,0.0,,71.95041322314049,279.0,65.95454545454545,0.0,0.0,279.0,0.0,0.0,0.0634361656226881,0.08764032011786878,0.09448850577000079,82.23628979536565,1451.0,-51.742411557794185
22,2011-02-20,STORE_2_090,0.0,0,0,0.0,0.0,0.0,0.0947416744724122,,,,0.0,,71.3156899810964,279.0,63.08695652173913,0.0,0.0,279.0,0.0,0.0,0.0634361656226881,0.0856023398115535,0.09423533706758938,81.51403283734106,1451.0,-50.8345830451708
23,2011-02-21,STORE_2_090,0.0,1,0,0.0,0.0,0.0,0.0634361656226881,,,,0.0,,70.53472222222226,279.0,60.458333333333336,0.0,0.0,279.0,0.0,0.0,0.0634361656226881,0.08356435950523822,0.09398216836517796,80.75565893035213,1451.0,-49.92675453254924
24,2011-02-22,STORE_2_090,0.0,0,0,0.0,0.0,0.0,0.0,,,,0.0,,69.648,279.0,58.04,0.0,0.0,279.0,0.0,0.0,0.0634361656226881,0.08152637919892301,0.09372899966276654,79.9747251740615,1451.0,-49.018926019927676
25,2011-02-23,STORE_2_090,0.0,0,0,0.0,0.0,0.0,0.0,,,,0.0,,68.68639053254435,279.0,55.80769230769231,0.0,0.0,279.0,0.0,0.0,0.06195052848021176,0.07948839889260774,0.09347583096035515,79.18132064105485,1451.0,-48.111097507304294
26,2011-02-24,STORE_2_090,0.0,0,0,0.0,0.0,0.0,0.0,,,,0.0,,67.67352537722911,279.0,53.74074074074074,0.0,0.0,279.0,0.0,0.0,0.060464891337735416,0.07745041858629254,0.09322266225794373,78.3829811750723,1451.0,-47.20326899468273
27,2011-02-25,STORE_2_090,0.0,0,0,0.0,0.0,0.0,0.0,,,,0.0,,66.62755102040812,279.0,51.82142857142857,0.0,0.0,279.0,0.0,0.0,0.05897925419525907,0.07541243827997726,0.09296949355553231,77.58534300842815,1451.0,-46.29544048205935
28,2011-02-26,STORE_2_090,0.0,0,0,0.0,0.0,0.0,0.0,,,,0.0,,65.56242568370986,279.0,50.03448275862069,0.0,0.0,279.0,0.0,0.0,0.057493617052782726,0.07337445797366197,0.09271632485312091,76.79261625527582,1451.0,-45.387611969437785
29,2011-02-27,STORE_2_090,0.0,0,0,0.0,0.0,0.0,0.0,,,,0.0,,64.4888888888889,279.0,48.36666666666667,0.0,0.0,279.0,0.0,0.0,0.05724402241303354,0.07133647766734677,0.09246315615070949,76.00793213294541,1451.0,-44.4797834568144
30,2011-02-28,STORE_2_090,0.0,0,0,0.0,0.0,0.0,0.0,,0.057493617052782726,,0.0,,63.41519250780437,279.0,46.806451612903224,0.0,0.0,279.0,0.0,0.0,0.056994427773284354,0.0692984973610315,0.09220998744829809,75.23360036350722,1451.0,-43.57195494419284
31,2011-03-01,STORE_2_090,0.0,0,0,0.0,0.0,0.0,0.0,,0.0692984973610315,,0.0,,62.34765625,279.0,45.34375,0.0,0.0,279.0,0.0,0.0,0.05674483313353517,0.06885956601814539,0.09195681874588668,74.47130184431515,1451.0,-42.664126431571276
32,2011-03-02,STORE_2_090,0.0,0,0,0.0,0.0,0.0,0.0,,0.054491569509933745,,0.0,,61.2910927456382,279.0,43.96969696969697,0.0,0.0,279.0,0.0,0.0,0.05649523849378599,0.06842063467525926,0.09170365004347526,73.72223411583715,1451.0,-41.756297918947894
33,2011-03-03,STORE_2_090,0.0,0,0,0.0,0.0,0.0,0.0,,0.0634361656226881,,0.0,,60.24913494809686,279.0,42.6764705882353,0.0,0.0,279.0,0.0,0.0,0.05599432124782293,0.06798170333237313,0.09145048134106384,72.987222039924,1451.0,-40.84846940632633
34,2011-03-04,STORE_2_090,0.0,0,0,0.0,0.0,0.0,0.0,,0.05649523849378599,,0.0,,59.22448979591836,279.0,41.457142857142856,0.0,0.0,279.0,0.0,0.0,0.05549340400185987,0.06754277198948702,0.09119731263865244,72.26680258806613,1451.0,-39.94064089370295
35,2011-03-05,STORE_2_090,0.0,0,0,0.0,0.0,0.0,0.0,,0.06490918393217028,,0.0,,58.219135802469104,279.0,40.30555555555556,0.0,0.0,279.0,0.0,0.0,0.054992486755896804,0.06710384064660088,0.09094414393624103,71.56129019217201,1451.0,-39.032812381081385
36,2011-03-06,STORE_2_090,0.0,0,0,0.0,0.0,0.0,0.0,,0.13534318100862522,,0.0,,57.234477720964215,279.0,39.21621621621622,0.0,0.0,279.0,0.0,0.0,0.054491569509933745,0.06666490930371476,0.0906909752338296,70.87082738457462,1451.0,-38.12498386845982
37,2011-03-07,STORE_2_090,0.0,0,0,0.0,0.0,0.0,0.0,,0.08967830042418398,,0.0,,56.271468144044334,279.0,38.18421052631579,0.0,0.0,279.0,0.0,0.0,0.04086867713245031,0.06622597796082866,0.09043780653141821,70.19542422261097,1451.0,-37.21715535583644
38,2011-03-08,STORE_2_090,0.0,0,0,0.0,0.0,0.0,0.0,,0.0947416744724122,,0.0,,55.330703484549616,279.0,37.205128205128204,0.0,0.0,279.0,0.0,0.0,0.027245784754966872,0.06578704661794253,0.0901846378290068,69.53498910513721,1451.0,-36.309326843214876
39,2011-03-09,STORE_2_090,0.0,0,0,0.0,0.0,0.0,0.0,,0.0634361656226881,,0.0,,54.41249999999998,279.0,36.275,0.0,0.0,279.0,0.0,0.0,0.013622892377483436,0.0653481152750564,0.08993146912659537,68.88935294164075,1451.0,-35.401498330591494
40,2011-03-10,STORE_2_090,0.0,0,0,0.0,0.0,0.0,0.0,,0.0,,0.0,,53.51695419393216,279.0,35.390243902439025,0.0,0.0,279.0,0.0,0.0,0.0,0.06490918393217028,0.08967830042418398,68.25828815930726,1451.0,-34.49366981796993
41,2011-03-11,STORE_2_090,0.0,0,0,0.0,0.0,0.0,0.0,,0.0,,0.0,,52.64399092970521,279.0,34.54761904761905,0.0,0.0,279.0,0.0,0.0,0.0,0.06476188210122207,0.08865931027102628,67.64152368109487,1451.0,-33.58584130534837
42,2011-03-12,STORE_2_090,0.0,0,0,0.0,0.0,0.0,0.0,,0.0,,0.0,,51.79340183883183,279.0,33.74418604651163,0.0,0.0,279.0,0.0,0.0,0.0,0.06461458027027385,0.08764032011786871,67.03875674465722,1451.0,-32.678012792724985
43,2011-03-13,STORE_2_090,0.0,0,0,0.0,0.0,0.0,0.0,,0.0,,0.0,,50.96487603305787,279.0,32.97727272727273,0.0,0.0,279.0,0.0,0.0,0.0,0.06446727843932563,0.08662132996471114,66.44966223385683,1451.0,-31.77018428010342
44,2011-03-14,STORE_2_090,0.0,0,0,0.0,0.0,0.0,0.0,,0.0,,0.0,,50.15802469135801,279.0,32.24444444444445,0.0,0.0,279.0,0.0,0.0,0.0,0.0643199766083774,0.08560233981155342,65.87390004448429,1451.0,-30.86235576748004
45,2011-03-15,STORE_2_090,0.0,0,0,0.0,0.0,0.0,0.0,,0.0,,0.0,,49.37240075614369,279.0,31.543478260869566,0.0,0.0,279.0,0.0,0.0,0.0,0.06417267477742919,0.08458334965839587,65.31112089129459,1451.0,-29.954527254858476
46,2011-03-16,STORE_2_090,0.0,0,0,0.0,0.0,0.0,0.0,,0.0,,0.0,,48.60751471253958,279.0,30.872340425531913,0.0,0.0,279.0,0.0,0.0,0.0,0.06402537294648097,0.08356435950523815,64.76097087560652,1451.0,-29.046698742236913
47,2011-03-17,STORE_2_090,0.0,0,0,0.0,0.0,0.0,0.0,,0.0,,0.0,,47.86284722222222,279.0,30.229166666666668,0.0,0.0,279.0,0.0,0.0,0.0,0.06387807111553276,0.08254536935208058,64.22309506490879,1451.0,-28.13887022961353
48,2011-03-18,STORE_2_090,0.0,0,0,0.0,0.0,0.0,0.0,,0.0,,0.0,,47.13785922532277,279.0,29.612244897959183,0.0,0.0,279.0,0.0,0.0,0.0,0.06373076928458454,0.08152637919892287,63.69714028331342,1451.0,-27.231041716991967
49,2011-03-19,STORE_2_090,0.0,0,0,0.0,0.0,0.0,0.0,,0.0,,0.0,,46.43199999999999,279.0,29.02,0.0,0.0,279.0,0.0,0.0,0.0,0.06358346745363631,0.0805073890457653,63.18275727068685,1451.0,-26.323213204368585
50,2011-03-20,STORE_2_090,0.0,0,0,0.0,0.0,0.0,0.0,,0.0,,0.0,,45.7447135717032,279.0,28.45098039215686,0.0,0.0,279.0,0.0,0.0,0.0,0.0634361656226881,0.07948839889260774,62.67960233616361,1451.0,-25.415384691747022
51,2011-03-21,STORE_2_090,0.0,0,0,0.0,0.0,0.0,0.0,,0.0,,0.0,,45.075443786982255,279.0,27.903846153846153,0.0,0.0,279.0,0.0,0.0,0.0,0.0634361656226881,0.07846940873945003,62.18733860647406,1451.0,-24.50755617912364
52,2011-03-22,STORE_2_090,0.0,0,0,0.0,0.0,0.0,0.0,,0.0,,0.0,,44.423638305446765,279.0,27.37735849056604,0.0,0.0,279.0,0.0,0.0,0.0,0.0634361656226881,0.07745041858629247,61.7056369495509,1451.0,-23.599727666502076
53,2011-03-23,STORE_2_090,0.0,0,0,0.0,0.0,0.0,0.0,,0.0,,0.0,,43.78875171467762,279.0,26.87037037037037,0.0,0.0,279.0,0.0,0.0,0.0,0.0634361656226881,0.07643142843313475,61.23417663804653,1451.0,-22.691899153880513
54,2011-03-24,STORE_2_090,0.0,0,0,0.0,0.0,0.0,0.0,,0.0,,0.0,,43.17024793388429,279.0,26.381818181818183,0.0,0.0,279.0,0.0,0.0,0.0,0.0634361656226881,0.07541243827997718,60.77264580479016,1451.0,-21.78407064125713
55,2011-03-25,STORE_2_090,0.0,0,0,0.0,0.0,0.0,0.0,,0.0,,0.0,,42.56760204081634,279.0,25.910714285714285,0.0,0.0,279.0,0.0,0.0,0.0,0.0634361656226881,0.07439344812681961,60.32074173215116,1451.0,-20.876242128635567
56,2011-03-26,STORE_2_090,0.0,0,0,0.0,0.0,0.0,0.0,,0.0,,0.0,,41.98030163127114,279.0,25.45614035087719,0.0,0.0,279.0,0.0,0.0,0.0,0.0634361656226881,0.0733744579736619,59.8781710092127,1451.0,-19.968413616012185
57,2011-03-27,STORE_2_090,0.0,0,0,0.0,0.0,0.0,0.0,,0.0,,0.0,,41.40784780023782,279.0,25.017241379310345,0.0,0.0,279.0,0.0,0.0,0.0,0.0634361656226881,0.07235546782050434,59.44464958418317,1451.0,-19.060585103390622
58,2011-03-28,STORE_2_090,0.0,0,0,0.0,0.0,0.0,0.0,,0.0,,0.0,,40.84975581729389,279.0,24.593220338983052,0.0,0.0,279.0,0.0,0.0,0.0,0.0634361656226881,0.07133647766734663,59.01990273425532,1451.0,-18.15275659076906
59,2011-03-29,STORE_2_090,0.0,0,0,0.0,0.0,0.0,0.0,,0.0,,0.0,,40.305555555555536,279.0,24.183333333333334,0.0,0.0,279.0,0.0,0.0,0.0,0.0634361656226881,0.07031748751418906,58.60366497090945,1451.0,-17.244928078145676
60,2011-03-30,STORE_2_090,0.0,0,0,0.0,0.0,0.0,0.0,,0.0,,0.0,,39.77479172265522,279.0,23.78688524590164,0.0,0.0,279.0,0.0,0.0,0.0,0.0634361656226881,0.0692984973610315,58.19567989524605,1451.0,-16.337099565524113
61,2011-03-31,STORE_2_090,0.0,0,0,0.0,0.0,0.0,0.0,,0.0,,0.0,,39.25702393340269,279.0,23.403225806451612,0.0,0.0,279.0,0.0,0.0,0.0,0.06284191076569755,0.06907903168958841,57.79570001516772,1451.0,-15.42927105290073
62,2011-04-01,STORE_2_090,0.0,0,0,0.0,0.0,0.0,0.0,,0.0,,0.0,,38.75182665658856,279.0,23.03174603174603,0.0,0.0,279.0,0.0,0.0,0.0,0.062247655908707046,0.06885956601814537,57.4034865339819,1451.0,-14.521442540279168
63,2011-04-02,STORE_2_090,0.0,0,0,0.0,0.0,0.0,0.0,,0.0,,0.0,,38.2587890625,279.0,22.671875,0.0,0.0,279.0,0.0,0.0,0.0,0.0616534010517165,0.06864010034670229,57.018809118167034,1451.0,-13.613614027657604
64,2011-04-03,STORE_2_090,0.0,0,0,0.0,0.0,0.0,0.0,,0.0,,0.0,,37.77751479289941,279.0,22.323076923076922,0.0,0.0,279.0,0.0,0.0,0.0,0.06105914619472596,0.06842063467525925,56.64144565055357,1451.0,-12.705785515034222
65,2011-04-04,STORE_2_090,0.0,0,0,0.0,0.0,0.0,0.0,,0.0,,0.0,,37.30762167125805,279.0,21.984848484848484,0.0,0.0,279.0,0.0,0.0,0.0,0.060464891337735416,0.06820116900381619,56.27118197395466,1451.0,-11.797957002412659
66,2011-04-05,STORE_2_090,0.0,0,0,0.0,0.0,0.0,0.0,,0.0,,0.0,,36.848741367787945,279.0,21.65671641791045,0.0,0.0,279.0,0.0,0.0,0.0,0.059870636480744865,0.06798170333237312,55.90781162928789,1451.0,-10.890128489789277
67,2011-04-06,STORE_2_090,0.0,0,0,0.0,0.0,0.0,0.0,,0.0,,0.0,,36.40051903114187,279.0,21.33823529411765,0.0,0.0,279.0,0.0,0.0,0.0,0.059276381623754364,0.06776223766093006,55.55113559141748,1451.0,-9.982299977167713
68,2011-04-07,STORE_2_090,0.0,0,0,0.0,0.0,0.0,0.0,,0.0,,0.0,,35.962612896450324,279.0,21.028985507246375,0.0,0.0,279.0,0.0,0.0,0.0,0.05868212676676382,0.06754277198948698,55.200962005282214,1451.0,-9.074471464544331
69,2011-04-08,STORE_2_090,0.0,0,0,0.0,0.0,0.0,0.0,,0.0,,0.0,,35.53469387755102,279.0,20.728571428571428,0.0,0.0,279.0,0.0,0.0,0.0,0.05808787190977327,0.06732330631804394,54.85710592433194,1451.0,-8.166642951922768
70,2011-04-09,STORE_2_090,0.0,0,0,0.0,0.0,0.0,0.0,,0.0,,0.0,,35.116445149771884,279.0,20.43661971830986,0.0,0.0,279.0,0.0,0.0,0.0,0.057493617052782726,0.06710384064660088,54.51938905285144,1451.0,-7.258814439301204
71,2011-04-10,STORE_2_090,0.0,0,0,0.0,0.0,0.0,0.0,,0.0,,0.0,,34.70756172839508,279.0,20.15277777777778,0.0,0.0,279.0,0.0,0.0,0.0,0.05739377919688305,0.06688437497515784,54.187639493388296,1451.0,-6.350985926677822
72,2011-04-11,STORE_2_090,0.0,0,0,0.0,0.0,0.0,0.0,,0.0,,0.0,,34.30775004691311,279.0,19.876712328767123,0.0,0.0,279.0,0.0,0.0,0.0,0.057293941340983374,0.06666490930371473,53.86169150020559,1451.0,-5.443157414056259
73,2011-04-12,STORE_2_090,0.0,0,0,0.0,0.0,0.0,0.0,,0.0,,0.0,,33.91672753834918,279.0,19.60810810810811,0.0,0.0,279.0,0.0,0.0,0.0,0.057194103485083705,0.06644544363227169,53.541385239438995,1451.0,-4.535328901432877
74,2011-04-13,STORE_2_090,0.0,0,0,0.0,0.0,0.0,0.0,,0.0,,0.0,,33.53422222222222,279.0,19.346666666666668,0.0,0.0,279.0,0.0,0.0,0.0,0.057094265629184036,0.06622597796082863,53.22656655644235,1451.0,-3.6275003888113133
75,2011-04-14,STORE_2_090,0.0,0,0,0.0,0.0,0.0,0.0,,0.0,,0.0,,33.159972299168984,279.0,19.092105263157894,0.0,0.0,279.0,0.0,0.0,0.0,0.056994427773284354,0.06600651228938559,52.91708675064642,1451.0,-2.71967187618975
76,2011-04-15,STORE_2_090,0.0,0,0,0.0,0.0,0.0,0.0,,0.0,,0.0,,32.79372575476471,279.0,18.844155844155843,0.0,0.0,279.0,0.0,0.0,0.0,0.05689458991738469,0.06578704661794253,52.61280235812756,1451.0,-1.8118433635663678
77,2011-04-16,STORE_2_090,0.0,0,0,0.0,0.0,0.0,0.0,,0.0,,0.0,,32.435239973701535,279.0,18.602564102564102,0.0,0.0,279.0,0.0,0.0,0.0,0.05679475206148501,0.06556758094649942,52.31357494197967,1451.0,-0.9040148509448045
78,2011-04-17,STORE_2_090,0.0,0,0,0.0,0.0,0.0,0.0,,0.0,,0.0,,32.084281365165864,279.0,18.367088607594937,0.0,0.0,279.0,0.0,0.0,0.0,0.05669491420558534,0.06534811527505638,52.01927089050007,1451.0,0.0038136616785777733
79,2011-04-18,STORE_2_090,0.0,0,0,0.0,0.0,0.0,0.0,,0.0,,0.0,,31.74062500000003,279.0,18.1375,0.0,0.0,279.0,0.0,0.0,0.0,0.05659507634968567,0.06512864960361332,51.729761223134716,1451.0,0.911642174300141
80,2011-04-19,STORE_2_090,0.0,0,0,0.0,0.0,0.0,0.0,,0.0,,0.0,,31.404054260021354,279.0,17.91358024691358,0.0,0.0,279.0,0.0,0.0,0.0,0.05649523849378599,0.06490918393217028,51.44492140407646,1451.0,1.8194706869217043
81,2011-04-20,STORE_2_090,0.0,0,0,0.0,0.0,0.0,0.0,,0.0,,0.0,,31.07436049970259,279.0,17.695121951219512,0.0,0.0,279.0,0.0,0.0,0.0,0.056294871595400774,0.06483553301669617,51.16463116337017,1451.0,2.7272991995450866
82,2011-04-21,STORE_2_090,0.0,0,0,0.0,0.0,0.0,0.0,,0.0,,0.0,,30.751342720278686,279.0,17.481927710843372,0.0,0.0,279.0,0.0,0.0,0.0,0.05609450469701553,0.06476188210122205,50.88877432534776,1451.0,3.63512771216665
83,2011-04-22,STORE_2_090,0.0,0,0,0.0,0.0,0.0,0.0,,0.0,,0.0,,30.434807256235835,279.0,17.273809523809526,0.0,0.0,279.0,0.0,0.0,0.0,0.05589413779863032,0.06468823118574794,50.61723864419396,1451.0,4.542956224790032
84,2011-04-23,STORE_2_090,0.0,0,0,0.0,0.0,0.0,0.0,,0.0,,0.0,,30.12456747404845,279.0,17.070588235294117,0.0,0.0,279.0,0.0,0.0,0.0,0.055693770900245104,0.06461458027027384,50.34991564642627,1451.0,5.450784737411595
85,2011-04-24,STORE_2_090,0.0,0,0,0.0,0.0,0.0,0.0,,0.0,,0.0,,29.820443482963775,279.0,16.872093023255815,0.0,0.0,279.0,0.0,0.0,0.0,0.05549340400185987,0.06454092935479974,50.08670048006237,1451.0,6.358613250034978
86,2011-04-25,STORE_2_090,0.0,0,0,0.0,0.0,0.0,0.0,,0.0,,0.0,,29.522261857576947,279.0,16.67816091954023,0.0,0.0,279.0,0.0,0.0,0.0,0.055293037103474656,0.06446727843932563,49.82749177024004,1451.0,7.266441762656541
87,2011-04-26,STORE_2_090,0.0,0,0,0.0,0.0,0.0,0.0,,0.0,,0.0,,29.229855371900804,279.0,16.488636363636363,0.0,0.0,279.0,0.0,0.0,0.0,0.055092670205089414,0.0643936275238515,49.572191481051796,1451.0,8.174270275278104
88,2011-04-27,STORE_2_090,0.0,0,0,0.0,0.0,0.0,0.0,,0.0,,0.0,,28.943062744602944,279.0,16.303370786516854,0.0,0.0,279.0,0.0,0.0,0.0,0.0548923033067042,0.0643199766083774,49.320704783355076,1451.0,9.082098787901487
89,2011-04-28,STORE_2_090,0.0,0,0,0.0,0.0,0.0,0.0,,0.0,,0.0,,28.661728395061743,279.0,16.122222222222224,0.0,0.0,279.0,0.0,0.0,0.0,0.054691936408318986,0.0642463256929033,49.07293992831986,1451.0,9.98992730052305
90,2011-04-29,STORE_2_090,0.0,0,0,0.0,0.0,0.0,0.0,,0.0,,0.0,0.057493617052782726,26.859999999999996,279.0,14.922222222222222,0.0,0.0,279.0,0.0,0.0,0.0,0.005449156950993839,0.0642463256929033,48.11204800822314,1343.0,10.897755813146432
91,2011-04-30,STORE_2_090,0.0,0,0,0.0,0.0,0.0,0.0,,0.0,,0.0,0.0692984973610315,24.519012345679,279.0,13.455555555555556,0.0,0.0,279.0,0.0,0.0,0.0,0.0,0.0634361656226881,46.487442090953984,1211.0,11.805584325767995
92,2011-05-01,STORE_2_090,0.0,0,0,0.0,0.0,0.0,0.0,,0.0,,0.0,0.054491569509933745,22.72765432098763,279.0,12.322222222222223,0.0,0.0,279.0,0.0,0.0,0.0,0.0,0.0634361656226881,45.53818690853156,1109.0,12.713412838389559
93,2011-05-02,STORE_2_090,0.0,0,0,0.0,0.0,0.0,0.0,,0.0,,0.0,0.0634361656226881,20.512592592592615,279.0,10.988888888888889,0.0,0.0,279.0,0.0,0.0,0.0,0.0,0.06031274841468213,44.0835505117028,989.0,13.62124135101294
94,2011-05-03,STORE_2_090,0.0,0,0,0.0,0.0,0.0,0.0,,0.0,,0.0,0.05649523849378599,18.53209876543211,279.0,9.811111111111112,0.0,0.0,279.0,0.0,0.0,0.0,0.0,0.034889891092478274,42.91719082622349,883.0,14.529069863634504
95,2011-05-04,STORE_2_090,0.0,0,0,0.0,0.0,0.0,0.0,,0.0,,0.0,0.06490918393217028,16.138271604938282,279.0,8.444444444444445,0.0,0.0,279.0,0.0,0.0,0.0,0.0,0.0,41.19619026541798,760.0,15.436898376257886
96,2011-05-05,STORE_2_090,0.0,0,0,0.0,0.0,0.0,0.0,,0.0,,0.0,0.13534318100862522,10.332592592592587,186.0,5.344444444444444,0.0,0.0,186.0,0.0,0.0,0.0,0.0,0.0,29.423357346724707,481.0,16.34472688887945
97,2011-05-06,STORE_2_090,0.0,0,0,0.0,0.0,0.0,0.0,,0.0,,0.0,0.08967830042418398,6.648888888888889,186.0,3.4,0.0,0.0,186.0,0.0,0.0,0.0,0.0,0.0,23.21264668865088,306.0,17.252555401501013
98,2011-05-07,STORE_2_090,0.0,0,0,0.0,0.0,0.0,0.0,,0.0,,0.0,0.0947416744724122,2.6370370370370355,120.0,1.3333333333333333,0.0,0.0,120.0,0.0,0.0,0.0,0.0,0.0,12.649110640673518,120.0,18.160383914124395
99,2011-05-08,STORE_2_090,0.0,0,0,0.0,0.0,0.0,0.0,,0.0,,0.0,0.0634361656226881,0.0,0.0,0.0,0.0,0.0,0.0,0.0,0.0,0.0,0.0,0.0,0.0,0.0,19.06821242674596
100,2011-05-09,STORE_2_090,0.0,0,0,0.0,0.0,0.0,0.0,,0.0,,0.0,0.0,0.0,0.0,0.0,0.0,0.0,0.0,0.0,0.0,0.0,0.0,0.0,0.0,0.0,19.97604093936934
101,2011-05-10,STORE_2_090,0.0,0,0,0.0,0.0,0.0,0.0,,0.0,,0.0,0.0,0.0,0.0,0.0,0.0,0.0,0.0,0.0,0.0,0.0,0.0,0.0,0.0,0.0,20.883869451990904
102,2011-05-11,STORE_2_090,0.0,0,0,0.0,0.0,0.0,0.0,,0.0,,0.0,0.0,0.0,0.0,0.0,0.0,0.0,0.0,0.0,0.0,0.0,0.0,0.0,0.0,0.0,21.791697964612467
103,2011-05-12,STORE_2_090,0.0,0,0,0.0,0.0,0.0,0.0,,0.0,,0.0,0.0,0.0,0.0,0.0,0.0,0.0,0.0,0.0,0.0,0.0,0.0,0.0,0.0,0.0,22.69952647723585
104,2011-05-13,STORE_2_090,0.0,0,0,0.0,0.0,0.0,0.0,,0.0,,0.0,0.0,0.0,0.0,0.0,0.0,0.0,0.0,0.0,0.0,0.0,0.0,0.0,0.0,0.0,23.607354989857413
105,2011-05-14,STORE_2_090,0.0,0,0,0.0,0.0,0.0,0.0,,0.0,,0.0,0.0,0.0,0.0,0.0,0.0,0.0,0.0,0.0,0.0,0.0,0.0,0.0,0.0,0.0,24.515183502480795
106,2011-05-15,STORE_2_090,0.0,0,0,0.0,0.0,0.0,0.0,,0.0,,0.0,0.0,0.0,0.0,0.0,0.0,0.0,0.0,0.0,0.0,0.0,0.0,0.0,0.0,0.0,25.42301201510236
107,2011-05-16,STORE_2_090,0.0,0,0,0.0,0.0,0.0,0.0,,0.0,,0.0,0.0,0.0,0.0,0.0,0.0,0.0,0.0,0.0,0.0,0.0,0.0,0.0,0.0,0.0,26.33084052772574
108,2011-05-17,STORE_2_090,0.0,0,0,0.0,0.0,0.0,0.0,,0.0,,0.0,0.0,0.0,0.0,0.0,0.0,0.0,0.0,0.0,0.0,0.0,0.0,0.0,0.0,0.0,27.238669040347304
109,2011-05-18,STORE_2_090,0.0,0,0,0.0,0.0,0.0,0.0,,0.0,,0.0,0.0,0.0,0.0,0.0,0.0,0.0,0.0,0.0,0.0,0.0,0.0,0.0,0.0,0.0,28.146497552968867
110,2011-05-19,STORE_2_090,0.0,0,0,0.0,0.0,0.0,0.0,,0.0,,0.0,0.0,0.0,0.0,0.0,0.0,0.0,0.0,0.0,0.0,0.0,0.0,0.0,0.0,0.0,29.05432606559225
111,2011-05-20,STORE_2_090,0.0,0,0,0.0,0.0,0.0,0.0,,0.0,,0.0,0.0,0.0,0.0,0.0,0.0,0.0,0.0,0.0,0.0,0.0,0.0,0.0,0.0,0.0,29.962154578213813
112,2011-05-21,STORE_2_090,0.0,0,0,0.0,0.0,0.0,0.0,,0.0,,0.0,0.0,0.0,0.0,0.0,0.0,0.0,0.0,0.0,0.0,0.0,0.0,0.0,0.0,0.0,30.869983090837195
113,2011-05-22,STORE_2_090,0.0,0,0,0.0,0.0,0.0,0.0,,0.0,,0.0,0.0,0.0,0.0,0.0,0.0,0.0,0.0,0.0,0.0,0.0,0.0,0.0,0.0,0.0,31.77781160345876
114,2011-05-23,STORE_2_090,0.0,0,0,0.0,0.0,0.0,0.0,,0.0,,0.0,0.0,0.0,0.0,0.0,0.0,0.0,0.0,0.0,0.0,0.0,0.0,0.0,0.0,0.0,32.68564011608032
115,2011-05-24,STORE_2_090,0.0,0,0,0.0,0.0,0.0,0.0,,0.0,,0.0,0.0,0.0,0.0,0.0,0.0,0.0,0.0,0.0,0.0,0.0,0.0,0.0,0.0,0.0,33.593468628703704
116,2011-05-25,STORE_2_090,0.0,0,0,0.0,0.0,0.0,0.0,,0.0,,0.0,0.0,0.0,0.0,0.0,0.0,0.0,0.0,0.0,0.0,0.0,0.0,0.0,0.0,0.0,34.50129714132527
117,2011-05-26,STORE_2_090,0.0,0,0,0.0,0.0,0.0,0.0,,0.0,,0.0,0.0,0.0,0.0,0.0,0.0,0.0,0.0,0.0,0.0,0.0,0.0,0.0,0.0,0.0,35.40912565394865
118,2011-05-27,STORE_2_090,0.0,0,0,0.0,0.0,0.0,0.0,,0.0,,0.0,0.0,0.0,0.0,0.0,0.0,0.0,0.0,0.0,0.0,0.0,0.0,0.0,0.0,0.0,36.31695416657021
119,2011-05-28,STORE_2_090,0.0,0,0,0.0,0.0,0.0,0.0,,0.0,,0.0,0.0,0.0,0.0,0.0,0.0,0.0,0.0,0.0,0.0,0.0,0.0,0.0,0.0,0.0,37.224782679191776
120,2011-05-29,STORE_2_090,0.0,0,0,0.0,0.0,0.0,0.0,,0.0,,0.0,0.0,0.0,0.0,0.0,0.0,0.0,0.0,0.0,0.0,0.0,0.0,0.0,0.0,0.0,38.13261119181516
121,2011-05-30,STORE_2_090,0.0,1,0,0.0,0.0,0.0,0.0,,0.0,,0.0,0.0,0.0,0.0,0.0,0.0,0.0,0.0,0.0,0.0,0.0,0.0,0.0,0.0,0.0,39.04043970443672
122,2011-05-31,STORE_2_090,0.0,0,0,0.0,0.0,0.0,0.0,,0.0,,0.0,0.0,0.0,0.0,0.0,0.0,0.0,0.0,0.0,0.0,0.0,0.0,0.0,0.0,0.0,39.948268217060104
123,2011-06-01,STORE_2_090,0.0,0,0,0.0,0.0,0.0,0.0,,0.0,,0.0,0.0,0.0,0.0,0.0,0.0,0.0,0.0,0.0,0.0,0.0,0.0,0.0,0.0,0.0,40.85609672968167
124,2011-06-02,STORE_2_090,0.0,0,0,0.0,0.0,0.0,0.0,,0.0,,0.0,0.0,0.0,0.0,0.0,0.0,0.0,0.0,0.0,0.0,0.0,0.0,0.0,0.0,0.0,41.76392524230505
125,2011-06-03,STORE_2_090,0.0,0,0,0.0,0.0,0.0,0.0,,0.0,,0.0,0.0,0.0,0.0,0.0,0.0,0.0,0.0,0.0,0.0,0.0,0.0,0.0,0.0,0.0,42.67175375492661
126,2011-06-04,STORE_2_090,0.0,0,0,0.0,0.0,0.0,0.0,,0.0,,0.0,0.0,0.0,0.0,0.0,0.0,0.0,0.0,0.0,0.0,0.0,0.0,0.0,0.0,0.0,43.579582267548176
127,2011-06-05,STORE_2_090,0.0,0,0,0.0,0.0,0.0,0.0,,0.0,,0.0,0.0,0.0,0.0,0.0,0.0,0.0,0.0,0.0,0.0,0.0,0.0,0.0,0.0,0.0,44.48741078017156
128,2011-06-06,STORE_2_090,0.0,0,0,0.0,0.0,0.0,0.0,,0.0,,0.0,0.0,0.0,0.0,0.0,0.0,0.0,0.0,0.0,0.0,0.0,0.0,0.0,0.0,0.0,45.39523929279312
129,2011-06-07,STORE_2_090,0.0,0,0,0.0,0.0,0.0,0.0,,0.0,,0.0,0.0,0.0,0.0,0.0,0.0,0.0,0.0,0.0,0.0,0.0,0.0,0.0,0.0,0.0,46.303067805416504
130,2011-06-08,STORE_2_090,0.0,0,0,0.0,0.0,0.0,0.0,,0.0,,0.0,0.0,0.0,0.0,0.0,0.0,0.0,0.0,0.0,0.0,0.0,0.0,0.0,0.0,0.0,47.21089631803807
131,2011-06-09,STORE_2_090,0.0,0,0,0.0,0.0,0.0,0.0,,0.0,,0.0,0.0,0.0,0.0,0.0,0.0,0.0,0.0,0.0,0.0,0.0,0.0,0.0,0.0,0.0,48.11872483065963
132,2011-06-10,STORE_2_090,0.0,0,0,0.0,0.0,0.0,0.0,,0.0,,0.0,0.0,0.0,0.0,0.0,0.0,0.0,0.0,0.0,0.0,0.0,0.0,0.0,0.0,0.0,49.02655334328301
133,2011-06-11,STORE_2_090,0.0,0,0,0.0,0.0,0.0,0.0,,0.0,,0.0,0.0,0.0,0.0,0.0,0.0,0.0,0.0,0.0,0.0,0.0,0.0,0.0,0.0,0.0,49.934381855904576
134,2011-06-12,STORE_2_090,0.0,0,0,0.0,0.0,0.0,0.0,,0.0,,0.0,0.0,0.0,0.0,0.0,0.0,0.0,0.0,0.0,0.0,0.0,0.0,0.0,0.0,0.0,50.84221036852796
135,2011-06-13,STORE_2_090,0.0,0,0,0.0,0.0,0.0,0.0,,0.0,,0.0,0.0,0.0,0.0,0.0,0.0,0.0,0.0,0.0,0.0,0.0,0.0,0.0,0.0,0.0,51.75003888114952
136,2011-06-14,STORE_2_090,0.0,0,0,0.0,0.0,0.0,0.0,,0.0,,0.0,0.0,0.0,0.0,0.0,0.0,0.0,0.0,0.0,0.0,0.0,0.0,0.0,0.0,0.0,52.657867393771085
137,2011-06-15,STORE_2_090,0.0,0,0,0.0,0.0,0.0,0.0,,0.0,,0.0,0.0,0.0,0.0,0.0,0.0,0.0,0.0,0.0,0.0,0.0,0.0,0.0,0.0,0.0,53.56569590639447
138,2011-06-16,STORE_2_090,0.0,0,0,0.0,0.0,0.0,0.0,,0.0,,0.0,0.0,0.0,0.0,0.0,0.0,0.0,0.0,0.0,0.0,0.0,0.0,0.0,0.0,0.0,54.47352441901603
139,2011-06-17,STORE_2_090,0.0,0,0,0.0,0.0,0.0,0.0,,0.0,,0.0,0.0,0.0,0.0,0.0,0.0,0.0,0.0,0.0,0.0,0.0,0.0,0.0,0.0,0.0,55.38135293163941
140,2011-06-18,STORE_2_090,0.0,0,0,0.0,0.0,0.0,0.0,,0.0,,0.0,0.0,0.0,0.0,0.0,0.0,0.0,0.0,0.0,0.0,0.0,0.0,0.0,0.0,0.0,56.289181444260976
141,2011-06-19,STORE_2_090,0.0,0,0,0.0,0.0,0.0,0.0,,0.0,,0.0,0.0,0.0,0.0,0.0,0.0,0.0,0.0,0.0,0.0,0.0,0.0,0.0,0.0,0.0,57.19700995688254
142,2011-06-20,STORE_2_090,0.0,0,0,0.0,0.0,0.0,0.0,,0.0,,0.0,0.0,0.0,0.0,0.0,0.0,0.0,0.0,0.0,0.0,0.0,0.0,0.0,0.0,0.0,58.10483846950592
143,2011-06-21,STORE_2_090,0.0,0,0,0.0,0.0,0.0,0.0,,0.0,,0.0,0.0,0.0,0.0,0.0,0.0,0.0,0.0,0.0,0.0,0.0,0.0,0.0,0.0,0.0,59.012666982127485
144,2011-06-22,STORE_2_090,0.0,0,0,0.0,0.0,0.0,0.0,,0.0,,0.0,0.0,0.0,0.0,0.0,0.0,0.0,0.0,0.0,0.0,0.0,0.0,0.0,0.0,0.0,59.92049549475087
145,2011-06-23,STORE_2_090,0.0,0,0,0.0,0.0,0.0,0.0,,0.0,,0.0,0.0,0.0,0.0,0.0,0.0,0.0,0.0,0.0,0.0,0.0,0.0,0.0,0.0,0.0,60.82832400737243
146,2011-06-24,STORE_2_090,0.0,0,0,0.0,0.0,0.0,0.0,,0.0,,0.0,0.0,0.0,0.0,0.0,0.0,0.0,0.0,0.0,0.0,0.0,0.0,0.0,0.0,0.0,61.73615251999581
147,2011-06-25,STORE_2_090,0.0,0,0,0.0,0.0,0.0,0.0,,0.0,,0.0,0.0,0.0,0.0,0.0,0.0,0.0,0.0,0.0,0.0,0.0,0.0,0.0,0.0,0.0,62.643981032617376
148,2011-06-26,STORE_2_090,0.0,0,0,0.0,0.0,0.0,0.0,,0.0,,0.0,0.0,0.0,0.0,0.0,0.0,0.0,0.0,0.0,0.0,0.0,0.0,0.0,0.0,0.0,63.55180954523894
149,2011-06-27,STORE_2_090,0.0,0,0,0.0,0.0,0.0,0.0,,0.0,,0.0,0.0,0.0,0.0,0.0,0.0,0.0,0.0,0.0,0.0,0.0,0.0,0.0,0.0,0.0,64.45963805786232
150,2011-06-28,STORE_2_090,0.0,0,0,0.0,0.0,0.0,0.0,,0.0,,0.0,0.0,0.0,0.0,0.0,0.0,0.0,0.0,0.0,0.0,0.0,0.0,0.0,0.0,0.0,65.36746657048388
151,2011-06-29,STORE_2_090,0.0,0,0,0.0,0.0,0.0,0.0,,0.0,,0.0,0.0,0.0,0.0,0.0,0.0,0.0,0.0,0.0,0.0,0.0,0.0,0.0,0.0,0.0,66.27529508310727
152,2011-06-30,STORE_2_090,0.0,0,0,0.0,0.0,0.0,0.0,,0.0,,0.0,0.0,0.0,0.0,0.0,0.0,0.0,0.0,0.0,0.0,0.0,0.0,0.0,0.0,0.0,67.18312359572883
153,2011-07-01,STORE_2_090,0.0,0,0,0.0,0.0,0.0,0.0,,0.0,,0.0,0.0,0.0,0.0,0.0,0.0,0.0,0.0,0.0,0.0,0.0,0.0,0.0,0.0,0.0,68.0909521083504
154,2011-07-02,STORE_2_090,0.0,0,0,0.0,0.0,0.0,0.0,,0.0,,0.0,0.0,0.0,0.0,0.0,0.0,0.0,0.0,0.0,0.0,0.0,0.0,0.0,0.0,0.0,68.99878062097378
155,2011-07-03,STORE_2_090,0.0,0,0,0.0,0.0,0.0,0.0,,0.0,,0.0,0.0,0.0,0.0,0.0,0.0,0.0,0.0,0.0,0.0,0.0,0.0,0.0,0.0,0.0,69.90660913359534
156,2011-07-04,STORE_2_090,0.0,1,0,0.0,0.0,0.0,0.0,,0.0,,0.0,0.0,0.0,0.0,0.0,0.0,0.0,0.0,0.0,0.0,0.0,0.0,0.0,0.0,0.0,70.81443764621872
157,2011-07-05,STORE_2_090,0.0,0,0,0.0,0.0,0.0,0.0,,0.0,,0.0,0.0,0.0,0.0,0.0,0.0,0.0,0.0,0.0,0.0,0.0,0.0,0.0,0.0,0.0,71.72226615884028
158,2011-07-06,STORE_2_090,0.0,0,0,0.0,0.0,0.0,0.0,,0.0,,0.0,0.0,0.0,0.0,0.0,0.0,0.0,0.0,0.0,0.0,0.0,0.0,0.0,0.0,0.0,72.63009467146185
159,2011-07-07,STORE_2_090,0.0,0,0,0.0,0.0,0.0,0.0,,0.0,,0.0,0.0,0.0,0.0,0.0,0.0,0.0,0.0,0.0,0.0,0.0,0.0,0.0,0.0,0.0,73.53792318408523
160,2011-07-08,STORE_2_090,0.0,0,0,0.0,0.0,0.0,0.0,,0.0,,0.0,0.0,0.0,0.0,0.0,0.0,0.0,0.0,0.0,0.0,0.0,0.0,0.0,0.0,0.0,74.4457516967068
161,2011-07-09,STORE_2_090,0.0,0,0,0.0,0.0,0.0,0.0,,0.0,,0.0,0.0,0.0,0.0,0.0,0.0,0.0,0.0,0.0,0.0,0.0,0.0,0.0,0.0,0.0,75.35358020933018
162,2011-07-10,STORE_2_090,0.0,0,0,0.0,0.0,0.0,0.0,,0.0,,0.0,0.0,0.0,0.0,0.0,0.0,0.0,0.0,0.0,0.0,0.0,0.0,0.0,0.0,0.0,76.26140872195174
163,2011-07-11,STORE_2_090,0.0,0,0,0.0,0.0,0.0,0.0,,0.0,,0.0,0.0,0.0,0.0,0.0,0.0,0.0,0.0,0.0,0.0,0.0,0.0,0.0,0.0,0.0,77.16923723457512
164,2011-07-12,STORE_2_090,0.0,0,0,0.0,0.0,0.0,0.0,,0.0,,0.0,0.0,0.0,0.0,0.0,0.0,0.0,0.0,0.0,0.0,0.0,0.0,0.0,0.0,0.0,78.07706574719668
165,2011-07-13,STORE_2_090,0.0,0,0,0.0,0.0,0.0,0.0,,0.0,,0.0,0.0,0.0,0.0,0.0,0.0,0.0,0.0,0.0,0.0,0.0,0.0,0.0,0.0,0.0,78.98489425981825
166,2011-07-14,STORE_2_090,0.0,0,0,0.0,0.0,0.0,0.0,,0.0,,0.0,0.0,0.0,0.0,0.0,0.0,0.0,0.0,0.0,0.0,0.0,0.0,0.0,0.0,0.0,79.89272277244163
167,2011-07-15,STORE_2_090,0.0,0,0,0.0,0.0,0.0,0.0,,0.0,,0.0,0.0,0.0,0.0,0.0,0.0,0.0,0.0,0.0,0.0,0.0,0.0,0.0,0.0,0.0,80.8005512850632
168,2011-07-16,STORE_2_090,0.0,0,0,0.0,0.0,0.0,0.0,,0.0,,0.0,0.0,0.0,0.0,0.0,0.0,0.0,0.0,0.0,0.0,0.0,0.0,0.0,0.0,0.0,81.70837979768658
169,2011-07-17,STORE_2_090,0.0,0,0,0.0,0.0,0.0,0.0,,0.0,,0.0,0.0,0.0,0.0,0.0,0.0,0.0,0.0,0.0,0.0,0.0,0.0,0.0,0.0,0.0,82.61620831030814
170,2011-07-18,STORE_2_090,0.0,0,0,0.0,0.0,0.0,0.0,,0.0,,0.0,0.0,0.0,0.0,0.0,0.0,0.0,0.0,0.0,0.0,0.0,0.0,0.0,0.0,0.0,83.5240368229297
171,2011-07-19,STORE_2_090,0.0,0,0,0.0,0.0,0.0,0.0,,0.0,,0.0,0.0,0.0,0.0,0.0,0.0,0.0,0.0,0.0,0.0,0.0,0.0,0.0,0.0,0.0,84.43186533555308
172,2011-07-20,STORE_2_090,0.0,0,0,0.0,0.0,0.0,0.0,,0.0,,0.0,0.0,0.0,0.0,0.0,0.0,0.0,0.0,0.0,0.0,0.0,0.0,0.0,0.0,0.0,85.33969384817465
173,2011-07-21,STORE_2_090,0.0,0,0,0.0,0.0,0.0,0.0,,0.0,,0.0,0.0,0.0,0.0,0.0,0.0,0.0,0.0,0.0,0.0,0.0,0.0,0.0,0.0,0.0,86.24752236079803
174,2011-07-22,STORE_2_090,0.0,0,0,0.0,0.0,0.0,0.0,,0.0,,0.0,0.0,0.0,0.0,0.0,0.0,0.0,0.0,0.0,0.0,0.0,0.0,0.0,0.0,0.0,87.1553508734196
175,2011-07-23,STORE_2_090,0.0,0,0,0.0,0.0,0.0,0.0,,0.0,,0.0,0.0,0.0,0.0,0.0,0.0,0.0,0.0,0.0,0.0,0.0,0.0,0.0,0.0,0.0,88.06317938604116
176,2011-07-24,STORE_2_090,0.0,0,0,0.0,0.0,0.0,0.0,,0.0,,0.0,0.0,0.0,0.0,0.0,0.0,0.0,0.0,0.0,0.0,0.0,0.0,0.0,0.0,0.0,88.97100789866454
177,2011-07-25,STORE_2_090,0.0,0,0,0.0,0.0,0.0,0.0,,0.0,,0.0,0.0,0.0,0.0,0.0,0.0,0.0,0.0,0.0,0.0,0.0,0.0,0.0,0.0,0.0,89.8788364112861
178,2011-07-26,STORE_2_090,0.0,0,0,0.0,0.0,0.0,0.0,,0.0,,0.0,0.0,0.0,0.0,0.0,0.0,0.0,0.0,0.0,0.0,0.0,0.0,0.0,0.0,0.0,90.78666492390948
179,2011-07-27,STORE_2_090,0.0,0,0,0.0,0.0,0.0,0.0,,0.0,,0.0,0.0,0.0,0.0,0.0,0.0,0.0,0.0,0.0,0.0,0.0,0.0,0.0,0.0,0.0,91.69449343653105
180,2011-07-28,STORE_2_090,0.0,0,0,0.0,0.0,0.0,0.0,0.057493617052782726,0.0,,0.0,0.0,0.0,0.0,0.0,0.0,0.0,0.0,0.0,0.0,0.0,0.0,0.0,0.0,0.0,92.60232194915443
181,2011-07-29,STORE_2_090,0.0,0,0,0.0,0.0,0.0,0.0,0.0692984973610315,0.0,,0.0,0.0,0.0,0.0,0.0,0.0,0.0,0.0,0.0,0.0,0.0,0.0,0.0,0.0,0.0,93.51015046177599
182,2011-07-30,STORE_2_090,0.0,0,0,0.0,0.0,0.0,0.0,0.054491569509933745,0.0,,0.0,0.0,0.0,0.0,0.0,0.0,0.0,0.0,0.0,0.0,0.0,0.0,0.0,0.0,0.0,94.41797897439756
183,2011-07-31,STORE_2_090,0.0,0,0,0.0,0.0,0.0,0.0,0.0634361656226881,0.0,,0.0,0.0,0.0,0.0,0.0,0.0,0.0,0.0,0.0,0.0,0.0,0.0,0.0,0.0,0.0,95.32580748702094
184,2011-08-01,STORE_2_090,0.0,0,0,0.0,0.0,0.0,0.0,0.05649523849378599,0.0,,0.0,0.0,0.0,0.0,0.0,0.0,0.0,0.0,0.0,0.0,0.0,0.0,0.0,0.0,0.0,96.2336359996425
185,2011-08-02,STORE_2_090,0.0,0,0,0.0,0.0,0.0,0.0,0.06490918393217028,0.0,,0.0,0.0,0.0,0.0,0.0,0.0,0.0,0.0,0.0,0.0,0.0,0.0,0.0,0.0,0.0,97.14146451226588
186,2011-08-03,STORE_2_090,0.0,0,0,0.0,0.0,0.0,0.0,0.13534318100862522,0.0,,0.0,0.0,0.0,0.0,0.0,0.0,0.0,0.0,0.0,0.0,0.0,0.0,0.0,0.0,0.0,98.04929302488745
187,2011-08-04,STORE_2_090,0.0,0,0,0.0,0.0,0.0,0.0,0.08967830042418398,0.0,,0.0,0.0,0.0,0.0,0.0,0.0,0.0,0.0,0.0,0.0,0.0,0.0,0.0,0.0,0.0,98.95712153750901
188,2011-08-05,STORE_2_090,0.0,0,0,0.0,0.0,0.0,0.0,0.0947416744724122,0.0,,0.0,0.0,0.0,0.0,0.0,0.0,0.0,0.0,0.0,0.0,0.0,0.0,0.0,0.0,0.0,99.86495005013239
189,2011-08-06,STORE_2_090,0.0,0,0,0.0,0.0,0.0,0.0,0.0634361656226881,0.0,,0.0,0.0,0.0,0.0,0.0,0.0,0.0,0.0,0.0,0.0,0.0,0.0,0.0,0.0,0.0,100.77277856275396
190,2011-08-07,STORE_2_090,0.0,0,0,0.0,0.0,0.0,0.0,0.0,0.0,,0.0,0.0,0.0,0.0,0.0,0.0,0.0,0.0,0.0,0.0,0.0,0.0,0.0,0.0,0.0,101.68060707537734
191,2011-08-08,STORE_2_090,0.0,0,0,0.0,0.0,0.0,0.0,0.0,0.0,,0.0,0.0,0.0,0.0,0.0,0.0,0.0,0.0,0.0,0.0,0.0,0.0,0.0,0.0,0.0,102.5884355879989
192,2011-08-09,STORE_2_090,0.0,0,0,0.0,0.0,0.0,0.0,0.0,0.0,,0.0,0.0,0.0,0.0,0.0,0.0,0.0,0.0,0.0,0.0,0.0,0.0,0.0,0.0,0.0,103.49626410062046
193,2011-08-10,STORE_2_090,0.0,0,0,0.0,0.0,0.0,0.0,0.0,0.0,,0.0,0.0,0.0,0.0,0.0,0.0,0.0,0.0,0.0,0.0,0.0,0.0,0.0,0.0,0.0,104.40409261324385
194,2011-08-11,STORE_2_090,0.0,0,0,0.0,0.0,0.0,0.0,0.0,0.0,,0.0,0.0,0.0,0.0,0.0,0.0,0.0,0.0,0.0,0.0,0.0,0.0,0.0,0.0,0.0,105.31192112586541
195,2011-08-12,STORE_2_090,0.0,0,0,0.0,0.0,0.0,0.0,0.0,0.0,,0.0,0.0,0.0,0.0,0.0,0.0,0.0,0.0,0.0,0.0,0.0,0.0,0.0,0.0,0.0,106.21974963848879
196,2011-08-13,STORE_2_090,0.0,0,0,0.0,0.0,0.0,0.0,0.0,0.0,,0.0,0.0,0.0,0.0,0.0,0.0,0.0,0.0,0.0,0.0,0.0,0.0,0.0,0.0,0.0,107.12757815111036
197,2011-08-14,STORE_2_090,0.0,0,0,0.0,0.0,0.0,0.0,0.0,0.0,,0.0,0.0,0.0,0.0,0.0,0.0,0.0,0.0,0.0,0.0,0.0,0.0,0.0,0.0,0.0,108.03540666373192
198,2011-08-15,STORE_2_090,0.0,0,0,0.0,0.0,0.0,0.0,0.0,0.0,,0.0,0.0,0.0,0.0,0.0,0.0,0.0,0.0,0.0,0.0,0.0,0.0,0.0,0.0,0.0,108.9432351763553
199,2011-08-16,STORE_2_090,0.0,0,0,0.0,0.0,0.0,0.0,0.0,0.0,,0.0,0.0,0.0,0.0,0.0,0.0,0.0,0.0,0.0,0.0,0.0,0.0,0.0,0.0,0.0,109.85106368897686
200,2011-08-17,STORE_2_090,0.0,0,0,0.0,0.0,0.0,0.0,0.0,0.0,,0.0,0.0,0.0,0.0,0.0,0.0,0.0,0.0,0.0,0.0,0.0,0.0,0.0,0.0,0.0,110.75889220160025
201,2011-08-18,STORE_2_090,0.0,0,0,0.0,0.0,0.0,0.0,0.0,0.0,,0.0,0.0,0.0,0.0,0.0,0.0,0.0,0.0,0.0,0.0,0.0,0.0,0.0,0.0,0.0,111.66672071422181
202,2011-08-19,STORE_2_090,0.0,0,0,0.0,0.0,0.0,0.0,0.0,0.0,,0.0,0.0,0.0,0.0,0.0,0.0,0.0,0.0,0.0,0.0,0.0,0.0,0.0,0.0,0.0,112.57454922684519
203,2011-08-20,STORE_2_090,0.0,0,0,0.0,0.0,0.0,0.0,0.0,0.0,,0.0,0.0,0.0,0.0,0.0,0.0,0.0,0.0,0.0,0.0,0.0,0.0,0.0,0.0,0.0,113.48237773946676
204,2011-08-21,STORE_2_090,0.0,0,0,0.0,0.0,0.0,0.0,0.0,0.0,,0.0,0.0,0.0,0.0,0.0,0.0,0.0,0.0,0.0,0.0,0.0,0.0,0.0,0.0,0.0,114.39020625208832
205,2011-08-22,STORE_2_090,0.0,0,0,0.0,0.0,0.0,0.0,0.0,0.0,,0.0,0.0,0.0,0.0,0.0,0.0,0.0,0.0,0.0,0.0,0.0,0.0,0.0,0.0,0.0,115.2980347647117
206,2011-08-23,STORE_2_090,0.0,0,0,0.0,0.0,0.0,0.0,0.0,0.0,,0.0,0.0,0.0,0.0,0.0,0.0,0.0,0.0,0.0,0.0,0.0,0.0,0.0,0.0,0.0,116.20586327733326
207,2011-08-24,STORE_2_090,0.0,0,0,0.0,0.0,0.0,0.0,0.0,0.0,,0.0,0.0,0.0,0.0,0.0,0.0,0.0,0.0,0.0,0.0,0.0,0.0,0.0,0.0,0.0,117.11369178995665
208,2011-08-25,STORE_2_090,0.0,0,0,0.0,0.0,0.0,0.0,0.0,0.0,,0.0,0.0,0.0,0.0,0.0,0.0,0.0,0.0,0.0,0.0,0.0,0.0,0.0,0.0,0.0,118.02152030257821
209,2011-08-26,STORE_2_090,0.0,0,0,0.0,0.0,0.0,0.0,0.0,0.0,,0.0,0.0,0.0,0.0,0.0,0.0,0.0,0.0,0.0,0.0,0.0,0.0,0.0,0.0,0.0,118.92934881519977
210,2011-08-27,STORE_2_090,0.0,0,0,0.0,0.0,0.0,0.0,0.0,0.0,,0.0,0.0,0.0,0.0,0.0,0.0,0.0,0.0,0.0,0.0,0.0,0.0,0.0,0.0,0.0,119.83717732782316
211,2011-08-28,STORE_2_090,0.0,0,0,0.0,0.0,0.0,0.0,0.0,0.0,,0.0,0.0,0.0,0.0,0.0,0.0,0.0,0.0,0.0,0.0,0.0,0.0,0.0,0.0,0.0,120.74500584044472
212,2011-08-29,STORE_2_090,0.0,0,0,0.0,0.0,0.0,0.0,0.0,0.0,,0.0,0.0,0.0,0.0,0.0,0.0,0.0,0.0,0.0,0.0,0.0,0.0,0.0,0.0,0.0,121.6528343530681
213,2011-08-30,STORE_2_090,0.0,0,0,0.0,0.0,0.0,0.0,0.0,0.0,,0.0,0.0,0.0,0.0,0.0,0.0,0.0,0.0,0.0,0.0,0.0,0.0,0.0,0.0,0.0,122.56066286568966
214,2011-08-31,STORE_2_090,0.0,0,0,0.0,0.0,0.0,0.0,0.0,0.0,,0.0,0.0,0.0,0.0,0.0,0.0,0.0,0.0,0.0,0.0,0.0,0.0,0.0,0.0,0.0,123.46849137831123
215,2011-09-01,STORE_2_090,0.0,0,0,0.0,0.0,0.0,0.0,0.0,0.0,,0.0,0.0,0.0,0.0,0.0,0.0,0.0,0.0,0.0,0.0,0.0,0.0,0.0,0.0,0.0,124.37631989093461
216,2011-09-02,STORE_2_090,0.0,0,0,0.0,0.0,0.0,0.0,0.0,0.0,,0.0,0.0,0.0,0.0,0.0,0.0,0.0,0.0,0.0,0.0,0.0,0.0,0.0,0.0,0.0,125.28414840355617
217,2011-09-03,STORE_2_090,0.0,0,0,0.0,0.0,0.0,0.0,0.0,0.0,,0.0,0.0,0.0,0.0,0.0,0.0,0.0,0.0,0.0,0.0,0.0,0.0,0.0,0.0,0.0,126.19197691617956
218,2011-09-04,STORE_2_090,0.0,0,0,0.0,0.0,0.0,0.0,0.0,0.0,,0.0,0.0,0.0,0.0,0.0,0.0,0.0,0.0,0.0,0.0,0.0,0.0,0.0,0.0,0.0,127.09980542880112
219,2011-09-05,STORE_2_090,0.0,1,0,0.0,0.0,0.0,0.0,0.0,0.0,,0.0,0.0,0.0,0.0,0.0,0.0,0.0,0.0,0.0,0.0,0.0,0.0,0.0,0.0,0.0,128.0076339414245
220,2011-09-06,STORE_2_090,0.0,0,0,0.0,0.0,0.0,0.0,0.0,0.0,,0.0,0.0,0.0,0.0,0.0,0.0,0.0,0.0,0.0,0.0,0.0,0.0,0.0,0.0,0.0,128.91546245404606
221,2011-09-07,STORE_2_090,0.0,0,0,0.0,0.0,0.0,0.0,0.0,0.0,,0.0,0.0,0.0,0.0,0.0,0.0,0.0,0.0,0.0,0.0,0.0,0.0,0.0,0.0,0.0,129.82329096666763
222,2011-09-08,STORE_2_090,0.0,0,0,0.0,0.0,0.0,0.0,0.0,0.0,,0.0,0.0,0.0,0.0,0.0,0.0,0.0,0.0,0.0,0.0,0.0,0.0,0.0,0.0,0.0,130.731119479291
223,2011-09-09,STORE_2_090,0.0,0,0,0.0,0.0,0.0,0.0,0.0,0.0,,0.0,0.0,0.0,0.0,0.0,0.0,0.0,0.0,0.0,0.0,0.0,0.0,0.0,0.0,0.0,131.63894799191257
224,2011-09-10,STORE_2_090,0.0,0,0,0.0,0.0,0.0,0.0,0.0,0.0,,0.0,0.0,0.0,0.0,0.0,0.0,0.0,0.0,0.0,0.0,0.0,0.0,0.0,0.0,0.0,132.54677650453596
225,2011-09-11,STORE_2_090,0.0,0,0,0.0,0.0,0.0,0.0,0.0,0.0,,0.0,0.0,0.0,0.0,0.0,0.0,0.0,0.0,0.0,0.0,0.0,0.0,0.0,0.0,0.0,133.45460501715752
226,2011-09-12,STORE_2_090,0.0,0,0,0.0,0.0,0.0,0.0,0.0,0.0,,0.0,0.0,0.0,0.0,0.0,0.0,0.0,0.0,0.0,0.0,0.0,0.0,0.0,0.0,0.0,134.36243352977908
227,2011-09-13,STORE_2_090,0.0,0,0,0.0,0.0,0.0,0.0,0.0,0.0,,0.0,0.0,0.0,0.0,0.0,0.0,0.0,0.0,0.0,0.0,0.0,0.0,0.0,0.0,0.0,135.27026204240246
228,2011-09-14,STORE_2_090,0.0,0,0,0.0,0.0,0.0,0.0,0.0,0.0,,0.0,0.0,0.0,0.0,0.0,0.0,0.0,0.0,0.0,0.0,0.0,0.0,0.0,0.0,0.0,136.17809055502403
229,2011-09-15,STORE_2_090,0.0,0,0,0.0,0.0,0.0,0.0,0.0,0.0,,0.0,0.0,0.0,0.0,0.0,0.0,0.0,0.0,0.0,0.0,0.0,0.0,0.0,0.0,0.0,137.0859190676474
230,2011-09-16,STORE_2_090,0.0,0,0,0.0,0.0,0.0,0.0,0.0,0.0,,0.0,0.0,0.0,0.0,0.0,0.0,0.0,0.0,0.0,0.0,0.0,0.0,0.0,0.0,0.0,137.99374758026897
231,2011-09-17,STORE_2_090,0.0,0,0,0.0,0.0,0.0,0.0,0.0,0.0,,0.0,0.0,0.0,0.0,0.0,0.0,0.0,0.0,0.0,0.0,0.0,0.0,0.0,0.0,0.0,138.90157609289054
232,2011-09-18,STORE_2_090,0.0,0,0,0.0,0.0,0.0,0.0,0.0,0.0,,0.0,0.0,0.0,0.0,0.0,0.0,0.0,0.0,0.0,0.0,0.0,0.0,0.0,0.0,0.0,139.80940460551392
233,2011-09-19,STORE_2_090,0.0,0,0,0.0,0.0,0.0,0.0,0.0,0.0,,0.0,0.0,0.0,0.0,0.0,0.0,0.0,0.0,0.0,0.0,0.0,0.0,0.0,0.0,0.0,140.71723311813548
234,2011-09-20,STORE_2_090,0.0,0,0,0.0,0.0,0.0,0.0,0.0,0.0,,0.0,0.0,0.0,0.0,0.0,0.0,0.0,0.0,0.0,0.0,0.0,0.0,0.0,0.0,0.0,141.62506163075886
235,2011-09-21,STORE_2_090,0.0,0,0,0.0,0.0,0.0,0.0,0.0,0.0,,0.0,0.0,0.0,0.0,0.0,0.0,0.0,0.0,0.0,0.0,0.0,0.0,0.0,0.0,0.0,142.53289014338043
236,2011-09-22,STORE_2_090,0.0,0,0,0.0,0.0,0.0,0.0,0.0,0.0,,0.0,0.0,0.0,0.0,0.0,0.0,0.0,0.0,0.0,0.0,0.0,0.0,0.0,0.0,0.0,143.440718656002
237,2011-09-23,STORE_2_090,0.0,0,0,0.0,0.0,0.0,0.0,0.0,0.0,,0.0,0.0,0.0,0.0,0.0,0.0,0.0,0.0,0.0,0.0,0.0,0.0,0.0,0.0,0.0,144.34854716862537
238,2011-09-24,STORE_2_090,0.0,0,0,0.0,0.0,0.0,0.0,0.0,0.0,,0.0,0.0,0.0,0.0,0.0,0.0,0.0,0.0,0.0,0.0,0.0,0.0,0.0,0.0,0.0,145.25637568124694
239,2011-09-25,STORE_2_090,420.0,0,0,0.19046020667304991,0.19046020667304991,0.0,0.0,0.0,0.0,,0.0,0.0,9.229629629629605,420.0,4.666666666666667,0.0,0.0,420.0,0.0,0.0,0.0,0.0,0.0,44.271887242357344,420.0,146.16420419387032
240,2011-09-26,STORE_2_090,280.0,0,0,-0.05470043620139953,-0.24516064287444944,0.19046020667304991,0.0,0.0,0.0,,0.0,0.0,15.209876543209925,420.0,7.777777777777778,0.0,0.0,420.0,0.0,0.0,0.0,0.0,0.0,52.93153894636895,700.0,147.07203270649188
241,2011-09-27,STORE_2_090,273.0,0,0,-0.0029245530173166168,0.05177588318408291,0.1357597704716504,0.0,0.0,0.0,,0.0,0.0,20.9014814814815,420.0,10.811111111111112,0.0,0.0,420.0,0.0,0.0,0.0,0.0,0.0,59.85091861806044,973.0,147.97986121911526
242,2011-09-28,STORE_2_090,254.00000000000003,0,0,-0.00803880248646964,-0.005114249469153023,0.13283521745433377,0.0,0.0,0.0,,0.0,0.0,26.05481481481486,420.0,13.633333333333333,0.0,0.0,420.0,0.0,0.0,0.0,0.0,0.0,65.09430496845206,1227.0,148.88768973173683
243,2011-09-29,STORE_2_090,240.0,0,0,-0.006020019902326493,0.0020187825841431473,0.12479641496786413,0.0,0.0,0.0,,0.0,0.0,30.78888888888896,420.0,16.3,0.0,0.0,420.0,0.0,0.0,0.0,0.0,0.06532701728604537,69.30902141451865,1467.0,149.7955182443584
244,2011-09-30,STORE_2_090,336.0,0,0,0.03969675940307246,0.045716779305398955,0.11877639506553764,0.0,0.0,0.0,,0.0,0.0,37.39555555555553,420.0,20.033333333333335,0.0,0.0,420.0,0.0,0.0,0.0,0.0,0.1220874060118172,77.03938143660574,1803.0,150.70334675698177
245,2011-10-01,STORE_2_090,478.0000000000001,0,0,0.05277408907523928,0.01307732967216682,0.1584731544686101,0.0,0.0,0.0,,0.0,0.0,46.74641975308643,478.0,25.344444444444445,0.0,0.0,478.0,0.0,0.0,0.0,0.0,0.1292177563354224,90.87677310587881,2281.0,151.61117526960334
246,2011-10-02,STORE_2_090,359.0,0,0,-0.04377892457858723,-0.09655301365382651,0.21124724354384938,0.0,0.0,0.0,,0.19046020667304991,0.0,53.45185185185186,478.0,29.333333333333332,0.0,0.0,478.0,0.0,0.0,0.0,0.0,0.1344437216138579,97.39679066304352,2640.0,152.51900378222672
247,2011-10-03,STORE_2_090,234.0,0,0,-0.051297698608486916,-0.007518774029899686,0.16746831896526215,0.0,0.0,0.0,,0.1357597704716504,0.0,57.48000000000005,478.0,31.933333333333334,0.0,0.0,478.0,0.0,0.0,0.0,0.011617062035678515,0.1344437216138579,99.70099117084787,2874.0,153.42683229484828
248,2011-10-04,STORE_2_090,180.00000000000003,0,0,-0.024183465574327337,0.02711423303415958,0.11617062035677524,0.0,0.0,0.0,,0.13283521745433377,0.0,60.32592592592597,478.0,33.93333333333333,0.0,0.0,478.0,0.0,0.0,0.0,0.09440550133988083,0.1344437216138579,100.8519662729666,3054.0,154.33466080746985
249,2011-10-05,STORE_2_090,170.0,0,0,-0.004630048990828431,0.019553416583498906,0.0919871547824479,0.0,0.0,0.0,,0.12479641496786413,0.0,62.887901234567785,478.0,35.82222222222222,0.0,0.0,478.0,0.0,0.0,0.0,0.09440550133988083,0.1344437216138579,101.79684304256796,3224.0,155.24248932009323
250,2011-10-06,STORE_2_090,249.00000000000003,0,0,0.03529886875728039,0.03992891774810882,0.08735710579161947,0.0,0.0,0.0,,0.11877639506553764,0.0,66.88740740740721,478.0,38.58888888888889,0.0,0.0,478.0,0.0,0.0,0.0,0.1164311978276515,0.1344437216138579,104.16839159620481,3473.0,156.1503178327148
251,2011-10-07,STORE_2_090,254.00000000000003,0,0,0.0021404404189642734,-0.033158428338316115,0.12265597454889986,0.0,0.0,0.0,,0.1584731544686101,0.0,70.85901234567923,478.0,41.41111111111111,0.0,0.0,478.0,0.0,0.0,0.0,0.11916435301387389,0.1344437216138579,106.5252931345569,3727.0,157.05814634533817
252,2011-10-08,STORE_2_090,460.0,0,0,0.08010550411354088,0.0779650636945766,0.12479641496786413,0.0,0.0,0.0,,0.21124724354384938,0.0,78.57086419753064,478.0,46.522222222222226,0.0,0.0,478.0,0.0,0.0,0.0,0.1228700185907963,0.14825213166997817,115.19843434658817,4187.0,157.96597485795974
253,2011-10-09,STORE_2_090,170.0,0,0,-0.11754481328978554,-0.19765031740332642,0.204901919081405,0.19046020667304991,0.0,0.0,,0.16746831896526215,0.0,80.68518518518546,478.0,48.41111111111111,0.0,0.0,478.0,0.0,0.0,0.0,0.1228700185907963,0.14825213166997817,115.8191048303147,4357.0,158.8738033705813
254,2011-10-10,STORE_2_090,229.00000000000003,1,0,0.02663002840767871,0.14417484169746425,0.08735710579161947,0.1357597704716504,0.0,0.0,,0.11617062035677524,0.0,83.79358024691338,478.0,50.955555555555556,0.0,0.0,478.0,0.0,0.0,0.0,0.1228700185907963,0.14825213166997817,117.25022805958581,4586.0,159.78163188320468
255,2011-10-11,STORE_2_090,225.0,0,0,-0.001754727566550554,-0.028384755974229264,0.11398713419929818,0.13283521745433377,0.0,0.0,,0.0919871547824479,0.0,86.71679012345659,478.0,53.455555555555556,0.0,0.0,478.0,0.0,0.0,0.0,0.1228700185907963,0.14825213166997817,118.54313784689032,4811.0,160.68946039582625
256,2011-10-12,STORE_2_090,151.99999999999997,0,0,-0.033335850521179836,-0.03158112295462928,0.11223240663274762,0.12479641496786413,0.0,0.0,,0.08735710579161947,0.0,88.23111111111089,478.0,55.144444444444446,0.0,0.0,478.0,0.0,0.0,0.0,0.1228700185907963,0.14825213166997817,118.8553611702116,4963.0,161.59728890844963
257,2011-10-13,STORE_2_090,248.0,0,0,0.04333006152455281,0.07666591204573264,0.07889655611156779,0.11877639506553764,0.0,0.0,,0.12265597454889986,0.0,91.35333333333304,478.0,57.9,0.0,0.0,478.0,0.0,0.0,0.0,0.1228700185907963,0.14825213166997817,120.42696047392667,5211.0,162.5051174210712
258,2011-10-14,STORE_2_090,245.00000000000006,0,0,-0.0012906234814945572,-0.044620685006047364,0.1222266176361206,0.1584731544686101,0.0,0.0,,0.12479641496786413,0.0,94.30123456790126,478.0,60.62222222222222,0.0,0.0,478.0,0.0,0.0,0.0,0.1228700185907963,0.14825213166997817,121.86394861703087,5456.0,163.41294593369457
259,2011-10-15,STORE_2_090,303.0,0,0,0.024296672581046938,0.025587296062541495,0.12093599415462604,0.21124724354384938,0.0,0.0,,0.204901919081405,0.0,98.1162962962964,478.0,63.98888888888889,0.0,0.0,478.0,0.0,0.0,0.0,0.12479641496786413,0.15251493498878835,124.33079241512065,5759.0,164.32077444631614
260,2011-10-16,STORE_2_090,336.0,0,0,0.013240487732937123,-0.011056184848109815,0.14523266673567298,0.16746831896526215,0.0,0.0,,0.08735710579161947,0.0,102.33580246913611,478.0,67.72222222222223,0.0,0.0,478.0,0.0,0.0,0.0,0.12560029521651117,0.1584731544686101,127.39463835910291,6095.0,165.2286029589377
261,2011-10-17,STORE_2_090,206.00000000000003,0,0,-0.05467391537272524,-0.06791440310566237,0.1584731544686101,0.11617062035677524,0.0,0.0,,0.11398713419929818,0.0,104.23876543209866,478.0,70.0111111111111,0.0,0.0,478.0,0.0,0.0,0.05917241708367584,0.12560029521651117,0.1584731544686101,128.01329762777794,6301.0,166.13643147156108
262,2011-10-18,STORE_2_090,266.0,0,0,0.026091597711667594,0.08076551308439284,0.10379923909588486,0.0919871547824479,0.0,0.0,,0.11223240663274762,0.0,107.01777777777767,478.0,72.96666666666667,0.0,0.0,478.0,0.0,0.0,0.08524196837160655,0.1301852748722306,0.1584731544686101,129.4414491731491,6567.0,167.04425998418264
263,2011-10-19,STORE_2_090,219.0,0,0,-0.020303886975483243,-0.04639548468715084,0.12989083680755245,0.08735710579161947,0.0,0.0,,0.07889655611156779,0.0,108.91111111111084,478.0,75.4,0.0,0.0,478.0,0.0,0.0,0.08735710579161947,0.1301852748722306,0.1584731544686101,130.11108477767146,6786.0,167.95208849680603
264,2011-10-20,STORE_2_090,249.00000000000003,0,0,0.013069024716830649,0.03337291169231389,0.10958694983206921,0.12265597454889986,0.0,0.0,,0.1222266176361206,0.0,111.17037037037034,478.0,78.16666666666667,0.0,0.0,478.0,0.0,0.0,0.0908296425347408,0.1301852748722306,0.1584731544686101,131.13311274589248,7035.0,168.8599170094276
265,2011-10-21,STORE_2_090,267.0,0,0,0.0076567122013918715,-0.0054123125154387774,0.12265597454889986,0.12479641496786413,0.0,0.0,,0.12093599415462604,0.0,113.5866666666666,478.0,81.13333333333334,0.0,0.0,478.0,0.0,0.0,0.10084621801752562,0.13056493982069595,0.1584731544686101,132.35933385457562,7302.0,169.76774552204915
266,2011-10-22,STORE_2_090,371.0,0,0,0.041775829851715574,0.0341191176503237,0.13031268675029173,0.204901919081405,0.0,0.0,,0.14523266673567298,0.0,117.46320987654317,478.0,85.25555555555556,0.0,0.0,478.0,0.0,0.0,0.10814002214802312,0.13312767275606546,0.1634204949417687,135.54306592960765,7673.0,170.67557403467254
267,2011-10-23,STORE_2_090,262.9999999999999,0,0,-0.04346569378109033,-0.0852415236328059,0.1720885166020073,0.08735710579161947,0.0,0.0,,0.1584731544686101,0.0,119.52987654320964,478.0,88.17777777777778,0.0,0.0,478.0,0.0,0.0,0.11157104243257802,0.13312767275606546,0.1634204949417687,136.51592307651578,7936.0,171.5834025472941
268,2011-10-24,STORE_2_090,189.0,0,0,-0.0325104123913231,0.01095528138976723,0.12862282282091697,0.11398713419929818,0.0,0.0,,0.10379923909588486,0.0,120.37037037037014,478.0,90.27777777777777,0.0,0.0,478.0,0.0,0.0,0.11157104243257802,0.13312767275606546,0.1634204949417687,136.59791136128234,8125.0,172.49123105991748
269,2011-10-25,STORE_2_090,218.0,0,0,0.01303205899547416,0.04554247138679726,0.09611241042959387,0.11223240663274762,0.0,0.19046020667304991,,0.12989083680755245,0.0,121.5400000000002,478.0,92.7,0.0,0.0,478.0,0.0,0.0,0.11157104243257802,0.13312767275606546,0.1634204949417687,136.91155596699423,8343.0,173.39905957253904
270,2011-10-26,STORE_2_090,163.0,0,0,-0.025058020698014175,-0.038090079693488335,0.10914446942506803,0.07889655611156779,0.0,0.1357597704716504,,0.10958694983206921,0.0,121.81432098765426,478.0,94.5111111111111,0.0,0.0,478.0,0.0,0.0,0.11157104243257802,0.13312767275606546,0.1634204949417687,136.74952453089423,8506.0,174.3068880851606
271,2011-10-27,STORE_2_090,211.99999999999994,0,0,0.02239362901660248,0.047451649714616656,0.08408644872705386,0.1222266176361206,0.0,0.13283521745433377,,0.12265597454889986,0.0,122.69777777777783,478.0,96.86666666666666,0.0,0.0,478.0,0.0,0.0,0.11157104243257802,0.13312767275606546,0.1634204949417687,136.92901466153816,8718.0,175.214716597784
272,2011-10-28,STORE_2_090,249.99999999999994,0,0,0.016604829661743606,-0.005788799354858876,0.10648007774365634,0.12093599415462604,0.0,0.12479641496786413,,0.13031268675029173,0.0,124.0019753086418,478.0,99.64444444444445,0.0,0.0,478.0,0.0,0.0,0.11354845230766054,0.13312767275606546,0.1634204949417687,137.4765607078893,8968.0,176.12254511040555
273,2011-10-29,STORE_2_090,301.99999999999994,0,0,0.021740162414476086,0.00513533275273248,0.12308490740539994,0.14523266673567298,0.0,0.11877639506553764,,0.1720885166020073,0.0,125.88888888888889,478.0,103.0,0.0,0.0,478.0,0.0,0.0,0.11562474881740598,0.13666630040647304,0.1634204949417687,138.69731006845345,9270.0,177.03037362302894
274,2011-10-30,STORE_2_090,299.0,0,0,-0.0012250910293062356,-0.02296525344378232,0.14482506981987603,0.1584731544686101,0.0,0.1584731544686101,,0.12862282282091697,0.0,127.58666666666691,478.0,106.32222222222222,0.0,0.0,478.0,0.0,0.0,0.11812495138834704,0.14372248789350042,0.1634204949417687,139.77918603618627,9569.0,177.9382021356505
275,2011-10-31,STORE_2_090,187.0,0,0,-0.0484009114566025,-0.04717582042729626,0.1435999787905698,0.10379923909588486,0.0,0.21124724354384938,,0.09611241042959387,0.0,127.6711111111109,478.0,108.4,0.0,0.0,478.0,0.0,0.0,0.11812495138834704,0.14372248789350042,0.1634204949417687,139.57067397454202,9756.0,178.84603064827388
276,2011-11-01,STORE_2_090,187.0,0,0,0.0,0.0484009114566025,0.0951990673339673,0.12989083680755245,0.0,0.16746831896526215,,0.10914446942506803,0.0,127.66320987654338,478.0,110.47777777777777,0.0,0.0,478.0,0.0,0.0,0.11812495138834704,0.14372248789350042,0.1634204949417687,139.33052028413107,9943.0,179.75385916089544
277,2011-11-02,STORE_2_090,168.0,0,0,-0.008773924307505149,-0.008773924307505149,0.0951990673339673,0.10958694983206921,0.0,0.11617062035677524,,0.08408644872705386,0.0,127.32370370370393,478.0,112.34444444444445,0.0,0.0,478.0,0.0,0.0,0.11812495138834704,0.14372248789350042,0.1634204949417687,138.95866017795356,10111.0,180.661687673517
278,2011-11-03,STORE_2_090,289.0,0,0,0.05306605883637763,0.06183998314388278,0.08642514302646215,0.12265597454889986,0.0,0.0919871547824479,,0.10648007774365634,0.0,128.39506172839478,478.0,115.55555555555556,0.0,0.0,478.0,0.0,0.0,0.12039609438235394,0.14372248789350042,0.1634204949417687,139.6707292500416,10400.0,181.5695161861404
279,2011-11-04,STORE_2_090,188.0,0,0,-0.04383522288030632,-0.09690128171668395,0.13949120186283978,0.13031268675029173,0.0,0.08735710579161947,,0.12308490740539994,0.0,128.10172839506157,478.0,117.64444444444445,0.0,0.0,478.0,0.0,0.0,0.12039609438235394,0.14372248789350042,0.1634204949417687,139.32851092849978,10588.0,182.47734469876195
280,2011-11-05,STORE_2_090,329.0,0,0,0.06004212143130451,0.10387734431161083,0.09565597898253346,0.1720885166020073,0.0,0.12265597454889986,,0.14482506981987603,0.0,129.38666666666643,478.0,121.3,0.0,0.0,478.0,0.0,0.0,0.12190396176574696,0.14486582951145574,0.1634204949417687,140.5180983185303,10917.0,183.38517321138534
281,2011-11-06,STORE_2_090,224.0,0,0,-0.0439054856990817,-0.10394760713038621,0.15569810041383797,0.12862282282091697,0.0,0.12479641496786413,,0.1435999787905698,0.0,129.29061728395052,478.0,123.78888888888889,0.0,0.0,478.0,0.0,0.0,0.12190396176574696,0.14486582951145574,0.1634204949417687,140.32910710940305,11141.0,184.2930017240069
282,2011-11-07,STORE_2_090,182.99999999999997,0,0,-0.018426016267843986,0.025479469431237717,0.11179261471475627,0.09611241042959387,0.0,0.204901919081405,,0.0951990673339673,0.0,128.61827160493849,478.0,125.82222222222222,0.0,0.0,478.0,0.0,0.0,0.12190396176574696,0.14486582951145574,0.1634204949417687,139.84024414540556,11324.0,185.20083023662846
283,2011-11-08,STORE_2_090,175.0,0,0,-0.003688298022728298,0.014737718245115689,0.09336659844691228,0.10914446942506803,0.0,0.08735710579161947,,0.0951990673339673,0.0,127.76666666666655,478.0,127.76666666666667,76.0,0.0,478.0,0.0,0.039448278055783895,0.12190396176574696,0.14486582951145574,0.1634204949417687,139.28662953973497,11499.0,186.10865874925184
284,2011-11-09,STORE_2_090,160.99999999999997,0,0,-0.006530867158957773,-0.0028425691362294753,0.08967830042418398,0.08408644872705386,0.0,0.11398713419929818,,0.08642514302646215,0.0,126.67654320987631,478.0,129.55555555555554,156.5,0.0,478.0,0.0,0.08102199468839699,0.12190396176574696,0.14486582951145574,0.1634204949417687,138.65972504953066,11660.0,187.0164872618734
285,2011-11-10,STORE_2_090,210.0,0,0,0.02244086904824523,0.028971736207203003,0.08314743326522621,0.10648007774365634,0.0,0.11223240663274762,,0.13949120186283978,0.0,126.02716049382713,478.0,131.88888888888889,162.0,0.0,478.0,0.0,0.08361694099614003,0.12190396176574696,0.14486582951145574,0.1634204949417687,138.22132101460036,11870.0,187.9243157744968
286,2011-11-11,STORE_2_090,324.0,1,0,0.04811670381794264,0.02567583476969741,0.10558830231347144,0.12308490740539994,0.0,0.07889655611156779,,0.09565597898253346,0.0,126.45629629629633,478.0,135.48888888888888,165.5,0.0,478.0,0.0,0.085255795876758,0.12254863532070503,0.14607990067524715,0.1634204949417687,138.96497371676028,12194.0,188.83214428711835
287,2011-11-12,STORE_2_090,413.0,0,0,0.03417777765382515,-0.013938926164117488,0.15370500613141408,0.14482506981987603,0.0,0.1222266176361206,,0.15569810041383797,0.0,127.62641975308662,478.0,140.07777777777778,169.0,0.0,478.0,0.0,0.08689112440904082,0.12265597454889986,0.15390431555965647,0.17000942766547197,141.24098680820947,12607.0,189.73997279973992
288,2011-11-13,STORE_2_090,347.0,0,0,-0.025084342953462263,-0.059262120607287416,0.18788278378523923,0.1435999787905698,0.0,0.12093599415462604,,0.11179261471475627,0.0,127.94074074074051,478.0,143.93333333333334,170.0,0.0,478.0,0.0,0.08735710579161947,0.12297767419127492,0.15597560581931522,0.17000942766547197,142.10771353867804,12954.0,190.6478013123633
289,2011-11-14,STORE_2_090,280.0,0,0,-0.027038670360126582,-0.001954327406664319,0.16279844083177697,0.0951990673339673,0.0,0.14523266673567298,,0.09336659844691228,0.0,127.4385185185184,478.0,147.04444444444445,172.5,0.0,478.0,0.0,0.08851770310790172,0.12436853807724808,0.15597560581931522,0.17000942766547197,141.98614516292497,13234.0,191.55562982498486
290,2011-11-15,STORE_2_090,186.0,0,0,-0.04101809599923818,-0.0139794256391116,0.1357597704716504,0.0951990673339673,0.0,0.1584731544686101,,0.08967830042418398,0.0,125.91604938271608,478.0,149.11111111111111,177.5,0.0,478.0,0.0,0.09083272760331594,0.12436853807724808,0.15597560581931522,0.17000942766547197,141.1731301776114,13420.0,192.46345833760824
291,2011-11-16,STORE_2_090,144.0,0,0,-0.01965892536719742,0.021359170632040764,0.0947416744724122,0.08642514302646215,0.0,0.10379923909588486,,0.08314743326522621,0.0,124.06716049382722,478.0,150.7111111111111,177.5,0.0,478.0,0.0,0.09083272760331594,0.12436853807724808,0.15597560581931522,0.17000942766547197,140.2773532335575,13564.0,193.3712868502298
292,2011-11-17,STORE_2_090,229.00000000000003,0,0,0.038904385094083394,0.05856331046128081,0.07508274910521479,0.13949120186283978,0.0,0.12989083680755245,,0.10558830231347144,0.0,122.83802469135804,478.0,153.25555555555556,181.5,0.0,478.0,0.0,0.09267687661468009,0.12436853807724808,0.15597560581931522,0.17000942766547197,139.58812295432816,13793.0,194.27911536285137
293,2011-11-18,STORE_2_090,377.0,0,0,0.06039317918229395,0.021488794088210555,0.11398713419929818,0.09565597898253346,0.0,0.10958694983206921,,0.15370500613141408,0.0,122.87654320987674,478.0,157.44444444444446,184.5,0.0,478.0,0.0,0.09405413645966224,0.12479641496786413,0.1584731544686101,0.17334900483077895,140.59049715445684,14170.0,195.18694387547475
294,2011-11-19,STORE_2_090,495.0,0,0,0.042775789772777545,-0.017617389409516404,0.17438031338159213,0.15569810041383797,0.0,0.12265597454889986,,0.18788278378523923,0.0,123.82098765432119,495.0,162.94444444444446,186.5,0.0,495.0,0.0,0.09497037090318974,0.12766622085765375,0.15890568310492684,0.181806672103598,144.00291516330685,14665.0,196.09477238809632
295,2011-11-20,STORE_2_090,132.0,0,0,-0.14785760579333818,-0.19063339556611572,0.21715610315436967,0.11179261471475627,0.0,0.13031268675029173,,0.16279844083177697,0.0,122.12493827160488,495.0,164.4111111111111,186.5,0.0,495.0,0.0,0.09497037090318974,0.12766622085765375,0.15890568310492684,0.181806672103598,142.9933521236582,14797.0,197.0026009007197
296,2011-11-21,STORE_2_090,248.0,0,0,0.0529281202750891,0.20078572606842726,0.0692984973610315,0.09336659844691228,0.0,0.1720885166020073,,0.1357597704716504,0.0,120.73703703703698,495.0,167.16666666666666,187.0,0.0,495.0,0.0,0.0951990673339673,0.12766622085765375,0.15890568310492684,0.181806672103598,142.17667834482756,15045.0,197.91042941334126
297,2011-11-22,STORE_2_090,315.0,0,0,0.027867605259718833,-0.025060515015370266,0.1222266176361206,0.08967830042418398,0.0,0.12862282282091697,,0.0947416744724122,0.0,119.91111111111105,495.0,170.66666666666666,187.5,0.0,495.0,0.0,0.09542752315825037,0.1295738333108936,0.15890568310492684,0.181806672103598,141.8921888562825,15360.0,198.81825792596464
298,2011-11-23,STORE_2_090,561.0000000000001,0,0,0.08926922425296127,0.06140161899324244,0.15009422289583943,0.08314743326522621,0.0,0.09611241042959387,,0.07508274910521479,0.0,121.42444444444435,561.0,176.9,188.5,0.0,561.0,0.0,0.09588419470606366,0.1302072242646069,0.16326542864512553,0.1893003663735351,146.55627825729354,15921.0,199.7260864385862
299,2011-11-24,STORE_2_090,166.0,1,0,-0.15387227111003943,-0.2431414953630007,0.2393634471488007,0.10558830231347144,0.0,0.10914446942506803,,0.11398713419929818,0.0,119.33407407407407,561.0,178.74444444444444,188.5,0.0,561.0,0.0,0.09588419470606366,0.1302072242646069,0.16326542864512553,0.1893003663735351,145.34450056742256,16087.0,200.63391495120777
300,2011-11-25,STORE_2_090,134.0,0,0,-0.015223270949549686,0.13864900016048975,0.08549117603876129,0.15370500613141408,0.0,0.08408644872705386,,0.17438031338159213,0.0,117.65185185185194,561.0,180.23333333333332,188.5,0.0,561.0,0.0,0.09588419470606366,0.1302072242646069,0.16326542864512553,0.1893003663735351,144.17452361088954,16221.0,201.54174346383115
301,2011-11-26,STORE_2_090,204.0,0,0,0.03263403103890959,0.04785730198845928,0.0702679050892116,0.18788278378523923,0.0,0.10648007774365634,,0.21715610315436967,0.0,115.61111111111111,561.0,182.5,196.5,0.0,561.0,0.0,0.09950717327885752,0.1302072242646069,0.16326542864512553,0.1893003663735351,142.9071553708203,16425.0,202.44957197645272
302,2011-11-27,STORE_2_090,237.0,0,0,0.014573525916998314,-0.018060505121911277,0.1029019361281212,0.16279844083177697,0.0,0.12308490740539994,,0.0692984973610315,0.0,113.82666666666668,561.0,185.13333333333333,205.0,0.0,561.0,0.0,0.10335058761200303,0.1302072242646069,0.16326542864512553,0.1893003663735351,141.6848219254445,16662.0,203.3574004890761
303,2011-11-28,STORE_2_090,123.99999999999997,0,0,-0.052076380168273595,-0.06664990608527191,0.11747546204511951,0.1357597704716504,0.0,0.14482506981987603,,0.1222266176361206,0.0,112.27654320987654,561.0,186.51111111111112,205.0,0.0,561.0,0.0,0.10335058761200303,0.1302072242646069,0.16326542864512553,0.1893003663735351,140.46193810043823,16786.0,204.26522900169766
304,2011-11-29,STORE_2_090,163.0,0,0,0.018687366850207943,0.07076374701848154,0.06539908187684591,0.0947416744724122,0.0,0.1435999787905698,,0.15009422289583943,0.0,110.3301234567902,561.0,188.32222222222222,205.0,0.0,561.0,0.0,0.10335058761200303,0.1302072242646069,0.16326542864512553,0.1893003663735351,139.07405090618343,16949.0,205.17305751431923
305,2011-11-30,STORE_2_090,185.0,0,0,0.010197350656131934,-0.008490016194076008,0.08408644872705386,0.07508274910521479,0.0,0.0951990673339673,,0.2393634471488007,0.0,108.21382716049382,561.0,190.37777777777777,205.0,0.0,561.0,0.01634977046921148,0.10335058761200303,0.1302072242646069,0.16326542864512553,0.1893003663735351,137.61888243985638,17134.0,206.0808860269426
306,2011-12-01,STORE_2_090,246.0,0,0,0.027082828898844252,0.016885478242712318,0.09428379938318579,0.11398713419929818,0.0,0.0951990673339673,,0.08549117603876129,0.0,106.59506172839505,561.0,193.11111111111111,208.0,0.0,561.0,0.06637393574789231,0.10469377070467814,0.1302072242646069,0.16326542864512553,0.1893003663735351,136.23116873839925,17380.0,206.98871453956417
307,2011-12-02,STORE_2_090,214.0,0,0,-0.013996602518137446,-0.0410794314169817,0.12136662828203004,0.17438031338159213,0.0,0.08642514302646215,,0.0702679050892116,0.0,104.52296296296298,561.0,195.48888888888888,211.0,0.0,561.0,0.06954084929307652,0.10603419002856389,0.1302072242646069,0.16326542864512553,0.1893003663735351,134.68150064774707,17594.0,207.89654305218755
308,2011-12-03,STORE_2_090,282.0,0,0,0.029221726728299757,0.043218329246437204,0.1073700257638926,0.21715610315436967,0.0,0.13949120186283978,,0.1029019361281212,0.0,103.03358024691357,561.0,198.62222222222223,213.0,0.0,561.0,0.0714716160932124,0.10692505175377447,0.13220458477832325,0.16326542864512553,0.1893003663735351,133.35620777567732,17876.0,208.80437156480912
309,2011-12-04,STORE_2_090,377.0,0,0,0.037788560889399775,0.008566834161100018,0.13659175249219235,0.0692984973610315,0.0,0.09565597898253346,,0.11747546204511951,0.0,102.34320987654314,561.0,202.8111111111111,216.0,0.0,561.0,0.07603620085680304,0.10825724759448031,0.13502863221732123,0.1679303387289367,0.1893003663735351,132.9675887216015,18253.0,209.71220007743068
310,2011-12-05,STORE_2_090,343.0,0,0,-0.013149724367793159,-0.05093828525719293,0.17438031338159213,0.1222266176361206,0.0,0.15569810041383797,,0.06539908187684591,0.0,101.21135802469135,561.0,206.62222222222223,218.5,0.0,561.0,0.07995927539998239,0.10936570962856862,0.1357597704716504,0.1679303387289367,0.1893003663735351,132.00132598736258,18596.0,210.62002859005406
311,2011-12-06,STORE_2_090,260.99999999999994,0,0,-0.033455170328867495,-0.020305445961074337,0.16123058901379897,0.15009422289583943,0.0,0.11179261471475627,,0.08408644872705386,0.0,99.1975308641975,561.0,209.5222222222222,221.5,0.0,561.0,0.08338218713068313,0.11068978227341274,0.1357597704716504,0.1679303387289367,0.1893003663735351,130.26655712468414,18857.0,211.52785710267563
312,2011-12-07,STORE_2_090,230.0,0,0,-0.013350708144430776,0.02010446218443672,0.12777541868493147,0.2393634471488007,0.0,0.09336659844691228,,0.09428379938318579,0.0,96.80419753086422,561.0,212.07777777777778,224.5,0.0,561.0,0.08408644872705386,0.11201251067375195,0.1357597704716504,0.1679303387289367,0.1893003663735351,128.35197636851123,19087.0,212.435685615299
313,2011-12-08,STORE_2_090,206.00000000000003,0,0,-0.010625471444615842,0.002725236699814934,0.1144247105405007,0.08549117603876129,0.0,0.08967830042418398,,0.12136662828203004,0.0,94.32,561.0,214.36666666666667,224.5,0.0,561.0,0.08443763055498071,0.11201251067375195,0.1357597704716504,0.1679303387289367,0.1893003663735351,126.34867486621867,19293.0,213.34351412792057
314,2011-12-09,STORE_2_090,304.0,0,0,0.041840642373704565,0.052466113818320406,0.10379923909588486,0.0702679050892116,0.0,0.08314743326522621,,0.1073700257638926,0.0,92.63382716049382,561.0,217.74444444444444,227.0,0.0,561.0,0.0857246677856865,0.11310977041602291,0.13638375698705685,0.1679303387289367,0.1893003663735351,124.60495428236536,19597.0,214.25134264054395
315,2011-12-10,STORE_2_090,381.99999999999994,0,0,0.030641067251436893,-0.011199575122267671,0.14563988146958942,0.1029019361281212,0.0,0.10558830231347144,,0.13659175249219235,0.0,91.72296296296295,561.0,221.98888888888888,229.0,0.0,561.0,0.08665813371775148,0.11398713419929818,0.13876633952017792,0.1723176962799658,0.1893003663735351,123.60661544097887,19979.0,215.15917115316552
316,2011-12-11,STORE_2_090,286.0,0,0,-0.03802999848234892,-0.06867106573378581,0.17628094872102631,0.11747546204511951,0.0,0.15370500613141408,,0.17438031338159213,0.0,89.71481481481482,561.0,225.16666666666666,229.5,0.0,561.0,0.08735710579161947,0.11420592236989943,0.13918113895679918,0.1723176962799658,0.1893003663735351,121.49372296172803,20265.0,216.06699966578708
317,2011-12-12,STORE_2_090,246.0,0,0,-0.016884321956647352,0.021145676525701568,0.1382509502386774,0.06539908187684591,0.0,0.18788278378523923,,0.16123058901379897,0.0,87.26222222222222,561.0,227.9,232.0,0.0,561.0,0.0879374044497606,0.11529766544863797,0.13918113895679918,0.1723176962799658,0.1893003663735351,119.11499966867066,20511.0,216.97482817841046
318,2011-12-13,STORE_2_090,260.0,0,0,0.0059844674752496385,0.02286878943189699,0.12136662828203004,0.08408644872705386,0.0,0.16279844083177697,,0.12777541868493147,0.0,84.92691358024692,561.0,230.7888888888889,235.5,0.0,561.0,0.09025551401374995,0.11682304120094737,0.13918113895679918,0.1723176962799658,0.1893003663735351,116.65309123799837,20771.0,217.88265669103203
319,2011-12-14,STORE_2_090,198.99999999999997,0,0,-0.0267005616743472,-0.03268502914959684,0.12735109575727968,0.09428379938318579,0.0,0.1357597704716504,,0.1144247105405007,0.0,82.66666666666667,561.0,233.0,235.5,0.0,561.0,0.092332015698564,0.11682304120094737,0.13918113895679918,0.1723176962799658,0.1893003663735351,114.08719314826462,20970.0,218.7904852036554
320,2011-12-15,STORE_2_090,304.0,0,0,0.04498934738665694,0.07168990906100414,0.10065053408293248,0.12136662828203004,0.0,0.0947416744724122,,0.10379923909588486,0.0,80.76938271604938,561.0,236.37777777777777,238.5,0.0,561.0,0.09359589868098066,0.11812592855532858,0.14257278455863728,0.1723176962799658,0.1893003663735351,111.58405687111053,21274.0,219.69831371627697
321,2011-12-16,STORE_2_090,377.0,0,0,0.028740431912002706,-0.016248915474654235,0.14563988146958942,0.1073700257638926,0.0,0.07508274910521479,,0.14563988146958942,0.0,79.6111111111111,561.0,240.56666666666666,242.5,0.0,561.0,0.09439826815549239,0.11985619461008185,0.14451879706254947,0.17438031338159213,0.1893003663735351,109.67060487219767,21651.0,220.60614222889853
322,2011-12-17,STORE_2_090,341.0,0,0,-0.01393577794329251,-0.042676209855295216,0.17438031338159213,0.13659175249219235,0.0,0.11398713419929818,,0.17628094872102631,0.0,77.96987654320988,561.0,244.35555555555555,245.5,0.0,561.0,0.09485602268780098,0.12115131121832803,0.14513076750672374,0.17438031338159213,0.1893003663735351,107.12707052118964,21992.0,221.51397074152192
323,2011-12-18,STORE_2_090,289.0,0,0,-0.020953333575459837,-0.007017555632167327,0.16044453543829962,0.17438031338159213,0.0,0.17438031338159213,,0.1382509502386774,0.0,75.73481481481481,561.0,247.56666666666666,246.0,0.0,561.0,0.0951990673339673,0.12136662828203004,0.14513076750672374,0.17438031338159213,0.1893003663735351,104.00616338694505,22281.0,222.42179925414348
324,2011-12-19,STORE_2_090,307.00000000000006,0,0,0.007368037867489408,0.028321371442949245,0.13949120186283978,0.16123058901379897,0.0,0.21715610315436967,,0.12136662828203004,0.0,73.88641975308643,561.0,250.9777777777778,247.0,0.0,561.0,0.09531329524610883,0.12179662295907531,0.1455380777861103,0.17438031338159213,0.1893003663735351,100.77976631436007,22588.0,223.32962776676686
325,2011-12-20,STORE_2_090,300.0,0,0,-0.0028505131619128987,-0.010218551029402306,0.1468592397303292,0.12777541868493147,0.0,0.0692984973610315,,0.12735109575727968,0.0,71.9525925925926,561.0,254.3111111111111,248.0,0.0,561.0,0.09577008684429857,0.1222266176361206,0.1455380777861103,0.17438031338159213,0.1893003663735351,97.28605388055595,22888.0,224.23745627938843
326,2011-12-21,STORE_2_090,264.0,0,0,-0.014962820926018583,-0.012112307764105684,0.1440087265684163,0.1144247105405007,0.0,0.1222266176361206,,0.10065053408293248,0.0,69.56049382716051,561.0,257.24444444444447,248.5,0.0,561.0,0.09724694134292852,0.12244129609251023,0.1455380777861103,0.17438031338159213,0.1893003663735351,93.43582922130116,23152.0,225.14528479201
327,2011-12-22,STORE_2_090,289.0,0,0,0.010445296220442074,0.025408117146460657,0.1290459056423977,0.10379923909588486,0.0,0.15009422289583943,,0.14563988146958942,0.0,67.35061728395061,561.0,260.4555555555556,249.0,0.0,561.0,0.10121338459422966,0.12265597454889986,0.1455380777861103,0.17438031338159213,0.1893003663735351,89.37349494118766,23441.0,226.05311330463337
328,2011-12-23,STORE_2_090,633.0000000000001,0,0,0.12286967846942207,0.11242438224897999,0.13949120186283978,0.14563988146958942,0.0,0.2393634471488007,,0.17438031338159213,0.0,69.58666666666669,633.0,267.4888888888889,249.5,124.0,509.0,0.1031262618700621,0.1228704409771499,0.14563988146958942,0.17438031338159213,0.19840314849764518,93.46022941282367,24074.0,226.96094181725493
329,2011-12-24,STORE_2_090,619.0,0,0,-0.0043773752489627005,-0.12724705371838477,0.26236088033226185,0.17628094872102631,0.0,0.08549117603876129,,0.16044453543829962,0.19046020667304991,72.23999999999997,633.0,269.7,249.5,124.0,509.0,0.1031262618700621,0.1228704409771499,0.14563988146958942,0.17438031338159213,0.2083918475357494,99.28162757043069,24273.0,227.86877032987832
330,2011-12-25,STORE_2_090,0.0,1,1,-0.25798350508329915,-0.25360612983433645,0.25798350508329915,0.1382509502386774,0.0,0.0702679050892116,,0.13949120186283978,0.1357597704716504,74.43999999999993,633.0,266.5888888888889,249.0,0.0,633.0,0.10121338459422966,0.12265597454889986,0.14563988146958942,0.17438031338159213,0.2083918475357494,103.26249897896513,23993.0,40.714285714318976
331,2011-12-26,STORE_2_090,233.00000000000006,1,1,0.11573480046881827,0.37371830555211744,0.0,0.12136662828203004,0.0,0.1029019361281212,,0.1468592397303292,0.13283521745433377,74.64320987654317,633.0,266.14444444444445,248.5,0.0,633.0,0.10121338459422966,0.12244129609251023,0.14563988146958942,0.17438031338159213,0.2083918475357494,103.3206594861559,23953.0,133.02857142873108
332,2011-12-27,STORE_2_090,181.0,0,1,-0.023287344125629786,-0.13902214459444806,0.11573480046881827,0.12735109575727968,0.0,0.11747546204511951,,0.1440087265684163,0.12479641496786413,75.28888888888885,633.0,265.3333333333333,248.0,0.0,633.0,0.09724694134292852,0.1222266176361206,0.14563988146958942,0.17438031338159213,0.2083918475357494,103.70290321312837,23880.0,225.34285714291036
333,2011-12-28,STORE_2_090,352.0,0,1,0.07230287308611053,0.09559021721174031,0.09244745634318849,0.10065053408293248,0.0,0.06539908187684591,,0.1290459056423977,0.11877639506553764,76.20444444444439,633.0,266.5777777777778,248.5,0.0,633.0,0.09724694134292852,0.12244129609251023,0.14655440016514426,0.17438031338159213,0.2083918475357494,104.06685165307813,23992.0,317.65714285732247
334,2011-12-29,STORE_2_090,278.0,0,1,-0.029824137873643325,-0.10212701095975385,0.16475032942929901,0.14563988146958942,0.0,0.08408644872705386,,0.13949120186283978,0.1584731544686101,75.4325925925926,633.0,265.93333333333334,248.5,0.0,633.0,0.09724694134292852,0.12244129609251023,0.14563988146958942,0.17438031338159213,0.2083918475357494,103.81138903984487,23934.0,409.97142857150175
335,2011-12-30,STORE_2_090,584.9999999999999,0,2,0.11223916268876485,0.14206330056240818,0.1349261915556557,0.17438031338159213,0.0,0.09428379938318579,,0.26236088033226185,0.21124724354384938,76.8604938271605,633.0,267.1222222222222,248.5,0.0,633.0,0.09724694134292852,0.12244129609251023,0.14563988146958942,0.17438031338159213,0.21164172032153555,106.8359897885884,24041.0,621.7619047616608
336,2011-12-31,STORE_2_090,693.0000000000001,0,2,0.03347148277771739,-0.07876767991104747,0.24716535424442054,0.16044453543829962,0.0,0.12136662828203004,,0.25798350508329915,0.16746831896526215,81.39629629629624,693.0,270.8333333333333,248.5,0.0,693.0,0.09724694134292852,0.12244129609251023,0.14563988146958942,0.17457037691553556,0.22937014235130668,115.51207437252044,24375.0,522.7904761903919
337,2012-01-01,STORE_2_090,246.0,1,2,-0.1592702087401079,-0.19274169151782528,0.28063683702213793,0.13949120186283978,0.0,0.1073700257638926,,0.0,0.11617062035677524,81.2925925925925,693.0,270.96666666666664,248.5,0.0,693.0,0.09724694134292852,0.12244129609251023,0.14563988146958942,0.17457037691553556,0.22937014235130668,115.47600071691534,24387.0,423.8190476188902
338,2012-01-02,STORE_2_090,359.0,1,2,0.04610169068323211,0.20537189942334,0.12136662828203004,0.1468592397303292,0.0,0.13659175249219235,,0.11573480046881827,0.0919871547824479,81.65777777777774,693.0,272.9555555555556,249.0,0.0,693.0,0.10121338459422966,0.12265597454889986,0.14655440016514426,0.17457037691553556,0.22937014235130668,115.43312778947355,24566.0,324.84761904738843
339,2012-01-03,STORE_2_090,193.99999999999997,0,2,-0.06908091914329907,-0.11518260982653118,0.16746831896526215,0.1440087265684163,0.0,0.17438031338159213,,0.09244745634318849,0.08735710579161947,81.44444444444453,693.0,273.22222222222223,249.0,0.0,693.0,0.10121338459422966,0.12265597454889986,0.14655440016514426,0.17457037691553556,0.22937014235130668,115.2201388625297,24590.0,225.87619047611952
340,2012-01-04,STORE_2_090,169.0,0,3,-0.011496025422862197,0.057584893720436875,0.09838739982196308,0.1290459056423977,0.0,0.16123058901379897,,0.16475032942929901,0.12265597454889986,82.15555555555551,693.0,272.3333333333333,248.5,0.0,693.0,0.09895318338720543,0.12244129609251023,0.14655440016514426,0.17457037691553556,0.22937014235130668,115.71662403756723,24510.0,211.2393173923308
341,2012-01-05,STORE_2_090,220.00000000000003,0,3,0.02313760547815427,0.03463363090101647,0.08689137439910088,0.13949120186283978,0.0,0.12777541868493147,,0.1349261915556557,0.12479641496786413,82.45777777777774,693.0,271.9555555555556,248.0,0.0,693.0,0.09895318338720543,0.1222266176361206,0.14655440016514426,0.17457037691553556,0.22937014235130668,115.83259046457017,24476.0,211.16785705074926
342,2012-01-06,STORE_2_090,193.99999999999997,0,3,-0.011641580055292075,-0.03477918553344635,0.11002897987725516,0.26236088033226185,0.0,0.1144247105405007,,0.24716535424442054,0.204901919081405,80.57777777777778,693.0,269.0,247.0,0.0,693.0,0.09838739982196308,0.12179662295907531,0.14563988146958942,0.17438031338159213,0.22937014235130668,114.36488028541204,24210.0,211.0963967091675
343,2012-01-07,STORE_2_090,301.0000000000001,0,3,0.04602969018218585,0.05767127023747792,0.09838739982196308,0.25798350508329915,0.0,0.10379923909588486,,0.28063683702213793,0.08735710579161947,80.1244444444444,693.0,270.4555555555556,248.0,0.0,693.0,0.09895318338720543,0.1222266176361206,0.14563988146958942,0.17438031338159213,0.22937014235130668,113.92350687293305,24341.0,211.02493636758595
344,2012-01-08,STORE_2_090,315.0,0,3,0.005677132891690501,-0.04035255729049535,0.14441709000414893,0.0,0.0,0.14563988146958942,,0.12136662828203004,0.11398713419929818,80.3286419753087,693.0,271.4111111111111,248.5,0.0,693.0,0.09895318338720543,0.12244129609251023,0.14655440016514426,0.17438031338159213,0.22937014235130668,113.93255391435842,24427.0,210.9534760260044
345,2012-01-09,STORE_2_090,196.0,0,3,-0.050800153680056304,-0.056477286571746804,0.15009422289583943,0.11573480046881827,0.0,0.17628094872102631,,0.16746831896526215,0.11223240663274762,80.59358024691352,693.0,271.0888888888889,248.5,0.0,693.0,0.0986140671704181,0.12244129609251023,0.14655440016514426,0.17438031338159213,0.22937014235130668,114.10616429049152,24398.0,210.88201568442287
346,2012-01-10,STORE_2_090,177.0,0,3,-0.008690753570964938,0.042109400109091366,0.09929406921578313,0.09244745634318849,0.0,0.1382509502386774,,0.09838739982196308,0.07889655611156779,80.3651851851852,693.0,271.3666666666667,248.5,0.0,693.0,0.0986140671704181,0.12244129609251023,0.14655440016514426,0.17438031338159213,0.22937014235130668,113.84312585031557,24423.0,210.81055534284133
347,2012-01-11,STORE_2_090,150.99999999999997,0,3,-0.012181657865867251,-0.003490904294902314,0.09060331564481819,0.16475032942929901,0.0,0.12136662828203004,,0.08689137439910088,0.1222266176361206,81.25135802469141,693.0,270.2888888888889,248.5,0.0,693.0,0.09838739982196308,0.12244129609251023,0.14655440016514426,0.17438031338159213,0.22937014235130668,114.52395308498669,24326.0,210.73909500125978
348,2012-01-12,STORE_2_090,169.0,0,3,0.008469716620149947,0.0206513744860172,0.07842165777895094,0.1349261915556557,0.0,0.12735109575727968,,0.11002897987725516,0.12093599415462604,81.94567901234566,693.0,269.44444444444446,248.5,0.0,693.0,0.09668115777768617,0.12244129609251023,0.14655440016514426,0.17438031338159213,0.22937014235130668,114.99175457603211,24250.0,210.66763465967801
349,2012-01-13,STORE_2_090,247.0,0,3,0.0349054614286612,0.026435744808511255,0.08689137439910088,0.24716535424442054,0.0,0.10065053408293248,,0.09838739982196308,0.14523266673567298,81.69777777777776,693.0,268.8222222222222,247.5,0.0,693.0,0.09668115777768617,0.12201172673194134,0.14655440016514426,0.17438031338159213,0.22937014235130668,114.95964878573189,24194.0,210.59617431809647
350,2012-01-14,STORE_2_090,328.0,0,3,0.03350337680569933,-0.0014020846229618744,0.12179683582776209,0.28063683702213793,0.0,0.14563988146958942,,0.14441709000414893,0.1584731544686101,81.59111111111115,693.0,268.73333333333335,247.5,0.0,693.0,0.09668115777768617,0.12201172673194134,0.14655440016514426,0.17438031338159213,0.22937014235130668,114.91020431702216,24186.0,210.52471397651493
351,2012-01-15,STORE_2_090,259.00000000000006,0,3,-0.028373854789647934,-0.06187723159534726,0.15530021263346142,0.12136662828203004,0.0,0.17438031338159213,,0.15009422289583943,0.10379923909588486,81.11999999999998,693.0,269.3222222222222,248.5,0.0,693.0,0.09668115777768617,0.12244129609251023,0.14655440016514426,0.17438031338159213,0.22937014235130668,114.72074817757233,24239.0,210.4532536349334
352,2012-01-16,STORE_2_090,217.00000000000006,1,3,-0.01822482010619908,0.010149034683448854,0.12692635784381348,0.16746831896526215,0.0,0.16044453543829962,,0.09929406921578313,0.12989083680755245,81.55555555555549,693.0,268.77777777777777,247.5,0.0,693.0,0.09668115777768617,0.12201172673194134,0.14655440016514426,0.17438031338159213,0.22937014235130668,114.85288859004878,24190.0,210.38179329335185
353,2012-01-17,STORE_2_090,195.0,0,3,-0.009860566613950461,0.008364253492248619,0.1087015377376144,0.09838739982196308,0.0,0.13949120186283978,,0.09060331564481819,0.10958694983206921,81.76888888888888,693.0,268.5111111111111,247.5,0.0,693.0,0.09668115777768617,0.12201172673194134,0.14655440016514426,0.17438031338159213,0.22937014235130668,114.99753240581173,24166.0,210.3103329517703
354,2012-01-18,STORE_2_090,150.99999999999997,0,3,-0.020419313344713003,-0.010558746730762542,0.09884097112366394,0.08689137439910088,0.0,0.1468592397303292,,0.07842165777895094,0.12265597454889986,82.64000000000003,693.0,267.4222222222222,246.5,0.0,693.0,0.09577008684429857,0.12158173205489606,0.14655440016514426,0.17438031338159213,0.22937014235130668,115.64649523515523,24068.0,210.23887261018876
355,2012-01-19,STORE_2_090,171.0,0,3,0.009400680496261943,0.029819993840974945,0.07842165777895094,0.11002897987725516,0.0,0.1440087265684163,,0.08689137439910088,0.13031268675029173,83.4933333333334,693.0,266.35555555555555,246.0,0.0,693.0,0.09531329524610883,0.12136662828203004,0.14655440016514426,0.17438031338159213,0.22937014235130668,116.09230259409105,23972.0,210.167412268607
356,2012-01-20,STORE_2_090,189.0,0,3,0.00829007215438099,-0.0011106083418809531,0.08782233827521288,0.09838739982196308,0.0,0.1290459056423977,,0.12179683582776209,0.1720885166020073,82.74074074074068,693.0,264.3333333333333,246.0,0.0,693.0,0.09531329524610883,0.12136662828203004,0.14563988146958942,0.17438031338159213,0.22937014235130668,115.83386010173112,23790.0,210.09595192702545
357,2012-01-21,STORE_2_090,449.0,0,3,0.10486567144579309,0.0965755992914121,0.09611241042959387,0.14441709000414893,0.0,0.13949120186283978,,0.15530021263346142,0.12862282282091697,85.19111111111104,693.0,266.4,246.0,0.0,693.0,0.09531329524610883,0.12136662828203004,0.14655440016514426,0.17457037691553556,0.22937014235130668,117.45769498998165,23976.0,210.0244915854439
358,2012-01-22,STORE_2_090,314.0,0,3,-0.05128691653228584,-0.15615258797807893,0.20097808187538696,0.15009422289583943,0.0,0.26236088033226185,,0.12692635784381348,0.09611241042959387,85.10691358024698,693.0,267.7888888888889,246.0,0.0,693.0,0.09531329524610883,0.12136662828203004,0.14898318393990814,0.17457037691553556,0.22937014235130668,117.27107696756939,24101.0,209.95303124386237
359,2012-01-23,STORE_2_090,275.0,0,3,-0.016018349785542535,0.03526856674674331,0.14969116534310112,0.09929406921578313,0.0,0.25798350508329915,,0.1087015377376144,0.10914446942506803,84.73234567901235,693.0,268.4222222222222,246.5,0.0,693.0,0.09531329524610883,0.12158173205489606,0.14898318393990814,0.17457037691553556,0.22937014235130668,117.15302369678035,24158.0,209.88157090228083
360,2012-01-24,STORE_2_090,316.00000000000006,0,3,0.016824091170471622,0.03284244095601416,0.13367281555755858,0.09060331564481819,0.0,0.0,,0.09884097112366394,0.08408644872705386,84.3162962962963,693.0,270.1222222222222,247.5,0.0,693.0,0.09577008684429857,0.12201172673194134,0.14999345850765486,0.17457037691553556,0.22937014235130668,116.71532907013572,24311.0,209.8101105606993
361,2012-01-25,STORE_2_090,210.0,0,3,-0.04490860441455877,-0.06173269558503039,0.1504969067280302,0.07842165777895094,0.0,0.11573480046881827,,0.07842165777895094,0.10648007774365634,84.3355555555556,693.0,270.1,247.5,0.0,693.0,0.09577008684429857,0.12201172673194134,0.14999345850765486,0.17457037691553556,0.22937014235130668,116.72670953599747,24309.0,209.73865021911774
362,2012-01-26,STORE_2_090,267.0,0,3,0.02472438443682029,0.06963298885137906,0.10558830231347144,0.08689137439910088,0.0,0.09244745634318849,,0.08782233827521288,0.12308490740539994,84.17185185185188,693.0,270.2888888888889,247.5,0.0,693.0,0.09577008684429857,0.12201172673194134,0.14999345850765486,0.17457037691553556,0.22937014235130668,116.7075712133829,24326.0,209.66718987753598
363,2012-01-27,STORE_2_090,312.0,0,3,0.01857123954645193,-0.006153144890368362,0.13031268675029173,0.12179683582776209,0.0,0.16475032942929901,,0.09611241042959387,0.14482506981987603,84.29777777777772,693.0,270.4,247.5,0.0,693.0,0.09577008684429857,0.12201172673194134,0.14999345850765486,0.17457037691553556,0.22937014235130668,116.74285580720762,24336.0,209.59572953595443
364,2012-01-28,STORE_2_090,337.0,0,3,0.009984220906600921,-0.008587018639851007,0.14888392629674366,0.15530021263346142,0.0,0.1349261915556557,,0.20097808187538696,0.1435999787905698,84.77629629629628,693.0,270.8222222222222,247.5,0.0,693.0,0.09577008684429857,0.12201172673194134,0.15009422289583943,0.17457037691553556,0.22937014235130668,116.91604380228156,24374.0,209.5242691943729
365,2012-01-29,STORE_2_090,262.9999999999999,0,3,-0.030245324382427607,-0.04022954528902853,0.15886814720334458,0.12692635784381348,0.0,0.24716535424442054,0.057493617052782726,0.14969116534310112,0.0951990673339673,84.04444444444451,693.0,271.6666666666667,253.5,0.0,693.0,0.09668115777768617,0.12457648773996705,0.15009422289583943,0.17457037691553556,0.22937014235130668,116.5777938651779,24450.0,209.45280885279135
366,2012-01-30,STORE_2_090,257.0,0,3,-0.0025471890138798747,0.027698135368547733,0.12862282282091697,0.1087015377376144,0.0,0.28063683702213793,0.0692984973610315,0.13367281555755858,0.0951990673339673,83.37037037037035,693.0,272.44444444444446,258.0,0.0,693.0,0.09838739982196308,0.1265009958254253,0.15009422289583943,0.17457037691553556,0.22937014235130668,116.23959285164887,24520.0,209.3813485112098
367,2012-01-31,STORE_2_090,260.99999999999994,0,3,0.001699784877894378,0.004246973891774253,0.1260756338070371,0.09884097112366394,0.0,0.12136662828203004,0.054491569509933745,0.1504969067280302,0.08642514302646215,82.47481481481485,693.0,273.47777777777776,259.5,0.0,693.0,0.0985007926473883,0.12713872680054658,0.15009422289583943,0.17457037691553556,0.22937014235130668,115.71285923681538,24613.0,209.30988816962827
368,2012-02-01,STORE_2_090,206.00000000000003,0,3,-0.023976179589046617,-0.025675964466940995,0.12777541868493147,0.07842165777895094,0.0,0.16746831896526215,0.0634361656226881,0.10558830231347144,0.13949120186283978,82.90864197530865,693.0,272.55555555555554,258.0,0.0,693.0,0.0985007926473883,0.1265009958254253,0.15009422289583943,0.17457037691553556,0.22937014235130668,115.91832761325612,24530.0,209.23842782804672
369,2012-02-02,STORE_2_090,236.0,0,3,0.01324171117521697,0.037217890764263586,0.10379923909588486,0.08782233827521288,0.0,0.09838739982196308,0.05649523849378599,0.13031268675029173,0.09565597898253346,82.45827160493825,693.0,273.0888888888889,258.0,0.0,693.0,0.09895424564669374,0.1265009958254253,0.15009422289583943,0.17457037691553556,0.22937014235130668,115.63499766136901,24578.0,209.16696748646496
370,2012-02-03,STORE_2_090,322.0,0,3,0.035864249958566005,0.022622538783349036,0.11704095027110183,0.09611241042959387,0.0,0.08689137439910088,0.06490918393217028,0.14888392629674366,0.15569810041383797,82.3683950617284,693.0,273.0111111111111,258.0,0.0,693.0,0.09895424564669374,0.1265009958254253,0.15009422289583943,0.17457037691553556,0.22937014235130668,115.59931713616245,24571.0,209.0955071448834
371,2012-02-04,STORE_2_090,498.0,0,3,0.06528534838853334,0.029421098429967332,0.15290520022966783,0.20097808187538696,0.0,0.11002897987725516,0.13534318100862522,0.15886814720334458,0.11179261471475627,84.7530864197531,693.0,276.05555555555554,259.5,0.0,693.0,0.09895424564669374,0.12713872680054658,0.1503962357699825,0.1774411322274477,0.22983564281003085,117.8796149487875,24845.0,209.02404680330187
372,2012-02-05,STORE_2_090,297.0,0,3,-0.0754092213083114,-0.14069456969684474,0.21819054861820117,0.14969116534310112,0.0,0.09838739982196308,0.08967830042418398,0.12862282282091697,0.09336659844691228,84.12074074074073,693.0,277.3222222222222,260.5,0.0,693.0,0.09963318543257046,0.12756325722110556,0.1503962357699825,0.1774411322274477,0.22983564281003085,117.48027114101242,24959.0,208.95258646172033
373,2012-02-06,STORE_2_090,249.00000000000003,0,3,-0.02012535276098991,0.055283868547321494,0.14278132730988977,0.13367281555755858,0.0,0.14441709000414893,0.0947416744724122,0.1260756338070371,0.08967830042418398,83.41135802469135,693.0,278.14444444444445,260.5,0.0,693.0,0.10121338459422966,0.12756325722110556,0.1503962357699825,0.1774411322274477,0.22983564281003085,117.01412198563861,25033.0,208.8811261201388
374,2012-02-07,STORE_2_090,234.99999999999994,0,3,-0.006049971216409239,0.01407538154458067,0.12265597454889986,0.1504969067280302,0.0,0.15009422289583943,0.0634361656226881,0.12777541868493147,0.08314743326522621,82.71703703703703,693.0,278.96666666666664,260.5,0.0,693.0,0.1031262618700621,0.12756325722110556,0.1503962357699825,0.1774411322274477,0.22983564281003085,116.44031600356998,25107.0,208.80966577855725
375,2012-02-08,STORE_2_090,196.0,0,3,-0.017311934116707492,-0.011261962900298253,0.11660600333249062,0.10558830231347144,0.0,0.09929406921578313,0.0,0.10379923909588486,0.10558830231347144,82.8483950617284,693.0,278.81111111111113,260.5,0.0,693.0,0.10121338459422966,0.12756325722110556,0.1503962357699825,0.1774411322274477,0.22983564281003085,116.5427919138124,25093.0,208.7382054369757
376,2012-02-09,STORE_2_090,207.99999999999997,0,3,0.0054006227373412374,0.02271255685404873,0.09929406921578313,0.13031268675029173,0.0,0.09060331564481819,0.0,0.11704095027110183,0.15370500613141408,82.91456790123459,693.0,277.52222222222224,259.5,0.0,693.0,0.10121338459422966,0.12713872680054658,0.15009422289583943,0.1774411322274477,0.22983564281003085,116.67878000249836,24977.0,208.66674509539394
377,2012-02-10,STORE_2_090,357.0,0,3,0.06199879276217679,0.056598170024835553,0.10469469195312436,0.14888392629674366,0.0,0.07842165777895094,0.0,0.15290520022966783,0.18788278378523923,82.19555555555556,693.0,276.9,259.5,0.0,693.0,0.10121338459422966,0.12713872680054658,0.15009422289583943,0.17457037691553556,0.22983564281003085,116.09605186407923,24921.0,208.5952847538124
378,2012-02-11,STORE_2_090,422.0,0,3,0.02450032767594104,-0.03749846508623575,0.16669348471530115,0.15886814720334458,0.0,0.08689137439910088,0.0,0.21819054861820117,0.16279844083177697,83.15851851851852,693.0,277.73333333333335,259.5,0.0,693.0,0.10121338459422966,0.12713872680054658,0.15009422289583943,0.17777223508804804,0.22983564281003085,116.8714649768826,24996.0,208.52382441223085
379,2012-02-12,STORE_2_090,349.00000000000006,0,3,-0.027613563100084004,-0.052113890776025046,0.1911938123912422,0.12862282282091697,0.0,0.12179683582776209,0.0,0.14278132730988977,0.1357597704716504,84.05555555555556,693.0,278.5,259.5,0.0,693.0,0.10121338459422966,0.12713872680054658,0.1503962357699825,0.17777223508804804,0.22983564281003085,117.11256949014597,25065.0,208.4523640706493
380,2012-02-13,STORE_2_090,243.0,0,3,-0.04350680652613008,-0.015893243426046075,0.1635802492911582,0.1260756338070371,0.0,0.15530021263346142,0.0,0.12265597454889986,0.0947416744724122,83.53481481481481,693.0,279.1333333333333,259.5,0.0,693.0,0.1031262618700621,0.12713872680054658,0.1503962357699825,0.17777223508804804,0.22983564281003085,116.76031340535555,25122.0,208.38090372906777
381,2012-02-14,STORE_2_090,179.0,0,3,-0.02854707792703122,0.01495972859909886,0.12007344276502811,0.12777541868493147,0.0,0.12692635784381348,0.0,0.11660600333249062,0.07508274910521479,83.21506172839507,693.0,279.52222222222224,259.5,0.0,693.0,0.1031262618700621,0.12713872680054658,0.1503962357699825,0.17777223508804804,0.22983564281003085,116.36278293953445,25157.0,208.30944338748623
382,2012-02-15,STORE_2_090,252.0,0,3,0.03241513945635435,0.06096221738338557,0.09152636483799689,0.10379923909588486,0.0,0.1087015377376144,0.0,0.09929406921578313,0.11398713419929818,83.00493827160494,693.0,279.77777777777777,259.5,0.0,693.0,0.1031262618700621,0.12713872680054658,0.1503962357699825,0.17777223508804804,0.22983564281003085,116.27580325232132,25180.0,208.23798304590446
383,2012-02-16,STORE_2_090,211.99999999999994,0,3,-0.01746142655069491,-0.04987656600704926,0.12394150429435125,0.11704095027110183,0.0,0.09884097112366394,0.0,0.10469469195312436,0.17438031338159213,82.31234567901234,693.0,277.94444444444446,258.0,0.0,693.0,0.1031262618700621,0.1265009958254253,0.15009422289583943,0.17777223508804804,0.22983564281003085,116.02618467650642,25015.0,208.16652270432292
384,2012-02-17,STORE_2_090,150.99999999999997,0,3,-0.0280584199647054,-0.010596993414010492,0.10648007774365634,0.15290520022966783,0.0,0.07842165777895094,0.0,0.16669348471530115,0.21715610315436967,80.56617283950617,693.0,274.1222222222222,254.5,0.0,693.0,0.10121338459422966,0.12500856905069418,0.14999345850765486,0.17457037691553556,0.22983564281003085,114.45089499777953,24671.0,208.09506236274137
385,2012-02-18,STORE_2_090,267.99999999999994,0,3,0.05231246954968513,0.08037088951439053,0.07842165777895094,0.21819054861820117,0.0,0.08782233827521288,0.0,0.1911938123912422,0.0692984973610315,79.33777777777776,693.0,275.6333333333333,258.0,0.0,693.0,0.1031262618700621,0.1265009958254253,0.14999345850765486,0.17457037691553556,0.22983564281003085,113.44676026987433,24807.0,208.02360202115983
386,2012-02-19,STORE_2_090,198.99999999999997,0,3,-0.030083593245703588,-0.08239606279538872,0.13073412732863607,0.14278132730988977,0.0,0.09611241042959387,0.0,0.1635802492911582,0.1222266176361206,79.77333333333334,693.0,275.0888888888889,258.0,0.0,693.0,0.10121338459422966,0.1265009958254253,0.14999345850765486,0.17457037691553556,0.22983564281003085,113.69816581134421,24758.0,207.9521416795783
387,2012-02-20,STORE_2_090,198.0,1,3,-0.0004516843692675965,0.02963190887643599,0.10065053408293248,0.12265597454889986,0.0,0.20097808187538696,0.0,0.12007344276502811,0.15009422289583943,79.92444444444445,693.0,273.7888888888889,254.5,0.0,693.0,0.10065053408293248,0.12500856905069418,0.14948935558151175,0.17457037691553556,0.22983564281003085,113.90539090580064,24641.0,207.88068133799675
388,2012-02-21,STORE_2_090,210.0,0,3,0.0053894525998065546,0.005841136969074151,0.10019884971366488,0.11660600333249062,0.0,0.14969116534310112,0.0,0.09152636483799689,0.2393634471488007,76.5753086419753,693.0,269.8888888888889,250.5,0.0,693.0,0.10065053408293248,0.12329873942162556,0.14837775465514003,0.17438031338159213,0.21044493858393473,109.89959099048166,24290.0,207.8092209964152
389,2012-02-22,STORE_2_090,134.0,0,3,-0.035320397224259836,-0.04070984982406639,0.10558830231347144,0.09929406921578313,0.0,0.13367281555755858,0.0,0.12394150429435125,0.08549117603876129,76.85185185185186,693.0,269.53333333333336,250.5,0.0,693.0,0.10065053408293248,0.12329873942162556,0.14837775465514003,0.17438031338159213,0.21044493858393473,110.29054580689147,24258.0,207.73776065483344
390,2012-02-23,STORE_2_090,144.0,0,3,0.004814844016003184,0.04013524124026302,0.0702679050892116,0.10469469195312436,0.0,0.1504969067280302,0.0,0.10648007774365634,0.0702679050892116,76.76543209876544,693.0,269.64444444444445,250.5,0.0,693.0,0.10065053408293248,0.12329873942162556,0.14837775465514003,0.17438031338159213,0.21044493858393473,110.15742678845663,24268.0,207.6663003132519
391,2012-02-24,STORE_2_090,237.0,0,3,0.04239271293990472,0.03757786892390154,0.07508274910521479,0.16669348471530115,0.0,0.10558830231347144,0.0,0.07842165777895094,0.1029019361281212,76.48024691358023,693.0,270.0111111111111,250.5,0.0,693.0,0.10065053408293248,0.12329873942162556,0.14837775465514003,0.17438031338159213,0.21044493858393473,109.99126568433265,24301.0,207.59483997167035
392,2012-02-25,STORE_2_090,216.0,0,3,-0.009217308196862159,-0.05161002113676688,0.11747546204511951,0.1911938123912422,0.0,0.13031268675029173,0.0,0.13073412732863607,0.11747546204511951,76.66172839506174,693.0,269.77777777777777,250.5,0.0,693.0,0.10065053408293248,0.12329873942162556,0.14837775465514003,0.17438031338159213,0.21044493858393473,110.08431679396936,24280.0,207.5233796300888
393,2012-02-26,STORE_2_090,205.0,0,3,-0.004907334494744162,0.004309973702117997,0.10825815384825735,0.1635802492911582,0.0,0.14888392629674366,0.0,0.10065053408293248,0.06539908187684591,75.96172839506175,693.0,270.6777777777778,250.5,0.0,693.0,0.10132560540057765,0.12329873942162556,0.14837775465514003,0.17438031338159213,0.21044493858393473,109.20672364551675,24361.0,207.45191928850727
394,2012-02-27,STORE_2_090,179.0,0,3,-0.011824454515516294,-0.006917120020772133,0.10335081935351319,0.12007344276502811,0.0,0.15886814720334458,0.0,0.10019884971366488,0.08408644872705386,75.82345679012343,693.0,270.85555555555555,250.5,0.0,693.0,0.10132560540057765,0.12329873942162556,0.14837775465514003,0.17438031338159213,0.21044493858393473,109.0423648328464,24377.0,207.38045894692573
395,2012-02-28,STORE_2_090,83.0,0,3,-0.04668053975385384,-0.034856085238337546,0.09152636483799689,0.09152636483799689,0.0,0.12862282282091697,0.0,0.10558830231347144,0.09428379938318579,76.7049382716049,693.0,269.72222222222223,250.5,0.0,693.0,0.10132560540057765,0.12329873942162556,0.14837775465514003,0.17438031338159213,0.21044493858393473,110.46551424631524,24275.0,207.3089986053442
396,2012-02-29,STORE_2_090,128.0,0,3,0.022507340997851268,0.06918788075170511,0.04484582508414305,0.12394150429435125,0.0,0.1260756338070371,0.0,0.0702679050892116,0.12136662828203004,77.72469135802463,693.0,268.4111111111111,250.5,0.0,693.0,0.10065053408293248,0.12329873942162556,0.14837775465514003,0.17438031338159213,0.21044493858393473,111.44615210484518,24157.0,207.23753826376242
397,2012-03-01,STORE_2_090,142.0,0,3,0.006770875168328527,-0.01573646582952274,0.06735316608199432,0.10648007774365634,0.0,0.12777541868493147,0.0,0.07508274910521479,0.1073700257638926,78.35555555555555,693.0,267.6111111111111,250.5,0.0,693.0,0.10031177080598178,0.12329873942162556,0.14837775465514003,0.17438031338159213,0.21044493858393473,112.09763946681686,24085.0,207.16607792218088
