soundwave-77/time-series-mts-hse/models/STORE_2_252/train_data.csv
index,timestamp,segment,target,holiday,target_change_points,target_diff_1,target_diff_2,target_lag_1,target_lag_14,target_lag_180,target_lag_30,target_lag_365,target_lag_7,target_lag_90,target_mad,target_max,target_mean,target_median,target_min,target_minmax_diff,target_q_0.25,target_q_0.50,target_q_0.75,target_q_0.90,target_q_0.95,target_std,target_sum,target_trend
0,2011-01-29,STORE_2_252,39.0,0,0,,,,,,,,,,0.0,39.0,39.0,39.0,39.0,0.0,0.1213346123394747,0.1213346123394747,0.1213346123394747,0.1213346123394747,0.1213346123394747,0.0,39.0,38.893901759753135
1,2011-01-30,STORE_2_252,38.0,0,0,-0.0027228583354733105,,0.1213346123394747,,,,,,,0.5,39.0,38.5,38.5,38.0,1.0,0.11929246858786972,0.11997318317173805,0.12065389775560638,0.12106232650592738,0.12119846942270104,0.7071067811865476,77.0,38.89509688953591
2,2011-01-31,STORE_2_252,18.0,0,0,-0.05838232406635641,-0.0556594657308831,0.1186117540040014,,,,,,,9.11111111111111,39.0,31.666666666666668,38.0,18.0,21.0,0.0894205919708232,0.1186117540040014,0.11997318317173805,0.12079004067238004,0.12106232650592738,11.846237095944574,95.0,38.89629201931868
3,2011-02-01,STORE_2_252,36.99999999999999,0,0,0.05564228670032755,0.11402461076668396,0.060229429937644983,,,,,,,7.5,39.0,33.0,37.5,18.0,21.0,0.10196114496289065,0.11724173532098697,0.11929246858786972,0.12051775483883272,0.1209261835891537,10.03327796219494,132.0,38.89748714910145
4,2011-02-02,STORE_2_252,40.0,0,0,0.008168789077427074,-0.04747349762290048,0.11587171663797254,,,,,,,6.5600000000000005,40.0,34.4,38.0,18.0,22.0,0.11587171663797254,0.1186117540040014,0.1213346123394747,0.12295814836502965,0.12349932704021463,9.235799911215056,172.0,38.89868227888423
5,2011-02-03,STORE_2_252,46.0,0,0,0.015890595115733583,0.0077218060383065085,0.12404050571539961,,,,,,,6.11111111111111,46.0,36.333333333333336,38.5,18.0,28.0,0.11655672597947975,0.11997318317173805,0.12336403237141838,0.1319858032732664,0.1359584520521998,9.521904571390467,218.0,38.899877408667
6,2011-02-04,STORE_2_252,27.000000000000004,0,0,-0.052454755752625884,-0.06834535086835947,0.1399311008311332,,,,,,,7.142857142857143,46.0,35.0,38.0,18.0,28.0,0.10167403085823992,0.1186117540040014,0.12268755902743717,0.13039674376169305,0.1351639222964131,9.38083151964686,245.0,38.90107253844978
7,2011-02-05,STORE_2_252,69.0,0,0,0.1084918855578716,0.1609466413104975,0.08747634507850731,,,,,0.1213346123394747,,9.3125,69.0,39.25,38.5,18.0,51.0,0.10877287374810624,0.11997318317173805,0.128013154494333,0.1567422397727069,0.17635523520454288,14.829988922065027,314.0,38.902267668232554
8,2011-02-06,STORE_2_252,59.99999999999999,0,0,-0.021075026083644505,-0.12956691164151612,0.19596823063637892,,,,,0.1186117540040014,,11.185185185185185,69.0,41.55555555555556,39.0,18.0,51.0,0.11587171663797254,0.1213346123394747,0.1399311008311332,0.17910820976946332,0.1875382202029211,15.500896031448562,374.0,38.903462798015326
9,2011-02-07,STORE_2_252,41.0,0,0,-0.048163560326553556,-0.02708853424290905,0.1748932045527344,,,,,0.060229429937644983,,10.1,69.0,41.5,39.5,18.0,51.0,0.11655672597947975,0.12268755902743717,0.13663073667989512,0.17700070716109886,0.18648446889873888,14.615440845595836,415.0,38.9046579277981
10,2011-02-08,STORE_2_252,29.0,0,0,-0.03342375548694969,0.014739804839603868,0.12672964422618085,,,,,0.11587171663797254,,9.917355371900829,69.0,40.36363636363637,39.0,18.0,51.0,0.10458880268860185,0.1213346123394747,0.13333037252865704,0.1748932045527344,0.18543071759455665,14.368526210246667,444.0,38.90585305758088
11,2011-02-09,STORE_2_252,36.99999999999999,0,0,0.02256582789874137,0.05598958338569106,0.09330588873923117,,,,,0.12404050571539961,,9.27777777777778,69.0,40.083333333333336,38.5,18.0,51.0,0.1102302596632872,0.11997318317173805,0.13003000837741893,0.1713969941805743,0.18437696629037442,13.73421959482183,481.0,38.90704818736365
12,2011-02-10,STORE_2_252,47.000000000000014,0,0,0.02665219477144025,0.0040863668726988794,0.11587171663797254,,,,,0.1399311008311332,,9.218934911242602,69.0,40.61538461538461,39.0,18.0,51.0,0.11587171663797254,0.1213346123394747,0.1399311008311332,0.1684193459240701,0.1833232149861922,13.288707370912476,528.0,38.90824331714643
13,2011-02-11,STORE_2_252,50.99999999999999,0,0,0.01021916518168603,-0.01643302958975422,0.14252391140941278,,,,,0.08747634507850731,,9.459183673469388,69.0,41.357142857142854,39.5,18.0,51.0,0.11587171663797254,0.12268755902743717,0.1418757087648429,0.16824816616424376,0.18226946368200997,13.065557439649913,579.0,38.9094384469292
14,2011-02-12,STORE_2_252,62.0,0,0,0.026922642822880594,0.016703477641194564,0.15274307659109881,0.1213346123394747,,,,0.19596823063637892,,10.480000000000002,69.0,42.733333333333334,40.0,18.0,51.0,0.11587171663797254,0.12404050571539961,0.1476334940002558,0.1777567134694814,0.18455647278069925,13.672008247649995,641.0,38.91063357671197
15,2011-02-13,STORE_2_252,64.0,0,0,0.004720638672584293,-0.0222020041502963,0.1796657194139794,0.1186117540040014,,,,0.1748932045527344,,11.3203125,69.0,44.0625,40.5,18.0,51.0,0.11587171663797254,0.12538507497079024,0.15828060858150772,0.18202603875027157,0.1872818262240175,14.238299289826248,705.0,38.911828706494745
16,2011-02-14,STORE_2_252,21.0,0,0,-0.1148833840199573,-0.1196040226925416,0.1843863580865637,0.060229429937644983,,,,0.12672964422618085,,11.771626297577852,69.0,42.705882352941174,40.0,18.0,51.0,0.11587171663797254,0.12404050571539961,0.15274307659109881,0.18155397488301311,0.18670273259652673,14.877687597045924,726.0,38.91302383627752
17,2011-02-15,STORE_2_252,24.999999999999996,0,0,0.01206451140138061,0.12694789542133791,0.0695029740666064,0.11587171663797254,,,,0.09330588873923117,,11.882716049382717,69.0,41.72222222222222,39.5,18.0,51.0,0.0989473457139165,0.12268755902743717,0.1501882852956773,0.1810819110157547,0.18612363896903597,15.024707320455846,751.0,38.9142189660603
18,2011-02-16,STORE_2_252,35.0,0,0,0.028771742570024503,0.016707231168643893,0.081567485467987,0.12404050571539961,,,,0.11587171663797254,,11.518005540166207,69.0,41.36842105263158,39.0,18.0,51.0,0.10182255838862134,0.1213346123394747,0.1476334940002558,0.18060984714849626,0.1855445453415452,14.682606967715953,786.0,38.915414095843076
19,2011-02-17,STORE_2_252,21.0,0,0,-0.04083625397140511,-0.06960799654142961,0.11033922803801151,0.1399311008311332,,,,0.14252391140941278,,11.72,69.0,40.35,38.5,18.0,51.0,0.0918485028240502,0.11997318317173805,0.1450787027048343,0.18013778328123783,0.18496545171405446,14.999210505539073,807.0,38.91660922562585
20,2011-02-18,STORE_2_252,24.0,0,0,0.009079657851918402,0.049915911823323514,0.0695029740666064,0.08747634507850731,,,,0.15274307659109881,,11.795918367346937,69.0,39.57142857142857,38.0,18.0,51.0,0.08747634507850731,0.1186117540040014,0.14252391140941278,0.1796657194139794,0.1843863580865637,15.04849304273165,831.0,38.91780435540862
21,2011-02-19,STORE_2_252,48.00000000000002,0,0,0.0665187023786987,0.057439044526780295,0.0785826319185248,0.19596823063637892,,,,0.1796657194139794,,11.677685950413222,69.0,39.95454545454545,38.5,18.0,51.0,0.08893373099368827,0.11997318317173805,0.14445697857527082,0.17918846792785492,0.18415032615293447,14.795357292157476,879.0,38.91899948519139
22,2011-02-20,STORE_2_252,41.0,0,0,-0.01837169007104264,-0.08489039244974134,0.1451013342972235,0.1748932045527344,,,,0.1843863580865637,,11.217391304347826,69.0,40.0,39.0,18.0,51.0,0.09039111690886924,0.1213346123394747,0.14381262285331814,0.1787112164417304,0.18391429421930527,14.45683229480096,920.0,38.920194614974164
23,2011-02-21,STORE_2_252,38.0,1,0,-0.008117890222179458,0.010253799848863182,0.12672964422618085,0.12672964422618085,,,,0.0695029740666064,,10.826388888888893,69.0,39.916666666666664,38.5,18.0,51.0,0.0918485028240502,0.11997318317173805,0.14316826713136546,0.1782339649556059,0.18367826228567605,14.144953522190432,958.0,38.921389744756944
24,2011-02-22,STORE_2_252,33.0,0,0,-0.013876403483988414,-0.005758513261808956,0.1186117540040014,0.09330588873923117,,,,0.081567485467987,,10.636800000000001,69.0,39.64,38.0,18.0,51.0,0.09330588873923117,0.1186117540040014,0.14252391140941278,0.1777567134694814,0.18344223035204682,13.916057870915408,991.0,38.922584874539716
25,2011-02-23,STORE_2_252,27.000000000000004,0,0,-0.017259005441505673,-0.003382601957517259,0.10473535052001298,0.11587171663797254,,,,0.11033922803801151,,10.639053254437867,69.0,39.15384615384615,38.0,18.0,51.0,0.08893373099368827,0.1186117540040014,0.1418757087648429,0.17727946198335692,0.18320619841841762,13.858404836610333,1018.0,38.923780004322495
26,2011-02-24,STORE_2_252,30.000000000000004,0,0,0.00871523189821205,0.025974237339717723,0.08747634507850731,0.14252391140941278,,,,0.0695029740666064,,10.534979423868313,69.0,38.81481481481482,38.0,18.0,51.0,0.09039111690886924,0.1186117540040014,0.141227506120273,0.1768022104972324,0.18297016648478842,13.702995284684288,1048.0,38.92497513410527
27,2011-02-25,STORE_2_252,26.0,0,0,-0.011659612544993356,-0.020374844443205406,0.09619157697671936,0.15274307659109881,,,,0.0785826319185248,,10.551020408163264,69.0,38.357142857142854,37.5,18.0,51.0,0.08747634507850731,0.11724173532098697,0.14057930347570308,0.17632495901110792,0.1827341345511592,13.663181901831638,1074.0,38.92617026388804
28,2011-02-26,STORE_2_252,42.00000000000001,0,0,0.04487026965578175,0.05652988220077511,0.084531964431726,0.1796657194139794,,,,0.1451013342972235,,10.325802615933414,69.0,38.48275862068966,38.0,18.0,51.0,0.08747634507850731,0.1186117540040014,0.1399311008311332,0.1758477075249834,0.18249810261752997,13.434020485466771,1116.0,38.92736539367081
29,2011-02-27,STORE_2_252,49.00000000000001,0,0,0.0182613169743161,-0.026608952681465653,0.12940223408750776,0.1843863580865637,,,,0.12672964422618085,,10.355555555555556,69.0,38.833333333333336,38.0,18.0,51.0,0.08893373099368827,0.1186117540040014,0.1418757087648429,0.17537045603885892,0.18226207068390077,13.339294644365399,1165.0,38.92856052345359
30,2011-02-28,STORE_2_252,32.0,0,0,-0.04575749056067514,-0.06401880753499124,0.14766355106182386,0.0695029740666064,,0.1213346123394747,,0.1186117540040014,,10.220603537981267,69.0,38.61290322580645,38.0,18.0,51.0,0.09039111690886924,0.1186117540040014,0.141227506120273,0.1748932045527344,0.18202603875027157,13.172388847775078,1197.0,38.92975565323636
31,2011-03-01,STORE_2_252,30.000000000000004,0,0,-0.0057144835244293535,0.04004300703624579,0.10190606050114871,0.081567485467987,,0.1186117540040014,,0.10473535052001298,,10.13671875,69.0,38.34375,37.5,18.0,51.0,0.0918485028240502,0.11724173532098697,0.14057930347570308,0.1726781917565709,0.18179000681664234,13.04733163919833,1227.0,38.93095078301914
32,2011-03-02,STORE_2_252,22.999999999999996,0,0,-0.020614455197919795,-0.014899971673490442,0.09619157697671936,0.11033922803801151,,0.060229429937644983,,0.08747634507850731,,10.238751147842057,69.0,37.878787878787875,37.0,18.0,51.0,0.08747634507850731,0.11587171663797254,0.1399311008311332,0.1704631789604073,0.18155397488301311,13.116682068451933,1250.0,38.932145912801914
33,2011-03-03,STORE_2_252,46.0,0,0,0.06435397905233363,0.08496843425025342,0.07557712177879956,0.0695029740666064,,0.11587171663797254,,0.09619157697671936,,10.190311418685122,69.0,38.11764705882353,37.5,18.0,51.0,0.08893373099368827,0.11724173532098697,0.1399311008311332,0.1682481661642437,0.1813179429493839,12.991290102923744,1296.0,38.933341042584686
34,2011-03-04,STORE_2_252,38.0,0,0,-0.021319346827131797,-0.08567332587946543,0.1399311008311332,0.0785826319185248,,0.12404050571539961,,0.084531964431726,,9.902040816326531,69.0,38.114285714285714,38.0,18.0,51.0,0.09039111690886924,0.1186117540040014,0.1399311008311332,0.1660331533680802,0.1810819110157547,12.798831354214082,1334.0,38.93453617236746
35,2011-03-05,STORE_2_252,57.0,0,0,0.04902287798844249,0.07034222481557428,0.1186117540040014,0.1451013342972235,,0.1399311008311332,,0.12940223408750776,,10.209876543209877,69.0,38.638888888888886,38.0,18.0,51.0,0.0918485028240502,0.1186117540040014,0.14057930347570308,0.17126391827258913,0.1808458790821255,13.001434597278164,1391.0,38.93573130215023
36,2011-03-06,STORE_2_252,41.0,0,0,-0.04090498776626303,-0.08992786575470552,0.16763463199244388,0.12672964422618085,,0.08747634507850731,,0.14766355106182386,,10.00292184075968,69.0,38.7027027027027,38.0,18.0,51.0,0.09330588873923117,0.1186117540040014,0.1399311008311332,0.17053806101656008,0.18060984714849623,12.825462661927347,1432.0,38.93692643193301
37,2011-03-07,STORE_2_252,30.000000000000004,0,0,-0.030538067249461495,0.010366920516801534,0.12672964422618085,0.1186117540040014,,0.19596823063637892,,0.10190606050114871,,9.944598337950138,69.0,38.473684210526315,38.0,18.0,51.0,0.09402731079860321,0.1186117540040014,0.1399311008311332,0.16981220376053108,0.18037381521486703,12.729486607989626,1462.0,38.93812156171579
38,2011-03-08,STORE_2_252,34.0,0,0,0.011354750877122038,0.041892818126583534,0.09619157697671936,0.10473535052001298,,0.1748932045527344,,0.09619157697671936,,9.789612097304406,69.0,38.35897435897436,38.0,18.0,51.0,0.09474873285797526,0.1186117540040014,0.1399311008311332,0.16908634650450202,0.18013778328123783,12.581287649536428,1496.0,38.93931669149856
39,2011-03-09,STORE_2_252,38.0,0,0,0.011065426150159999,-0.0002893247269620397,0.1075463278538414,0.08747634507850731,,0.12672964422618085,,0.07557712177879956,,9.552499999999998,69.0,38.35,38.0,18.0,51.0,0.09547015491734731,0.1186117540040014,0.1399311008311332,0.16836048924847294,0.1799017513476086,12.419071355513397,1534.0,38.94051182128133
40,2011-03-10,STORE_2_252,32.0,0,0,-0.016705693502852684,-0.027771119653012682,0.1186117540040014,0.09619157697671936,,0.09330588873923117,,0.1399311008311332,,9.447947650208208,69.0,38.19512195121951,38.0,18.0,51.0,0.09619157697671936,0.1186117540040014,0.1399311008311332,0.16763463199244388,0.1796657194139794,12.302884849081378,1566.0,38.941706951064106
41,2011-03-11,STORE_2_252,50.99999999999999,0,0,0.0508370160899501,0.06754270959280279,0.10190606050114871,0.084531964431726,,0.11587171663797254,,0.1186117540040014,,9.571428571428571,69.0,38.5,38.0,18.0,51.0,0.09619157697671936,0.1186117540040014,0.1399311008311332,0.16614547645230934,0.17942709367091714,12.311505624078125,1617.0,38.94290208084688
42,2011-03-12,STORE_2_252,52.99999999999999,0,0,0.005020801375050815,-0.04581621471489929,0.15274307659109881,0.12940223408750776,,0.14252391140941278,,0.16763463199244388,,9.725256895619257,69.0,38.83720930232558,38.0,18.0,51.0,0.09619157697671936,0.1186117540040014,0.141227506120273,0.16566048118718507,0.1791884679278549,12.363406512689238,1670.0,38.94409721062966
43,2011-03-13,STORE_2_252,46.0,0,0,-0.017832777135016437,-0.02285357851006725,0.15776387796614963,0.14766355106182386,,0.15274307659109881,,0.12672964422618085,,9.681818181818182,69.0,39.0,38.0,18.0,51.0,0.09619157697671936,0.1186117540040014,0.14057930347570308,0.16467340578455564,0.17894984218479265,12.266422309665918,1716.0,38.94529234041243
44,2011-03-14,STORE_2_252,54.0,0,0,0.020321577538711166,0.0381543546737276,0.1399311008311332,0.10190606050114871,,0.1796657194139794,,0.09619157697671936,,9.837037037037039,69.0,39.333333333333336,38.0,18.0,51.0,0.09619157697671936,0.1186117540040014,0.14252391140941278,0.1646818505434041,0.1787112164417304,12.330671293382794,1770.0,38.94648747019521
45,2011-03-15,STORE_2_252,32.0,0,0,-0.05834661786869565,-0.07866819540740681,0.16025267836984436,0.09619157697671936,,0.1843863580865637,,0.1075463278538414,,9.76181474480151,69.0,39.17391304347826,38.0,18.0,51.0,0.09619157697671936,0.1186117540040014,0.1418757087648429,0.16394365518114412,0.17847259069866817,12.240741349782313,1802.0,38.94768259997798
46,2011-03-16,STORE_2_252,35.0,0,0,0.008433167536862796,0.06677978540555844,0.10190606050114871,0.07557712177879956,,0.0695029740666064,,0.1186117540040014,,9.629696695337257,69.0,39.08510638297872,38.0,18.0,51.0,0.09619157697671936,0.1186117540040014,0.141227506120273,0.16320545981888415,0.1782339649556059,12.122257264391346,1837.0,38.94887772976075
47,2011-03-17,STORE_2_252,39.0,0,0,0.010995384301463199,0.002562216764600403,0.11033922803801151,0.1399311008311332,,0.081567485467987,,0.10190606050114871,,9.430555555555557,69.0,39.083333333333336,38.0,18.0,51.0,0.09619157697671936,0.1186117540040014,0.14057930347570308,0.16246726445662424,0.17799533921254365,11.99261001765091,1876.0,38.950072859543525
48,2011-03-18,STORE_2_252,21.0,0,0,-0.05183163827286831,-0.06282702257433151,0.1213346123394747,0.1186117540040014,,0.11033922803801151,,0.15274307659109881,,9.562682215743441,69.0,38.714285714285715,38.0,18.0,51.0,0.09619157697671936,0.1186117540040014,0.1399311008311332,0.1617290690943643,0.17775671346948138,12.14495780149112,1897.0,38.951267989326304
49,2011-03-19,STORE_2_252,31.0,0,0,0.02955524356171607,0.08138688183458438,0.0695029740666064,0.16763463199244388,,0.0695029740666064,,0.15776387796614963,,9.507200000000001,69.0,38.56,38.0,18.0,51.0,0.09619157697671936,0.1186117540040014,0.1399311008311332,0.16099087373210433,0.17751808772641914,12.06979701569169,1928.0,38.952463119109076
50,2011-03-20,STORE_2_252,43.0,0,0,0.033000260102925325,0.003445016541209253,0.09905821762832247,0.12672964422618085,,0.0785826319185248,,0.1399311008311332,,9.416378316032297,69.0,38.64705882352941,38.0,18.0,51.0,0.09619157697671936,0.1186117540040014,0.1399311008311332,0.16025267836984436,0.17727946198335692,11.96465382601898,1971.0,38.953658248891855
51,2011-03-21,STORE_2_252,26.0,0,0,-0.04752651329952179,-0.08052677340244711,0.1320584777312478,0.09619157697671936,,0.1451013342972235,,0.16025267836984436,,9.45044378698225,69.0,38.40384615384615,38.0,18.0,51.0,0.09619157697671936,0.1186117540040014,0.1399311008311332,0.1600037983294749,0.17704083624029465,11.975890184088925,1997.0,38.95485337867463
52,2011-03-22,STORE_2_252,28.0,0,0,0.00586893366409795,0.05339544696361974,0.084531964431726,0.1075463278538414,,0.12672964422618085,,0.10190606050114871,,9.44250622997508,69.0,38.20754716981132,38.0,18.0,51.0,0.09619157697671936,0.1186117540040014,0.1399311008311332,0.15975491828910543,0.1768022104972324,11.945965670091365,2025.0,38.9560485084574
53,2011-03-23,STORE_2_252,24.999999999999996,0,0,-0.008833412627836948,-0.014702346291934898,0.09040089809582395,0.1186117540040014,,0.1186117540040014,,0.11033922803801151,,9.481481481481481,69.0,37.96296296296296,37.5,18.0,51.0,0.09402731079860321,0.11724173532098697,0.1399311008311332,0.15950603824873594,0.17656358475417014,11.968453759564298,2050.0,38.95724363824017
54,2011-03-24,STORE_2_252,26.0,0,0,0.002964478963738998,0.011797891591575946,0.081567485467987,0.10190606050114871,,0.10473535052001298,,0.1213346123394747,,9.522644628099172,69.0,37.74545454545454,37.0,18.0,51.0,0.09185339341752756,0.11587171663797254,0.1399311008311332,0.15925715820836647,0.1763249590111079,11.966338871737923,2076.0,38.958438768022944
55,2011-03-25,STORE_2_252,26.0,0,0,0.0,-0.002964478963738998,0.084531964431726,0.15274307659109881,,0.08747634507850731,,0.0695029740666064,,9.55484693877551,69.0,37.535714285714285,37.0,18.0,51.0,0.08966975984149479,0.11587171663797254,0.1399311008311332,0.159008278167997,0.17608633326804565,11.960486894489152,2102.0,38.95963389780572
56,2011-03-26,STORE_2_252,39.0,0,0,0.0368026479077487,0.0368026479077487,0.084531964431726,0.15776387796614963,,0.09619157697671936,,0.09905821762832247,,9.413357956294245,69.0,37.56140350877193,37.0,18.0,51.0,0.09040089809582395,0.11587171663797254,0.1399311008311332,0.15875939812762752,0.17584770752498338,11.85480243834246,2141.0,38.9608290275885
57,2011-03-27,STORE_2_252,36.0,0,0,-0.008220330246691068,-0.04502297815443977,0.1213346123394747,0.1399311008311332,,0.084531964431726,,0.1320584777312478,,9.27705112960761,69.0,37.53448275862069,37.0,18.0,51.0,0.09112714575667576,0.11587171663797254,0.13796294505616186,0.15851051808725805,0.17560908178192117,11.752141301327352,2177.0,38.962024157371275
58,2011-03-28,STORE_2_252,26.0,0,0,-0.028582317661057635,-0.020361987414366567,0.11311428209278364,0.16025267836984436,,0.12940223408750776,,0.084531964431726,,9.305372019534618,69.0,37.33898305084746,37.0,18.0,51.0,0.08893862158716563,0.11587171663797254,0.1359947892811905,0.1582616380468886,0.1753704560388589,11.746767962664169,2203.0,38.96321928715405
59,2011-03-29,STORE_2_252,21.0,0,0,-0.015028990365119607,0.013553327295938028,0.084531964431726,0.10190606050114871,,0.14766355106182386,,0.09040089809582395,,9.404444444444442,69.0,37.06666666666667,36.5,18.0,51.0,0.08747634507850731,0.11449299936537809,0.13402663350621913,0.1580127580065191,0.17513183029579665,11.836265253078901,2224.0,38.96441441693682
60,2011-03-30,STORE_2_252,36.0,0,0,0.04361130802617724,0.05864029839129685,0.0695029740666064,0.11033922803801151,,0.10190606050114871,,0.081567485467987,,9.266326256382694,69.0,37.049180327868854,36.0,18.0,51.0,0.08747634507850731,0.11311428209278364,0.1320584777312478,0.15776387796614963,0.1748932045527344,11.738009810736225,2260.0,38.96560954671959
61,2011-03-31,STORE_2_252,44.0,0,0,0.02158429180467257,-0.022027016221504672,0.11311428209278364,0.1213346123394747,,0.09619157697671936,,0.084531964431726,,9.236212278876172,69.0,37.16129032258065,36.5,18.0,51.0,0.08820748333283647,0.11449299936537809,0.1340385498559041,0.15726179782864455,0.17453027592471984,11.674820247694196,2304.0,38.96680467650237
62,2011-04-01,STORE_2_252,70.0,0,0,0.06354942303382125,0.041965131229148675,0.1346985738974562,0.0695029740666064,,0.07557712177879956,,0.084531964431726,,9.635676492819352,70.0,37.682539682539684,37.0,18.0,52.0,0.08893862158716563,0.11587171663797254,0.1373148373642947,0.15975491828910543,0.1791884679278549,12.297161220832304,2374.0,38.96799980628514
63,2011-04-02,STORE_2_252,42.00000000000001,0,0,-0.0688457628437697,-0.13239518587759094,0.19824799693127745,0.09905821762832247,,0.1399311008311332,,0.1213346123394747,,9.5546875,70.0,37.75,37.0,18.0,52.0,0.08966975984149479,0.11587171663797254,0.13600670563087547,0.15950603824873594,0.17894984218479262,12.211106056009468,2416.0,38.96919493606792
64,2011-04-03,STORE_2_252,65.0,0,0,0.05732533981395849,0.12617110265772818,0.12940223408750776,0.1320584777312478,,0.1186117540040014,,0.11311428209278364,,9.85420118343195,70.0,38.16923076923077,37.0,18.0,52.0,0.09040089809582395,0.11587171663797254,0.1399311008311332,0.1646818505434041,0.18344223035204682,12.577968375756813,2481.0,38.970390065850694
65,2011-04-04,STORE_2_252,44.0,0,0,-0.052029000004010034,-0.10935433981796852,0.18672757390146624,0.084531964431726,,0.16763463199244388,,0.084531964431726,,9.803948576675847,70.0,38.25757575757576,37.5,18.0,52.0,0.09112714575667576,0.11724173532098697,0.13862296909771393,0.16394365518114412,0.18320619841841762,12.50145912229769,2525.0,38.971585195633466
66,2011-04-05,STORE_2_252,30.000000000000004,0,0,-0.03850699692073685,0.013522003083273185,0.1346985738974562,0.09040089809582395,,0.12672964422618085,,0.0695029740666064,,9.764312764535534,70.0,38.134328358208954,37.0,18.0,52.0,0.09185339341752756,0.11587171663797254,0.1373148373642947,0.16320545981888415,0.1829701664847884,12.44733818738582,2555.0,38.97278032541624
67,2011-04-06,STORE_2_252,26.0,0,0,-0.011659612544993356,0.026847384375743494,0.09619157697671936,0.081567485467987,,0.09619157697671936,,0.11311428209278364,,9.778114186851207,70.0,37.955882352941174,37.0,18.0,52.0,0.08966975984149479,0.11587171663797254,0.13600670563087547,0.16246726445662424,0.1827341345511592,12.441425535648515,2581.0,38.97397545519902
68,2011-04-07,STORE_2_252,20.000000000000004,0,0,-0.018098222092796185,-0.006438609547802829,0.084531964431726,0.084531964431726,,0.1075463278538414,,0.1346985738974562,,9.885318210459992,70.0,37.69565217391305,37.0,18.0,52.0,0.08747634507850731,0.11587171663797254,0.1346985738974562,0.1617290690943643,0.18249810261752997,12.53736104588541,2601.0,38.97517058498179
69,2011-04-08,STORE_2_252,39.0,0,0,0.05490087000054489,0.07299909209334107,0.06643374233892982,0.084531964431726,,0.1186117540040014,,0.19824799693127745,,9.763265306122454,70.0,37.714285714285715,37.0,18.0,52.0,0.08820748333283647,0.11587171663797254,0.1346985738974562,0.16099087373210433,0.18226207068390077,12.44715537858484,2640.0,38.97636571476457
70,2011-04-09,STORE_2_252,41.0,0,0,0.0053950318867061475,-0.04950583811383874,0.1213346123394747,0.1213346123394747,,0.10190606050114871,,0.12940223408750776,,9.67268399127157,70.0,37.76056338028169,37.0,18.0,52.0,0.08893862158716563,0.11587171663797254,0.1346985738974562,0.16025267836984436,0.18202603875027157,12.364077908813549,2681.0,38.97756084454734
71,2011-04-10,STORE_2_252,47.000000000000014,0,0,0.01579426718323193,0.010399235296525783,0.12672964422618085,0.11311428209278364,,0.15274307659109881,,0.18672757390146624,,9.666666666666664,70.0,37.888888888888886,37.5,18.0,52.0,0.08966975984149479,0.11724173532098697,0.13600670563087547,0.1600037983294749,0.18179000681664234,12.32489242938579,2728.0,38.97875597433011
72,2011-04-11,STORE_2_252,28.0,0,0,-0.05212301331358883,-0.06791728049682076,0.14252391140941278,0.084531964431726,,0.15776387796614963,,0.1346985738974562,,9.667855132294994,70.0,37.75342465753425,37.0,18.0,52.0,0.09040089809582395,0.11587171663797254,0.1346985738974562,0.1597549182891054,0.1815539748830131,12.29360812002839,2756.0,38.979951104112885
73,2011-04-12,STORE_2_252,27.000000000000004,0,0,-0.0029245530173166445,0.04919846029627219,0.09040089809582395,0.0695029740666064,,0.1399311008311332,,0.09619157697671936,,9.678597516435351,70.0,37.608108108108105,37.0,18.0,52.0,0.08820748333283647,0.11587171663797254,0.1346985738974562,0.15950603824873594,0.1813179429493839,12.272943364876562,2783.0,38.98114623389566
74,2011-04-13,STORE_2_252,24.0,0,0,-0.008893713159982511,-0.005969160142665866,0.08747634507850731,0.11311428209278364,,0.16025267836984436,,0.084531964431726,,9.723733333333335,70.0,37.42666666666667,37.0,18.0,52.0,0.08747634507850731,0.11587171663797254,0.1346985738974562,0.1592571582083665,0.1810819110157547,12.29059554044224,2807.0,38.98234136367844
75,2011-04-14,STORE_2_252,34.0,0,0,0.0289636959353166,0.03785740909529911,0.0785826319185248,0.1346985738974562,,0.10190606050114871,,0.06643374233892982,,9.638504155124652,70.0,37.38157894736842,36.5,18.0,52.0,0.08747634507850731,0.11449299936537809,0.1346985738974562,0.159008278167997,0.1808458790821255,12.214709280495276,2841.0,38.983536493461216
76,2011-04-15,STORE_2_252,36.99999999999999,0,0,0.008325388784131138,-0.02063830715118546,0.1075463278538414,0.19824799693127745,,0.11033922803801151,,0.1213346123394747,,9.517962556923596,70.0,37.37662337662338,37.0,18.0,52.0,0.08747634507850731,0.11587171663797254,0.1346985738974562,0.15875939812762754,0.1806098471484963,12.134161173965103,2878.0,38.98473162324399
77,2011-04-16,STORE_2_252,52.0,0,0,0.03938901617437281,0.03106362739024167,0.11587171663797254,0.12940223408750776,,0.1213346123394747,,0.12672964422618085,,9.59303090072321,70.0,37.56410256410256,37.0,18.0,52.0,0.08820748333283647,0.11587171663797254,0.1346985738974562,0.15851051808725805,0.180373815214867,12.16828936487237,2930.0,38.98592675302676
78,2011-04-17,STORE_2_252,39.0,0,0,-0.033926120472870636,-0.07331513664724344,0.15526073281234534,0.18672757390146624,,0.0695029740666064,,0.14252391140941278,,9.49046627143086,70.0,37.58227848101266,37.0,18.0,52.0,0.08893862158716563,0.11587171663797254,0.1346985738974562,0.1582616380468886,0.1801377832812378,12.09111518995823,2969.0,38.98712188280953
79,2011-04-18,STORE_2_252,32.0,0,0,-0.019428551838325994,0.014497568634544641,0.1213346123394747,0.1346985738974562,,0.09905821762832247,,0.09040089809582395,,9.438124999999998,70.0,37.5125,37.0,18.0,52.0,0.08966975984149479,0.11587171663797254,0.1346985738974562,0.15801275800651912,0.1799017513476086,12.030545248962817,3001.0,38.988317012592304
80,2011-04-19,STORE_2_252,21.0,0,0,-0.032403086434542316,-0.012974534596216322,0.10190606050114871,0.09619157697671936,,0.1320584777312478,,0.08747634507850731,,9.512879134278311,70.0,37.30864197530864,37.0,18.0,52.0,0.08747634507850731,0.11587171663797254,0.1346985738974562,0.15776387796614963,0.1796657194139794,12.095083686470137,3022.0,38.989512142375084
81,2011-04-20,STORE_2_252,36.0,0,0,0.04361130802617724,0.07601439446071956,0.0695029740666064,0.084531964431726,,0.084531964431726,,0.0785826319185248,,9.411659726353362,70.0,37.292682926829265,36.5,18.0,52.0,0.08820748333283647,0.11449299936537809,0.1340385498559041,0.15751356345076922,0.17942709367091716,12.021059509268886,3058.0,38.990707272157856
82,2011-04-21,STORE_2_252,34.0,0,0,-0.005567954238942241,-0.04917926226511948,0.11311428209278364,0.06643374233892982,,0.09040089809582395,,0.1075463278538414,,9.334591377558427,70.0,37.25301204819277,36.0,18.0,52.0,0.08893862158716563,0.11311428209278364,0.133378525814352,0.15726324893538876,0.17918846792785487,11.95300082078991,3092.0,38.991902401940635
83,2011-04-22,STORE_2_252,38.0,0,0,0.011065426150159999,0.01663338038910224,0.1075463278538414,0.1213346123394747,,0.081567485467987,,0.11587171663797254,,9.23299319727891,70.0,37.26190476190476,36.5,18.0,52.0,0.08966975984149479,0.11449299936537809,0.1327185017727999,0.15701293442000835,0.17894984218479262,11.881056145113975,3130.0,38.99309753172341
84,2011-04-23,STORE_2_252,42.00000000000001,0,0,0.01079048008350636,-0.0002749460666536391,0.1186117540040014,0.12672964422618085,,0.084531964431726,,0.15526073281234534,,9.183391003460207,70.0,37.31764705882353,37.0,18.0,52.0,0.09040089809582395,0.11587171663797254,0.1320584777312478,0.15676261990462795,0.1787112164417304,11.821300150782989,3172.0,38.99429266150618
85,2011-04-24,STORE_2_252,34.0,0,0,-0.02185590623366636,-0.03264638631717272,0.12940223408750776,0.14252391140941278,,0.084531964431726,,0.1213346123394747,,9.112493239588964,70.0,37.27906976744186,36.5,18.0,52.0,0.09040089809582395,0.11449299936537809,0.13139441682031278,0.15651230538924749,0.17847259069866817,11.75700158132636,3206.0,38.99548779128895
86,2011-04-25,STORE_2_252,36.99999999999999,0,0,0.008325388784131138,0.030181295017797496,0.1075463278538414,0.09040089809582395,,0.1213346123394747,,0.10190606050114871,,9.010701545778836,70.0,37.275862068965516,37.0,18.0,52.0,0.09040089809582395,0.11587171663797254,0.13073035590937776,0.15626199087386708,0.17823396495560592,11.688485344781522,3243.0,38.996682921071724
87,2011-04-26,STORE_2_252,24.0,0,0,-0.03728908471944774,-0.045614473503578876,0.11587171663797254,0.08747634507850731,,0.11311428209278364,,0.0695029740666064,,9.045454545454545,70.0,37.125,36.5,18.0,52.0,0.08966975984149479,0.11449299936537809,0.13006629499844277,0.15601167635848662,0.17799533921254362,11.706970612397566,3267.0,38.9978780508545
88,2011-04-27,STORE_2_252,28.0,0,0,0.011818266177299155,0.04910735089674689,0.0785826319185248,0.0785826319185248,,0.084531964431726,,0.11311428209278364,,9.03598030551698,70.0,37.02247191011236,36.0,18.0,52.0,0.09040089809582395,0.11311428209278364,0.12940223408750776,0.1557613618431062,0.17775671346948138,11.680381306129881,3295.0,38.99907318063728
89,2011-04-28,STORE_2_252,21.999999999999996,0,0,-0.017850230947212234,-0.02966849712451139,0.09040089809582395,0.1075463278538414,,0.0695029740666064,,0.1075463278538414,,9.096790123456787,70.0,36.855555555555554,36.0,18.0,52.0,0.08820748333283647,0.11311428209278364,0.12940223408750776,0.1555110473277258,0.17751808772641914,11.722024896126875,3317.0,39.000268310420054
90,2011-04-29,STORE_2_252,26.0,0,0,0.011981297283114284,0.029831528230326518,0.07255066714861172,0.11587171663797254,,0.11311428209278364,,0.1186117540040014,0.1213346123394747,9.187160493827161,70.0,36.71111111111111,36.0,18.0,52.0,0.08747634507850731,0.11311428209278364,0.12940223408750776,0.1555110473277258,0.17751808772641914,11.775278278106274,3304.0,39.001463440202826
91,2011-04-30,STORE_2_252,46.0,0,0,0.05539913639940719,0.043417839116292906,0.084531964431726,0.15526073281234534,,0.1346985738974562,,0.12940223408750776,0.1186117540040014,9.280000000000001,70.0,36.8,36.0,18.0,52.0,0.08747634507850731,0.11311428209278364,0.13139441682031278,0.1555110473277258,0.17751808772641914,11.815244390193545,3312.0,39.0026585699856
92,2011-05-01,STORE_2_252,52.99999999999999,0,0,0.017832777135016437,-0.03756635926439075,0.1399311008311332,0.1213346123394747,,0.19824799693127745,,0.1075463278538414,0.060229429937644983,9.276543209876543,70.0,37.18888888888889,36.0,20.0,50.0,0.08820748333283647,0.11311428209278364,0.1340385498559041,0.15776387796614963,0.17751808772641914,11.765398176737518,3347.0,39.00385369976837
93,2011-05-02,STORE_2_252,49.00000000000001,0,0,-0.010100326904325774,-0.02793310403934221,0.15776387796614963,0.10190606050114871,,0.12940223408750776,,0.11587171663797254,0.11587171663797254,9.417530864197529,70.0,37.32222222222222,36.0,20.0,50.0,0.08820748333283647,0.11311428209278364,0.1346985738974562,0.15776387796614963,0.17751808772641914,11.831046358103347,3359.0,39.00504882955115
94,2011-05-03,STORE_2_252,39.0,0,0,-0.02632893872234915,-0.016228611818023375,0.14766355106182386,0.0695029740666064,,0.18672757390146624,,0.0785826319185248,0.12404050571539961,9.405432098765433,70.0,37.31111111111111,36.0,20.0,50.0,0.08820748333283647,0.11311428209278364,0.1346985738974562,0.15776387796614963,0.17751808772641914,11.828972662796145,3358.0,39.00624395933393
95,2011-05-04,STORE_2_252,52.99999999999999,0,0,0.03642926562667492,0.06275820434902407,0.1213346123394747,0.11311428209278364,,0.1346985738974562,,0.09040089809582395,0.1399311008311332,9.490123456790124,70.0,37.388888888888886,36.0,20.0,50.0,0.08820748333283647,0.11311428209278364,0.1346985738974562,0.15776387796614963,0.17751808772641914,11.909484884420262,3365.0,39.0074390891167
96,2011-05-05,STORE_2_252,45.0,0,0,-0.02044116024254461,-0.05687042586921953,0.15776387796614963,0.1075463278538414,,0.09619157697671936,,0.07255066714861172,0.08747634507850731,9.472592592592594,70.0,37.58888888888889,36.5,20.0,50.0,0.09040089809582395,0.11449299936537809,0.1366666817670678,0.15776387796614963,0.17751808772641914,11.884173636447066,3383.0,39.00863421889947
97,2011-05-06,STORE_2_252,32.0,0,0,-0.03541665722245631,-0.014975496979911698,0.13732271772360502,0.1186117540040014,,0.084531964431726,,0.084531964431726,0.19596823063637892,9.149135802469138,70.0,37.17777777777778,36.0,20.0,50.0,0.09040089809582395,0.11311428209278364,0.1346985738974562,0.15776387796614963,0.17162684690060365,11.416111006461884,3346.0,39.009829348682246
98,2011-05-07,STORE_2_252,50.0,0,0,0.048304679574555046,0.08372133679701135,0.10190606050114871,0.12940223408750776,,0.06643374233892982,,0.1399311008311332,0.1748932045527344,9.02814814814815,70.0,37.06666666666667,36.0,20.0,50.0,0.09040089809582395,0.11311428209278364,0.1346985738974562,0.1555110473277258,0.16431275286227406,11.23877717367644,3336.0,39.01102447846502
99,2011-05-08,STORE_2_252,22.999999999999996,0,0,-0.0746336182969042,-0.12293829787145924,0.15021074007570376,0.1075463278538414,,0.1213346123394747,,0.15776387796614963,0.12672964422618085,9.127407407407407,70.0,36.86666666666667,36.0,20.0,50.0,0.08820748333283647,0.11311428209278364,0.1346985738974562,0.1555110473277258,0.16431275286227406,11.32780213119895,3318.0,39.0122196082478
100,2011-05-09,STORE_2_252,36.0,0,0,0.037537160313984075,0.11217077861088827,0.07557712177879956,0.11587171663797254,,0.12672964422618085,,0.14766355106182386,0.09330588873923117,9.053086419753088,70.0,36.94444444444444,36.0,20.0,50.0,0.08820748333283647,0.11311428209278364,0.1346985738974562,0.1555110473277258,0.16431275286227406,11.297171875496954,3325.0,39.01341473803057
101,2011-05-10,STORE_2_252,16.0,0,0,-0.05917908525282695,-0.09671624556681102,0.11311428209278364,0.0785826319185248,,0.14252391140941278,,0.1213346123394747,0.11587171663797254,9.26962962962963,70.0,36.71111111111111,36.0,16.0,54.0,0.08747634507850731,0.11311428209278364,0.1346985738974562,0.1555110473277258,0.16431275286227406,11.51085901034562,3304.0,39.01460986781335
102,2011-05-11,STORE_2_252,21.0,0,0,0.01556777722664971,0.07474686247947666,0.053935196839956685,0.09040089809582395,,0.09040089809582395,,0.15776387796614963,0.14252391140941278,9.304197530864199,70.0,36.422222222222224,35.5,16.0,54.0,0.08526805959342133,0.11172675506539757,0.1340385498559041,0.1555110473277258,0.16431275286227406,11.575815333021676,3278.0,39.01580499759612
103,2011-05-12,STORE_2_252,31.0,0,0,0.02955524356171607,0.01398746633506636,0.0695029740666064,0.07255066714861172,,0.08747634507850731,,0.13732271772360502,0.15274307659109881,9.177777777777777,70.0,36.2,35.0,16.0,54.0,0.08526805959342133,0.11033922803801151,0.13139441682031278,0.1555110473277258,0.16431275286227406,11.484430104774928,3258.0,39.01700012737889
104,2011-05-13,STORE_2_252,29.0,0,0,-0.005752328889091302,-0.03530757245080737,0.09905821762832247,0.084531964431726,,0.0785826319185248,,0.10190606050114871,0.1796657194139794,8.937037037037037,70.0,35.833333333333336,34.5,16.0,54.0,0.08526805959342133,0.10894277794592645,0.12940223408750776,0.1529948422132235,0.15913271818818173,11.174057032331532,3225.0,39.018195257161665
105,2011-05-14,STORE_2_252,38.0,0,0,0.02530586526477023,0.031058194153861532,0.09330588873923117,0.1399311008311332,,0.1075463278538414,,0.15021074007570376,0.1843863580865637,8.635308641975309,70.0,35.544444444444444,34.5,16.0,54.0,0.08526805959342133,0.10894277794592645,0.12940223408750776,0.1504639737272433,0.15776387796614963,10.766324016764383,3199.0,39.01939038694444
106,2011-05-15,STORE_2_252,46.0,0,0,0.021319346827131797,-0.003986518437638434,0.1186117540040014,0.15776387796614963,,0.11587171663797254,,0.07557712177879956,0.0695029740666064,8.596049382716048,70.0,35.82222222222222,35.0,16.0,54.0,0.08747634507850731,0.11033922803801151,0.12940223408750776,0.1504639737272433,0.15776387796614963,10.709208237477593,3224.0,39.020585516727216
107,2011-05-16,STORE_2_252,38.0,0,0,-0.021319346827131797,-0.04263869365426359,0.1399311008311332,0.14766355106182386,,0.15526073281234534,,0.11311428209278364,0.081567485467987,8.500000000000002,70.0,35.96666666666667,35.5,16.0,54.0,0.08820748333283647,0.11172675506539757,0.12940223408750776,0.1504639737272433,0.15776387796614963,10.64910187699023,3237.0,39.021780646509995
108,2011-05-17,STORE_2_252,21.0,0,0,-0.049108779937395,-0.027789433110263204,0.1186117540040014,0.1213346123394747,,0.1213346123394747,,0.053935196839956685,0.11033922803801151,8.655555555555555,70.0,35.81111111111111,35.5,16.0,54.0,0.08747634507850731,0.11172675506539757,0.12940223408750776,0.1504639737272433,0.15776387796614963,10.765002016464368,3223.0,39.02297577629277
109,2011-05-18,STORE_2_252,24.0,0,0,0.009079657851918402,0.0581884377893134,0.0695029740666064,0.15776387796614963,,0.10190606050114871,,0.0695029740666064,0.0695029740666064,8.622222222222224,70.0,35.84444444444444,35.5,16.0,54.0,0.08747634507850731,0.11172675506539757,0.12940223408750776,0.1504639737272433,0.15776387796614963,10.723188263843115,3226.0,39.02417090607554
110,2011-05-19,STORE_2_252,38.0,0,0,0.0400291220854766,0.030949464233558197,0.0785826319185248,0.13732271772360502,,0.0695029740666064,,0.09905821762832247,0.0785826319185248,8.511111111111111,70.0,36.0,36.0,16.0,54.0,0.08820748333283647,0.11311428209278364,0.12940223408750776,0.1504639737272433,0.15776387796614963,10.650737169191201,3240.0,39.02536603585831
111,2011-05-20,STORE_2_252,32.0,0,0,-0.016705693502852684,-0.05673481558832928,0.1186117540040014,0.10190606050114871,,0.11311428209278364,,0.09330588873923117,0.1451013342972235,8.422222222222222,70.0,35.82222222222222,35.5,16.0,54.0,0.08820748333283647,0.11172675506539757,0.12940223408750776,0.1504639737272433,0.15776387796614963,10.581495166093609,3224.0,39.026561165641084
112,2011-05-21,STORE_2_252,36.99999999999999,0,0,0.013965656136823823,0.030671349639676507,0.10190606050114871,0.15021074007570376,,0.1075463278538414,,0.1186117540040014,0.12672964422618085,8.377777777777778,70.0,35.77777777777778,35.5,16.0,54.0,0.08820748333283647,0.11172675506539757,0.12940223408750776,0.1504639737272433,0.15776387796614963,10.567894752533459,3220.0,39.02775629542386
113,2011-05-22,STORE_2_252,38.0,0,0,0.0027400373660288607,-0.011225618770794962,0.11587171663797254,0.07557712177879956,,0.1186117540040014,,0.1399311008311332,0.1186117540040014,8.37777777777778,70.0,35.77777777777778,35.5,16.0,54.0,0.08820748333283647,0.11172675506539757,0.12940223408750776,0.1504639737272433,0.15776387796614963,10.567894752533459,3220.0,39.028951425206635
114,2011-05-23,STORE_2_252,31.0,0,0,-0.01955353637567893,-0.02229357374170779,0.1186117540040014,0.11311428209278364,,0.12940223408750776,,0.1186117540040014,0.10473535052001298,8.400000000000002,70.0,35.75555555555555,35.5,16.0,54.0,0.08820748333283647,0.11172675506539757,0.12940223408750776,0.1504639737272433,0.15776387796614963,10.57590128027571,3218.0,39.030146554989415
115,2011-05-24,STORE_2_252,32.0,0,0,0.002847842872826245,0.022401379248505174,0.09905821762832247,0.053935196839956685,,0.1075463278538414,,0.0695029740666064,0.08747634507850731,8.344444444444445,70.0,35.81111111111111,35.5,16.0,54.0,0.09040089809582395,0.11172675506539757,0.12940223408750776,0.1504639737272433,0.15776387796614963,10.542471028216015,3223.0,39.03134168477219
116,2011-05-25,STORE_2_252,22.999999999999996,0,0,-0.02632893872234915,-0.029176781595175394,0.10190606050114871,0.0695029740666064,,0.11587171663797254,,0.0785826319185248,0.09619157697671936,8.42222222222222,70.0,35.733333333333334,35.5,16.0,54.0,0.08820748333283647,0.11172675506539757,0.12940223408750776,0.1504639737272433,0.15776387796614963,10.611420601927493,3216.0,39.03253681455496
117,2011-05-26,STORE_2_252,34.0,0,0,0.031969206075041834,0.05829814479739098,0.07557712177879956,0.09905821762832247,,0.0785826319185248,,0.1186117540040014,0.084531964431726,8.333333333333334,70.0,35.82222222222222,35.5,16.0,54.0,0.09040089809582395,0.11172675506539757,0.12940223408750776,0.1504639737272433,0.15776387796614963,10.562364582234412,3224.0,39.03373194433773
118,2011-05-27,STORE_2_252,30.000000000000004,0,0,-0.011354750877122038,-0.04332395695216387,0.1075463278538414,0.09330588873923117,,0.09040089809582395,,0.10190606050114871,0.12940223408750776,8.326419753086421,70.0,35.68888888888889,34.5,16.0,54.0,0.09040089809582395,0.10894277794592645,0.12873408662217603,0.1504639737272433,0.15776387796614963,10.559243721263545,3212.0,39.03492707412051
119,2011-05-28,STORE_2_252,38.0,0,0,0.022420177027282037,0.033774927904404076,0.09619157697671936,0.1186117540040014,,0.07255066714861172,,0.11587171663797254,0.14766355106182386,8.201481481481483,70.0,35.56666666666667,34.5,16.0,54.0,0.09040089809582395,0.10894277794592645,0.12672964422618085,0.1504639737272433,0.15776387796614963,10.466694100491255,3201.0,39.03612220390328
120,2011-05-29,STORE_2_252,31.0,0,0,-0.01955353637567893,-0.041973713402960966,0.1186117540040014,0.1399311008311332,,0.084531964431726,,0.1186117540040014,0.10190606050114871,8.212345679012346,70.0,35.55555555555556,34.5,16.0,54.0,0.09040089809582395,0.10894277794592645,0.12672964422618085,0.1504639737272433,0.15776387796614963,10.471052779787886,3200.0,39.03731733368606
121,2011-05-30,STORE_2_252,31.0,1,0,0.0,0.01955353637567893,0.09905821762832247,0.1186117540040014,,0.1399311008311332,,0.09905821762832247,0.09619157697671936,8.201481481481483,70.0,35.56666666666667,34.5,16.0,54.0,0.09040089809582395,0.10894277794592645,0.12672964422618085,0.1504639737272433,0.15776387796614963,10.465620549358077,3201.0,39.038512463468834
122,2011-05-31,STORE_2_252,24.999999999999996,0,0,-0.017490732160335462,-0.017490732160335462,0.09905821762832247,0.0695029740666064,,0.15776387796614963,,0.10190606050114871,0.07557712177879956,8.179753086419753,70.0,35.58888888888889,34.5,16.0,54.0,0.09040089809582395,0.10894277794592645,0.12672964422618085,0.1504639737272433,0.15776387796614963,10.44073100506377,3203.0,39.039707593251606
123,2011-06-01,STORE_2_252,29.0,0,0,0.01173840327124416,0.029229135431579623,0.081567485467987,0.0785826319185248,,0.14766355106182386,,0.07557712177879956,0.1399311008311332,8.128888888888888,70.0,35.4,34.0,16.0,54.0,0.09040089809582395,0.1075463278538414,0.12538088625450433,0.1504639737272433,0.15776387796614963,10.403975039820764,3186.0,39.04090272303438
124,2011-06-02,STORE_2_252,28.0,0,0,-0.0029049906434072126,-0.014643393914651373,0.09330588873923117,0.1186117540040014,,0.1213346123394747,,0.1075463278538414,0.1186117540040014,8.174814814814814,70.0,35.28888888888889,34.0,16.0,54.0,0.09040089809582395,0.1075463278538414,0.12538088625450433,0.1504639737272433,0.15776387796614963,10.429263544344982,3176.0,39.04209785281715
125,2011-06-03,STORE_2_252,21.0,0,0,-0.020897924029217557,-0.017992933385810345,0.09040089809582395,0.10190606050114871,,0.15776387796614963,,0.09619157697671936,0.16763463199244388,8.05925925925926,70.0,34.888888888888886,34.0,16.0,54.0,0.08820748333283647,0.1075463278538414,0.1213346123394747,0.14791826996321186,0.15776387796614963,10.276453334374805,3140.0,39.04329298259993
126,2011-06-04,STORE_2_252,35.0,0,0,0.04083625397140511,0.06173417800062267,0.0695029740666064,0.11587171663797254,,0.13732271772360502,,0.1186117540040014,0.12672964422618085,7.988148148148148,70.0,34.82222222222222,34.0,16.0,54.0,0.08820748333283647,0.1075463278538414,0.1213346123394747,0.14791826996321186,0.15776387796614963,10.255804361244897,3134.0,39.04448811238271
127,2011-06-05,STORE_2_252,34.0,0,0,-0.0027929001841701107,-0.04362915415557522,0.11033922803801151,0.1186117540040014,,0.10190606050114871,,0.09905821762832247,0.09619157697671936,7.946666666666667,70.0,34.86666666666667,34.0,16.0,54.0,0.08820748333283647,0.1075463278538414,0.1213346123394747,0.14791826996321186,0.15776387796614963,10.2433316209439,3138.0,39.04568324216548
128,2011-06-06,STORE_2_252,36.0,0,0,0.005567954238942241,0.008360854423112352,0.1075463278538414,0.09905821762832247,,0.15021074007570376,,0.09905821762832247,0.1075463278538414,7.950617283950617,70.0,34.888888888888886,34.0,16.0,54.0,0.08820748333283647,0.1075463278538414,0.1213346123394747,0.14791826996321186,0.15776387796614963,10.243599749610107,3140.0,39.04687837194825
129,2011-06-07,STORE_2_252,43.0,0,0,0.018944195638464154,0.013376241399521913,0.11311428209278364,0.10190606050114871,,0.07557712177879956,,0.081567485467987,0.1186117540040014,8.008641975308642,70.0,34.94444444444444,34.0,16.0,54.0,0.08820748333283647,0.1075463278538414,0.1213346123394747,0.14791826996321186,0.15776387796614963,10.274175229875256,3145.0,39.048073501731025
130,2011-06-08,STORE_2_252,43.0,0,0,0.0,-0.018944195638464154,0.1320584777312478,0.07557712177879956,,0.11311428209278364,,0.09330588873923117,0.10190606050114871,8.071111111111112,70.0,35.06666666666667,34.0,16.0,54.0,0.08820748333283647,0.1075463278538414,0.12538088625450433,0.14791826996321186,0.15776387796614963,10.30413901783533,3156.0,39.0492686315138
131,2011-06-09,STORE_2_252,45.0,0,0,0.005264239992357228,0.005264239992357228,0.1320584777312478,0.1075463278538414,,0.053935196839956685,,0.09040089809582395,0.15274307659109881,8.0,70.0,35.0,34.0,16.0,54.0,0.08820748333283647,0.1075463278538414,0.12538088625450433,0.14303787537465393,0.15776387796614963,10.218951330353562,3150.0,39.05046376129658
132,2011-06-10,STORE_2_252,32.0,0,0,-0.03541665722245631,-0.040680897214813536,0.13732271772360502,0.09619157697671936,,0.0695029740666064,,0.0695029740666064,0.15776387796614963,7.822962962962963,70.0,34.766666666666666,34.0,16.0,54.0,0.08820748333283647,0.1075463278538414,0.1213346123394747,0.14019038188896119,0.1566374626469377,10.041542922761566,3129.0,39.05165889107935
133,2011-06-11,STORE_2_252,35.0,0,0,0.008433167536862796,0.0438498247593191,0.10190606050114871,0.1186117540040014,,0.09905821762832247,,0.11033922803801151,0.1399311008311332,7.695308641975308,70.0,34.644444444444446,34.0,16.0,54.0,0.08820748333283647,0.1075463278538414,0.1213346123394747,0.14019038188896119,0.1566374626469377,9.969967386500828,3118.0,39.05285402086213
134,2011-06-12,STORE_2_252,50.99999999999999,0,0,0.042403848553087306,0.03397068101622451,0.11033922803801151,0.09905821762832247,,0.09330588873923117,,0.1075463278538414,0.16025267836984436,7.660493827160494,70.0,34.611111111111114,34.0,16.0,54.0,0.08820748333283647,0.1075463278538414,0.1213346123394747,0.14019038188896119,0.1541277875127844,9.909358242289581,3115.0,39.0540491506449
135,2011-06-13,STORE_2_252,34.0,0,0,-0.04519674873725742,-0.08760059729034472,0.15274307659109881,0.09905821762832247,,0.1186117540040014,,0.11311428209278364,0.10190606050114871,7.6392592592592585,70.0,34.63333333333333,34.0,16.0,54.0,0.08820748333283647,0.1075463278538414,0.1213346123394747,0.14019038188896119,0.1541277875127844,9.905678770791647,3117.0,39.05524428042767
136,2011-06-14,STORE_2_252,42.00000000000001,0,0,0.02185590623366636,0.06705265497092378,0.1075463278538414,0.081567485467987,,0.1399311008311332,,0.1320584777312478,0.11033922803801151,7.720493827160494,70.0,34.71111111111111,34.0,16.0,54.0,0.08820748333283647,0.1075463278538414,0.1213346123394747,0.14019038188896119,0.1541277875127844,9.93602507329659,3124.0,39.056439410210444
137,2011-06-15,STORE_2_252,52.0,0,0,0.025858498724837586,0.004002592491171228,0.12940223408750776,0.09330588873923117,,0.1186117540040014,,0.1320584777312478,0.1213346123394747,7.871358024691358,70.0,34.855555555555554,34.0,16.0,54.0,0.08820748333283647,0.1075463278538414,0.12538088625450433,0.14303787537465393,0.15526073281234534,10.092338969122345,3137.0,39.057634539993224
138,2011-06-16,STORE_2_252,50.0,0,0,-0.005049992736641584,-0.03090849146147917,0.15526073281234534,0.09040089809582395,,0.0695029740666064,,0.13732271772360502,0.0695029740666064,7.90074074074074,70.0,35.17777777777778,34.0,16.0,54.0,0.09040089809582395,0.1075463278538414,0.12873408662217603,0.14791826996321186,0.15526073281234534,10.107931892384004,3166.0,39.058829669775996
139,2011-06-17,STORE_2_252,50.99999999999999,0,0,0.002532336515395056,0.00758232925203664,0.15021074007570376,0.0695029740666064,,0.0785826319185248,,0.10190606050114871,0.09905821762832247,8.040000000000001,70.0,35.4,34.5,16.0,54.0,0.09040089809582395,0.10894277794592645,0.12940223408750776,0.15021074007570376,0.15526073281234534,10.234113476588261,3186.0,39.060024799558775
140,2011-06-18,STORE_2_252,59.99999999999999,0,0,0.022150127961635596,0.01961779144624054,0.15274307659109881,0.11033922803801151,,0.1186117540040014,,0.11033922803801151,0.1320584777312478,8.237283950617284,70.0,35.58888888888889,34.5,16.0,54.0,0.09040089809582395,0.10894277794592645,0.12940223408750776,0.1504639737272433,0.1566374626469377,10.528606771520785,3203.0,39.06121992934155
141,2011-06-19,STORE_2_252,57.99999999999999,0,0,-0.004825543889291323,-0.02697567185092692,0.1748932045527344,0.1075463278538414,,0.10190606050114871,,0.15274307659109881,0.084531964431726,8.387654320987656,70.0,35.94444444444444,35.0,16.0,54.0,0.09040089809582395,0.11033922803801151,0.12940223408750776,0.15274307659109881,0.15776387796614963,10.739364857991308,3235.0,39.06241505912432
142,2011-06-20,STORE_2_252,81.0,0,0,0.052498338466730604,0.05732388235602193,0.1700676606634431,0.11311428209278364,,0.11587171663797254,,0.1075463278538414,0.09040089809582395,8.859259259259257,81.0,36.53333333333333,35.5,16.0,65.0,0.09040089809582395,0.11172675506539757,0.13139441682031278,0.1529948422132235,0.164530958449661,11.708251195947913,3288.0,39.06361018890709
143,2011-06-21,STORE_2_252,62.0,0,0,-0.042900279716194284,-0.09539861818292489,0.2225659991301737,0.1320584777312478,,0.1186117540040014,,0.12940223408750776,0.081567485467987,9.05061728395062,81.0,36.94444444444444,36.0,16.0,65.0,0.09112714575667576,0.11311428209278364,0.1320584777312478,0.15526073281234534,0.1727217098025533,11.945909093489393,3325.0,39.064805318689864
144,2011-06-22,STORE_2_252,43.0,0,0,-0.047607241682731616,-0.004706961966537332,0.1796657194139794,0.1320584777312478,,0.09905821762832247,,0.15526073281234534,0.084531964431726,9.017777777777777,81.0,37.13333333333333,36.0,16.0,65.0,0.09330588873923117,0.11311428209278364,0.1320584777312478,0.15526073281234534,0.1727217098025533,11.905243863973306,3342.0,39.06600044847264
145,2011-06-23,STORE_2_252,40.0,0,0,-0.008017972015848182,0.039589269666883434,0.1320584777312478,0.13732271772360502,,0.10190606050114871,,0.15021074007570376,0.084531964431726,8.94320987654321,81.0,37.28888888888889,36.0,16.0,65.0,0.09402731079860321,0.11311428209278364,0.1320584777312478,0.15526073281234534,0.1727217098025533,11.849472035310498,3356.0,39.06719557825542
146,2011-06-24,STORE_2_252,46.0,0,0,0.015890595115733583,0.023908567131581765,0.12404050571539961,0.10190606050114871,,0.07557712177879956,,0.15274307659109881,0.1213346123394747,9.02962962962963,81.0,37.36666666666667,36.0,16.0,65.0,0.09402731079860321,0.11311428209278364,0.1340385498559041,0.15526073281234534,0.1727217098025533,11.883753426658515,3363.0,39.068390708038194
147,2011-06-25,STORE_2_252,36.0,0,0,-0.026816818738349554,-0.04270741385408314,0.1399311008311332,0.11033922803801151,,0.1075463278538414,,0.1748932045527344,0.11311428209278364,9.02962962962963,81.0,37.36666666666667,36.0,16.0,65.0,0.09402731079860321,0.11311428209278364,0.1340385498559041,0.15526073281234534,0.1727217098025533,11.883753426658515,3363.0,39.069585837820966
148,2011-06-26,STORE_2_252,59.0,0,0,0.059372852694072345,0.0861896714324219,0.11311428209278364,0.15274307659109881,,0.09619157697671936,,0.1700676606634431,0.084531964431726,9.176296296296298,81.0,37.733333333333334,36.0,16.0,65.0,0.09619157697671936,0.11311428209278364,0.1346985738974562,0.1555110473277258,0.17381047315808912,12.037208232080724,3396.0,39.07078096760374
149,2011-06-27,STORE_2_252,29.0,0,0,-0.07918124604762482,-0.13855409874169716,0.17248713478685598,0.1075463278538414,,0.1186117540040014,,0.2225659991301737,0.0695029740666064,9.095308641975304,81.0,37.82222222222222,36.0,16.0,65.0,0.09619157697671936,0.11311428209278364,0.1346985738974562,0.1555110473277258,0.17381047315808912,11.94140918958933,3404.0,39.07197609738651
150,2011-06-28,STORE_2_252,15.0,0,0,-0.04255235068546375,0.03662889536216107,0.09330588873923117,0.12940223408750776,,0.09905821762832247,,0.1796657194139794,0.11311428209278364,9.307901234567902,81.0,37.58888888888889,36.0,15.0,66.0,0.09402731079860321,0.11311428209278364,0.1346985738974562,0.1555110473277258,0.17381047315808912,12.180196161262817,3383.0,39.07317122716929
151,2011-06-29,STORE_2_252,30.000000000000004,0,0,0.045438038922951944,0.0879903896084157,0.050753538053767415,0.15526073281234534,,0.09905821762832247,,0.1320584777312478,0.1346985738974562,9.303703703703702,81.0,37.43333333333333,36.0,15.0,66.0,0.09402731079860321,0.11311428209278364,0.1340385498559041,0.1555110473277258,0.17381047315808912,12.186795211543101,3369.0,39.07436635695206
152,2011-06-30,STORE_2_252,39.0,0,0,0.025143035362755348,-0.020295003560196596,0.09619157697671936,0.15021074007570376,,0.081567485467987,,0.12404050571539961,0.19824799693127745,8.920987654320989,81.0,37.08888888888889,36.0,15.0,66.0,0.09402731079860321,0.11311428209278364,0.1320584777312478,0.15526073281234534,0.17139837143132017,11.683700780150946,3338.0,39.07556148673484
153,2011-07-01,STORE_2_252,70.99999999999999,0,0,0.0791812460476248,0.054038210684869456,0.1213346123394747,0.15274307659109881,,0.09330588873923117,,0.1399311008311332,0.12940223408750776,9.279012345679014,81.0,37.41111111111111,36.0,15.0,66.0,0.09402731079860321,0.11311428209278364,0.1340385498559041,0.1555110473277258,0.17381047315808912,12.208759467706974,3367.0,39.07675661651761
154,2011-07-02,STORE_2_252,65.0,0,0,-0.013788284485633268,-0.09296953053325807,0.2005158583870995,0.1748932045527344,,0.09040089809582395,,0.11311428209278364,0.18672757390146624,9.279012345679016,81.0,37.41111111111111,36.0,15.0,66.0,0.09402731079860321,0.11311428209278364,0.1340385498559041,0.1555110473277258,0.17381047315808912,12.208759467706972,3367.0,39.077951746300386
155,2011-07-03,STORE_2_252,63.0,0,0,-0.0046951212083798655,0.009093163277253402,0.18672757390146624,0.1700676606634431,,0.0695029740666064,,0.17248713478685598,0.1346985738974562,9.513580246913584,81.0,37.62222222222222,36.0,15.0,66.0,0.09402731079860321,0.11311428209278364,0.1360066577255157,0.15776387796614963,0.17751808772641914,12.485117232513797,3386.0,39.07914687608316
156,2011-07-04,STORE_2_252,52.99999999999999,1,0,-0.024268574726936748,-0.019573453518556883,0.18203245269308638,0.2225659991301737,,0.11033922803801151,,0.09330588873923117,0.09619157697671936,9.622469135802467,81.0,37.87777777777778,36.0,15.0,66.0,0.09402731079860321,0.11311428209278364,0.13732271772360502,0.15776387796614963,0.17751808772641914,12.562497942559197,3409.0,39.08034200586594
157,2011-07-05,STORE_2_252,74.00000000000001,0,0,0.049485363079918326,0.07375393780685507,0.15776387796614963,0.1796657194139794,,0.1075463278538414,,0.050753538053767415,0.084531964431726,9.98222222222223,81.0,38.41111111111111,36.5,15.0,66.0,0.09619157697671936,0.11449299936537809,0.13927900505425114,0.15899425623587907,0.18096742271748822,13.06156076194868,3457.0,39.08153713564871
158,2011-07-06,STORE_2_252,63.0,0,0,-0.02521678835298158,-0.0747021514328999,0.20724924104606796,0.1320584777312478,,0.11311428209278364,,0.09619157697671936,0.06643374233892982,10.13580246913581,81.0,38.888888888888886,37.0,15.0,66.0,0.09690823713962013,0.11587171663797254,0.1399311008311332,0.1703096080757844,0.18203245269308638,13.166559995775172,3500.0,39.08273226543149
159,2011-07-07,STORE_2_252,62.0,0,0,-0.0023667332791069695,0.02285005507387461,0.18203245269308638,0.12404050571539961,,0.1320584777312478,,0.1213346123394747,0.1213346123394747,10.446419753086401,81.0,39.144444444444446,37.0,15.0,66.0,0.09690823713962013,0.11587171663797254,0.1399311008311332,0.17272774176344385,0.18203245269308638,13.390052580735313,3523.0,39.08392739521426
160,2011-07-08,STORE_2_252,57.0,0,0,-0.012031087421535525,-0.009664354142428555,0.1796657194139794,0.1399311008311332,,0.1320584777312478,,0.2005158583870995,0.12672964422618085,10.667654320987646,81.0,39.32222222222222,37.0,15.0,66.0,0.09690823713962013,0.11587171663797254,0.1418757087648429,0.17272774176344385,0.18203245269308638,13.520544316030616,3539.0,39.08512252499703
161,2011-07-09,STORE_2_252,55.0,0,0,-0.004907334494744148,0.007123752926791377,0.16763463199244388,0.11311428209278364,,0.13732271772360502,,0.18672757390146624,0.14252391140941278,10.778271604938288,81.0,39.41111111111111,37.0,15.0,66.0,0.09690823713962013,0.11587171663797254,0.14573043850415118,0.17272774176344385,0.18203245269308638,13.597665401440725,3547.0,39.086317654779805
162,2011-07-10,STORE_2_252,46.0,0,0,-0.022796196666566543,-0.017888862171822395,0.16272729749769974,0.17248713478685598,,0.10190606050114871,,0.18203245269308638,0.09040089809582395,10.769135802469128,81.0,39.611111111111114,37.0,15.0,66.0,0.09905821762832247,0.11587171663797254,0.14573043850415118,0.17272774176344385,0.18203245269308638,13.560264526640305,3565.0,39.08751278456258
163,2011-07-11,STORE_2_252,50.99999999999999,0,0,0.012811975759965621,0.035608172426532164,0.1399311008311332,0.09330588873923117,,0.11033922803801151,,0.15776387796614963,0.08747634507850731,10.808888888888873,81.0,39.87777777777778,37.5,15.0,66.0,0.09905821762832247,0.11724173532098697,0.1495739428222338,0.17272774176344385,0.18203245269308638,13.545452222244876,3589.0,39.088707914345356
164,2011-07-12,STORE_2_252,34.0,0,0,-0.04519674873725742,-0.05800872449722304,0.15274307659109881,0.050753538053767415,,0.15274307659109881,,0.20724924104606796,0.0785826319185248,10.720000000000018,81.0,39.98888888888889,37.5,15.0,66.0,0.09905821762832247,0.11724173532098697,0.1495739428222338,0.17272774176344385,0.18203245269308638,13.454454543613698,3599.0,39.089903044128135
165,2011-07-13,STORE_2_252,30.000000000000004,0,0,-0.011354750877122038,0.03384199786013538,0.1075463278538414,0.09619157697671936,,0.1075463278538414,,0.18203245269308638,0.1075463278538414,10.755555555555558,81.0,39.94444444444444,37.5,15.0,66.0,0.09905821762832247,0.11724173532098697,0.1495739428222338,0.17272774176344385,0.18203245269308638,13.48104046188873,3595.0,39.09109817391091
166,2011-07-14,STORE_2_252,33.0,0,0,0.008543773543293623,0.01989852442041566,0.09619157697671936,0.1213346123394747,,0.12940223408750776,,0.1796657194139794,0.11587171663797254,10.791111111111105,81.0,39.9,37.5,15.0,66.0,0.09905821762832247,0.11724173532098697,0.1495739428222338,0.17272774176344385,0.18203245269308638,13.497440456486718,3591.0,39.09229330369368
167,2011-07-15,STORE_2_252,42.00000000000001,0,0,0.024666883567494774,0.01612311002420115,0.10473535052001298,0.2005158583870995,,0.15526073281234534,,0.16763463199244388,0.15526073281234534,10.657777777777778,81.0,39.78888888888889,37.5,15.0,66.0,0.09905821762832247,0.11724173532098697,0.14573043850415118,0.17272774176344385,0.18203245269308638,13.43774195554893,3581.0,39.09348843347645
168,2011-07-16,STORE_2_252,47.000000000000014,0,0,0.013121677321905029,-0.011545206245589745,0.12940223408750776,0.18672757390146624,,0.15021074007570376,,0.16272729749769974,0.1213346123394747,10.744938271604921,81.0,39.87777777777778,37.5,15.0,66.0,0.09905821762832247,0.11724173532098697,0.1463786411487211,0.17272774176344385,0.18203245269308638,13.458907728840154,3589.0,39.094683563259224
169,2011-07-17,STORE_2_252,40.0,0,0,-0.018483405694013175,-0.0316050830159182,0.14252391140941278,0.18203245269308638,,0.15274307659109881,,0.1399311008311332,0.10190606050114871,10.6725925925926,81.0,39.96666666666667,38.0,15.0,66.0,0.09905821762832247,0.1186117540040014,0.1463786411487211,0.17272774176344385,0.18203245269308638,13.432686948324426,3597.0,39.095878693042
170,2011-07-18,STORE_2_252,36.99999999999999,0,0,-0.008168789077427074,0.0103146166165861,0.12404050571539961,0.15776387796614963,,0.1748932045527344,,0.15274307659109881,0.0695029740666064,10.52888888888887,81.0,40.144444444444446,38.0,15.0,66.0,0.09905821762832247,0.1186117540040014,0.1463786411487211,0.17272774176344385,0.18203245269308638,13.283901815381622,3613.0,39.097073822824775
171,2011-07-19,STORE_2_252,29.0,0,0,-0.02256582789874137,-0.014397038821314295,0.11587171663797254,0.20724924104606796,,0.1700676606634431,,0.1075463278538414,0.11311428209278364,10.591111111111129,81.0,40.06666666666667,38.0,15.0,66.0,0.09905821762832247,0.1186117540040014,0.1463786411487211,0.17272774176344385,0.18203245269308638,13.32885692646943,3606.0,39.098268952607555
172,2011-07-20,STORE_2_252,43.0,0,0,0.038752588992016626,0.061318416890757996,0.09330588873923117,0.18203245269308638,,0.2225659991301737,,0.09619157697671936,0.1075463278538414,10.574074074074062,81.0,40.166666666666664,38.0,15.0,66.0,0.09905821762832247,0.1186117540040014,0.1463786411487211,0.17272774176344385,0.18203245269308638,13.31658592410823,3615.0,39.09946408239033
173,2011-07-21,STORE_2_252,50.99999999999999,0,0,0.020684598859851022,-0.018067990132165604,0.1320584777312478,0.1796657194139794,,0.1796657194139794,,0.10473535052001298,0.1186117540040014,10.692839506172845,81.0,40.31111111111111,38.0,15.0,66.0,0.09905821762832247,0.1186117540040014,0.1495739428222338,0.17272774176344385,0.18203245269308638,13.36324360514456,3628.0,39.1006592121731
174,2011-07-22,STORE_2_252,47.000000000000014,0,0,-0.01021916518168603,-0.030903764041537052,0.15274307659109881,0.16763463199244388,,0.1320584777312478,,0.12940223408750776,0.12940223408750776,10.757037037037039,81.0,40.36666666666667,38.0,15.0,66.0,0.09905821762832247,0.1186117540040014,0.1495739428222338,0.17272774176344385,0.18203245269308638,13.380725698732455,3633.0,39.10185434195587
175,2011-07-23,STORE_2_252,65.0,0,0,0.04420366249205346,0.05442282767373949,0.14252391140941278,0.16272729749769974,,0.12404050571539961,,0.14252391140941278,0.1075463278538414,11.005925925925926,81.0,40.71111111111111,38.0,15.0,66.0,0.09905821762832247,0.1186117540040014,0.15021074007570376,0.17537045603885895,0.1846147693576953,13.611994417056874,3664.0,39.10304947173865
176,2011-07-24,STORE_2_252,50.0,0,0,-0.036516833825762485,-0.08072049631781594,0.18672757390146624,0.1399311008311332,,0.1399311008311332,,0.12404050571539961,0.11587171663797254,11.083950617283968,81.0,40.855555555555554,38.0,15.0,66.0,0.09905821762832247,0.1186117540040014,0.15021074007570376,0.17537045603885895,0.1846147693576953,13.64111523918734,3677.0,39.10424460152142
177,2011-07-25,STORE_2_252,35.0,0,0,-0.03987151203769225,-0.0033546782119297652,0.15021074007570376,0.15274307659109881,,0.11311428209278364,,0.11587171663797254,0.0785826319185248,10.975308641975305,81.0,40.977777777777774,38.0,15.0,66.0,0.09905821762832247,0.1186117540040014,0.15021074007570376,0.17537045603885895,0.1846147693576953,13.537279179750698,3688.0,39.1054397313042
178,2011-07-26,STORE_2_252,28.0,0,0,-0.019938329942187555,0.019933182095504695,0.11033922803801151,0.1075463278538414,,0.17248713478685598,,0.09330588873923117,0.09040089809582395,10.975308641975307,81.0,40.977777777777774,38.0,15.0,66.0,0.09905821762832247,0.1186117540040014,0.15021074007570376,0.17537045603885895,0.1846147693576953,13.537279179750698,3688.0,39.106634861086974
179,2011-07-27,STORE_2_252,44.0,0,0,0.044297675801632255,0.06423600574381981,0.09040089809582395,0.09619157697671936,,0.09330588873923117,,0.1320584777312478,0.07255066714861172,10.819753086419741,81.0,41.22222222222222,38.5,15.0,66.0,0.09977017834652903,0.11997318317173805,0.15021074007570376,0.17537045603885895,0.1846147693576953,13.388556053902505,3710.0,39.107829990869746
180,2011-07-28,STORE_2_252,28.0,0,0,-0.044297675801632255,-0.08859535160326451,0.1346985738974562,0.10473535052001298,0.1213346123394747,0.050753538053767415,,0.15274307659109881,0.084531964431726,10.799506172839498,81.0,41.24444444444445,38.5,15.0,66.0,0.09977017834652903,0.11997318317173805,0.15021074007570376,0.17537045603885895,0.1846147693576953,13.364644882448523,3712.0,39.10902512065252
181,2011-07-29,STORE_2_252,33.0,0,0,0.014334452424189029,0.058632128225821284,0.09040089809582395,0.12940223408750776,0.1186117540040014,0.09619157697671936,,0.14252391140941278,0.1399311008311332,10.822222222222226,81.0,41.1,38.0,15.0,66.0,0.09977017834652903,0.1186117540040014,0.15021074007570376,0.17537045603885895,0.1846147693576953,13.382908771676329,3699.0,39.11022025043529
182,2011-07-30,STORE_2_252,29.0,0,0,-0.011429461780781816,-0.025763914204970845,0.10473535052001298,0.14252391140941278,0.060229429937644983,0.1213346123394747,,0.18672757390146624,0.15776387796614963,10.788888888888899,81.0,40.833333333333336,38.0,15.0,66.0,0.09905821762832247,0.1186117540040014,0.15021074007570376,0.17537045603885895,0.1846147693576953,13.382237094855308,3675.0,39.11141538021807
183,2011-07-31,STORE_2_252,29.0,0,0,0.0,0.011429461780781816,0.09330588873923117,0.12404050571539961,0.11587171663797254,0.2005158583870995,,0.15021074007570376,0.14766355106182386,10.795061728395057,81.0,40.611111111111114,38.0,15.0,66.0,0.09905821762832247,0.1186117540040014,0.15021074007570376,0.17537045603885895,0.1846147693576953,13.411126057208884,3655.0,39.11261051000085
184,2011-08-01,STORE_2_252,35.0,0,0,0.017033339298780342,0.017033339298780342,0.09330588873923117,0.11587171663797254,0.12404050571539961,0.18672757390146624,,0.11033922803801151,0.1213346123394747,10.832592592592603,81.0,40.56666666666667,38.0,15.0,66.0,0.09905821762832247,0.1186117540040014,0.15021074007570376,0.17537045603885895,0.1846147693576953,13.423147875085213,3651.0,39.11380563978362
185,2011-08-02,STORE_2_252,44.0,0,0,0.0243593458594447,0.007326006560664358,0.11033922803801151,0.09330588873923117,0.1399311008311332,0.18203245269308638,,0.09040089809582395,0.15776387796614963,10.717037037037043,81.0,40.46666666666667,38.0,15.0,66.0,0.09905821762832247,0.1186117540040014,0.148289032909131,0.17537045603885895,0.1846147693576953,13.362869906379824,3642.0,39.11500076956639
186,2011-08-03,STORE_2_252,64.0,0,0,0.04968778418910749,0.025328438329662792,0.1346985738974562,0.1320584777312478,0.08747634507850731,0.15776387796614963,,0.1346985738974562,0.13732271772360502,10.960987654320993,81.0,40.67777777777778,38.0,15.0,66.0,0.09905821762832247,0.1186117540040014,0.15021074007570376,0.1796657194139794,0.18567402678476008,13.58355563798695,3661.0,39.116195899349165
187,2011-08-04,STORE_2_252,45.0,0,0,-0.04706364036295868,-0.09675142455206617,0.1843863580865637,0.15274307659109881,0.19596823063637892,0.20724924104606796,,0.09040089809582395,0.10190606050114871,10.931851851851848,81.0,40.82222222222222,38.0,15.0,66.0,0.09905821762832247,0.1186117540040014,0.15021074007570376,0.1796657194139794,0.18567402678476008,13.55933923166983,3674.0,39.11739102913194
188,2011-08-05,STORE_2_252,66.0,0,0,0.05173351849644389,0.09879715885940257,0.13732271772360502,0.14252391140941278,0.1748932045527344,0.18203245269308638,,0.10473535052001298,0.15021074007570376,11.133333333333333,81.0,41.0,38.0,15.0,66.0,0.09905821762832247,0.1186117540040014,0.15021074007570376,0.17990239274189013,0.18672757390146624,13.784048752090222,3690.0,39.11858615891472
189,2011-08-06,STORE_2_252,56.0,0,0,-0.02386834017469236,-0.07560185867113625,0.1890562362200489,0.18672757390146624,0.12672964422618085,0.1796657194139794,,0.09330588873923117,0.07557712177879956,11.140740740740743,81.0,41.36666666666667,38.0,15.0,66.0,0.09905821762832247,0.1186117540040014,0.15210999246225004,0.17990239274189013,0.18672757390146624,13.738693001638056,3723.0,39.11978128869749
190,2011-08-07,STORE_2_252,48.00000000000002,0,0,-0.02008656174813306,0.0037817784265593013,0.16518789604535655,0.15021074007570376,0.09330588873923117,0.16763463199244388,,0.09330588873923117,0.11311428209278364,11.166666666666666,81.0,41.5,38.0,15.0,66.0,0.09905821762832247,0.1186117540040014,0.15210999246225004,0.17990239274189013,0.18672757390146624,13.744253140204544,3735.0,39.12097641848027
191,2011-08-08,STORE_2_252,38.0,0,0,-0.026489580293222098,-0.00640301854508904,0.1451013342972235,0.11033922803801151,0.11587171663797254,0.16272729749769974,,0.11033922803801151,0.053935196839956685,10.943950617283942,81.0,41.74444444444445,38.0,15.0,66.0,0.09977017834652903,0.1186117540040014,0.15210999246225004,0.17990239274189013,0.18672757390146624,13.47870656208401,3757.0,39.12217154826304
192,2011-08-09,STORE_2_252,52.99999999999999,0,0,0.03915212396214823,0.06564170425537033,0.1186117540040014,0.09040089809582395,0.14252391140941278,0.1399311008311332,,0.1346985738974562,0.0695029740666064,10.866666666666669,81.0,42.1,38.5,15.0,66.0,0.10190606050114871,0.11997318317173805,0.15274307659109881,0.17990239274189013,0.18672757390146624,13.346758222736325,3789.0,39.12336667804581
193,2011-08-10,STORE_2_252,52.0,0,0,-0.002503145153804287,-0.04165526911595252,0.15776387796614963,0.1346985738974562,0.15274307659109881,0.15274307659109881,,0.1843863580865637,0.09905821762832247,10.874074074074082,81.0,42.333333333333336,39.5,15.0,66.0,0.10190606050114871,0.12268755902743717,0.15274307659109881,0.17990239274189013,0.18672757390146624,13.334082375963815,3810.0,39.124561807828584
194,2011-08-11,STORE_2_252,31.0,0,0,-0.056202515184022875,-0.05369937003021859,0.15526073281234534,0.09040089809582395,0.1796657194139794,0.1075463278538414,,0.13732271772360502,0.09330588873923117,10.853827160493838,81.0,42.355555555555554,39.5,15.0,66.0,0.10190606050114871,0.12268755902743717,0.15274307659109881,0.17990239274189013,0.18672757390146624,13.313262046437137,3812.0,39.12575693761136
195,2011-08-12,STORE_2_252,49.00000000000001,0,0,0.04860533343350139,0.10480784861752426,0.09905821762832247,0.10473535052001298,0.1843863580865637,0.09619157697671936,,0.1890562362200489,0.1186117540040014,10.887407407407407,81.0,42.477777777777774,40.0,15.0,66.0,0.10190606050114871,0.12404050571539961,0.15274307659109881,0.17990239274189013,0.18672757390146624,13.323315525021387,3823.0,39.126952067394136
196,2011-08-13,STORE_2_252,68.0,0,0,0.04601288279497018,-0.00259245063853121,0.14766355106182386,0.09330588873923117,0.0695029740666064,0.10473535052001298,,0.16518789604535655,0.1399311008311332,11.148148148148138,81.0,42.72222222222222,40.0,15.0,66.0,0.10190606050114871,0.12404050571539961,0.15274307659109881,0.18203245269308638,0.18800833817668672,13.587856258544667,3845.0,39.128147197176915
197,2011-08-14,STORE_2_252,74.00000000000001,0,0,0.013572807189273922,-0.032440075605696256,0.19367643385679403,0.09330588873923117,0.081567485467987,0.12940223408750776,,0.1451013342972235,0.1186117540040014,11.471851851851863,81.0,43.12222222222222,41.0,15.0,66.0,0.10190606050114871,0.1267213699014537,0.1546313187570337,0.18226784323243414,0.1915973449202587,13.971743376678887,3881.0,39.12934232695969
198,2011-08-15,STORE_2_252,49.00000000000001,0,0,-0.0595856899842441,-0.07315849717351802,0.20724924104606796,0.11033922803801151,0.11033922803801151,0.14252391140941278,,0.1186117540040014,0.0695029740666064,11.325925925925914,81.0,43.43333333333333,42.0,15.0,66.0,0.10261338300586478,0.12940223408750776,0.1546313187570337,0.18226784323243414,0.1915973449202587,13.784089509122667,3909.0,39.13053745674246
199,2011-08-16,STORE_2_252,52.0,0,0,0.007597181750521487,0.06718287173476559,0.14766355106182386,0.1346985738974562,0.0695029740666064,0.12404050571539961,,0.15776387796614963,0.0785826319185248,11.23283950617283,81.0,43.74444444444445,42.5,15.0,66.0,0.10473535052001298,0.13073035590937776,0.15526073281234534,0.18226784323243414,0.1915973449202587,13.655933485148918,3937.0,39.13173258652523
200,2011-08-17,STORE_2_252,31.0,0,0,-0.056202515184022875,-0.06379969693454436,0.15526073281234534,0.1843863580865637,0.0785826319185248,0.11587171663797254,,0.15526073281234534,0.1186117540040014,11.303703703703695,81.0,43.666666666666664,42.5,15.0,66.0,0.10261338300586478,0.13073035590937776,0.15526073281234534,0.18226784323243414,0.1915973449202587,13.708850581637504,3930.0,39.132927716308004
201,2011-08-18,STORE_2_252,43.0,0,0,0.033000260102925325,0.0892027752869482,0.09905821762832247,0.13732271772360502,0.1451013342972235,0.09330588873923117,,0.09905821762832247,0.10190606050114871,11.192345679012346,81.0,43.78888888888889,43.0,15.0,66.0,0.10473535052001298,0.1320584777312478,0.15526073281234534,0.18226784323243414,0.1915973449202587,13.6525870655719,3941.0,39.13412284609078
202,2011-08-19,STORE_2_252,33.0,0,0,-0.02732312721123481,-0.060323387314160135,0.1320584777312478,0.1890562362200489,0.12672964422618085,0.1320584777312478,,0.14766355106182386,0.11587171663797254,11.232839506172834,81.0,43.74444444444445,43.0,15.0,66.0,0.10473535052001298,0.1320584777312478,0.15526073281234534,0.18226784323243414,0.1915973449202587,13.681416175392611,3937.0,39.13531797587356
203,2011-08-20,STORE_2_252,52.99999999999999,0,0,0.05302852744613665,0.08035165465737146,0.10473535052001298,0.16518789604535655,0.1186117540040014,0.15274307659109881,,0.19367643385679403,0.1186117540040014,11.282962962962971,81.0,43.91111111111111,43.0,15.0,66.0,0.10473535052001298,0.1320584777312478,0.15526073281234534,0.18226784323243414,0.1915973449202587,13.702000546499756,3952.0,39.136513105656334
204,2011-08-21,STORE_2_252,70.0,0,0,0.040484118965127824,-0.012544408481008823,0.15776387796614963,0.1451013342972235,0.10473535052001298,0.14252391140941278,,0.20724924104606796,0.09905821762832247,11.463950617283949,81.0,44.34444444444444,43.0,15.0,66.0,0.10473535052001298,0.1320584777312478,0.15713809167769854,0.18462047966805398,0.1961907935477599,13.904296572320234,3991.0,39.137708235439106
205,2011-08-22,STORE_2_252,54.0,0,0,-0.037995318561433095,-0.07847943752656092,0.19824799693127745,0.1186117540040014,0.08747634507850731,0.18672757390146624,,0.14766355106182386,0.10190606050114871,11.450370370370365,81.0,44.58888888888889,43.0,15.0,66.0,0.10543809485347008,0.1320584777312478,0.15776387796614963,0.18462047966805398,0.1961907935477599,13.878197632908874,4013.0,39.13890336522188
206,2011-08-23,STORE_2_252,50.0,0,0,-0.010041938294140601,0.027953380267292494,0.16025267836984436,0.15776387796614963,0.09619157697671936,0.15021074007570376,,0.15526073281234534,0.07557712177879956,11.283950617283955,81.0,44.888888888888886,43.5,15.0,66.0,0.1075463278538414,0.133378525814352,0.15776387796614963,0.18462047966805398,0.1961907935477599,13.696915460554722,4040.0,39.14009849500465
207,2011-08-24,STORE_2_252,41.0,0,0,-0.023481095849522904,-0.013439157555382303,0.15021074007570376,0.15526073281234534,0.084531964431726,0.11033922803801151,,0.09905821762832247,0.1075463278538414,11.209629629629633,81.0,44.96666666666667,43.5,15.0,66.0,0.1075463278538414,0.133378525814352,0.15776387796614963,0.18462047966805398,0.1961907935477599,13.65419637516926,4047.0,39.14129362478743
208,2011-08-25,STORE_2_252,26.0,0,0,-0.04219767979445485,-0.018716583944931947,0.12672964422618085,0.09905821762832247,0.12940223408750776,0.09040089809582395,,0.1320584777312478,0.09619157697671936,11.252098765432098,81.0,44.922222222222224,43.5,15.0,66.0,0.1075463278538414,0.133378525814352,0.15776387796614963,0.18462047966805398,0.1961907935477599,13.70985684759411,4043.0,39.1424887545702
209,2011-08-26,STORE_2_252,45.0,0,0,0.05279075329187902,0.09498843308633387,0.084531964431726,0.14766355106182386,0.14766355106182386,0.1346985738974562,,0.10473535052001298,0.1186117540040014,11.177777777777777,81.0,45.0,44.0,15.0,66.0,0.1075463278538414,0.1346985738974562,0.15776387796614963,0.18462047966805398,0.1961907935477599,13.689986498790956,4050.0,39.14368388435298
210,2011-08-27,STORE_2_252,55.0,0,0,0.025404579774094715,-0.0273861735177843,0.13732271772360502,0.19367643385679403,0.10190606050114871,0.09040089809582395,,0.15776387796614963,0.09905821762832247,11.151111111111108,81.0,45.266666666666666,44.5,15.0,66.0,0.1075463278538414,0.13601064581053063,0.15776387796614963,0.18462047966805398,0.1961907935477599,13.6478997849239,4074.0,39.14487901413575
211,2011-08-28,STORE_2_252,57.99999999999999,0,0,0.007340363165743352,-0.018064216608351363,0.16272729749769974,0.20724924104606796,0.09619157697671936,0.10473535052001298,,0.19824799693127745,0.09905821762832247,11.147407407407409,81.0,45.56666666666667,45.0,15.0,66.0,0.10824455289988393,0.13732271772360502,0.15963047826892068,0.18462047966805398,0.1961907935477599,13.627508531057497,4101.0,39.146074143918526
212,2011-08-29,STORE_2_252,41.0,0,0,-0.04333801643726223,-0.050678379603005586,0.1700676606634431,0.14766355106182386,0.07557712177879956,0.09330588873923117,,0.16025267836984436,0.081567485467987,10.977530864197531,81.0,45.74444444444445,45.0,15.0,66.0,0.11033922803801151,0.13732271772360502,0.15963047826892068,0.18462047966805398,0.1961907935477599,13.459519926586617,4117.0,39.1472692737013
213,2011-08-30,STORE_2_252,26.0,0,0,-0.04219767979445485,0.0011403366428073825,0.12672964422618085,0.15526073281234534,0.1399311008311332,0.09330588873923117,,0.15021074007570376,0.09330588873923117,11.009382716049382,81.0,45.71111111111111,45.0,15.0,66.0,0.11033922803801151,0.13732271772360502,0.15963047826892068,0.18462047966805398,0.1961907935477599,13.50509221018106,4114.0,39.14846440348407
214,2011-08-31,STORE_2_252,38.0,0,0,0.03407978957227539,0.07627746936673024,0.084531964431726,0.09905821762832247,0.1186117540040014,0.11033922803801151,,0.12672964422618085,0.09040089809582395,10.903209876543208,81.0,45.82222222222222,45.0,15.0,66.0,0.11033922803801151,0.13732271772360502,0.15963047826892068,0.18462047966805398,0.1961907935477599,13.398455200052549,4124.0,39.14965953326685
215,2011-09-01,STORE_2_252,45.0,0,0,0.018710963719603624,-0.01536882585267177,0.1186117540040014,0.1320584777312478,0.16763463199244388,0.1346985738974562,,0.084531964431726,0.0695029740666064,10.652345679012345,81.0,46.08888888888889,45.0,15.0,66.0,0.11033922803801151,0.13732271772360502,0.15963047826892068,0.18462047966805398,0.1961907935477599,13.135118417060893,4148.0,39.15085466304963
216,2011-09-02,STORE_2_252,57.0,0,0,0.030311914268838863,0.01160095054923524,0.13732271772360502,0.10473535052001298,0.12672964422618085,0.1843863580865637,,0.13732271772360502,0.11033922803801151,10.666666666666666,81.0,46.333333333333336,45.0,15.0,66.0,0.11103299155170454,0.13732271772360502,0.16210864271573588,0.18462047966805398,0.1961907935477599,13.131144896471705,4170.0,39.1520497928324
217,2011-09-03,STORE_2_252,59.0,0,0,0.0048525027944121,-0.025459411474426763,0.16763463199244388,0.15776387796614963,0.09619157697671936,0.13732271772360502,,0.16272729749769974,0.1075463278538414,10.682716049382714,81.0,46.611111111111114,45.5,15.0,66.0,0.11311428209278364,0.1386269092773691,0.16272729749769974,0.18462047966805398,0.1961907935477599,13.13173909980199,4195.0,39.15324492261517
218,2011-09-04,STORE_2_252,49.00000000000001,0,0,-0.024823583725032128,-0.029676086519444228,0.17248713478685598,0.19824799693127745,0.1075463278538414,0.1890562362200489,,0.1700676606634431,0.11311428209278364,10.594567901234566,81.0,46.75555555555555,46.0,15.0,66.0,0.11380364072908086,0.1399311008311332,0.16272729749769974,0.18462047966805398,0.1961907935477599,13.085124164752555,4208.0,39.154440052397945
219,2011-09-05,STORE_2_252,57.0,1,0,0.019971080930620028,0.044794664655652155,0.14766355106182386,0.16025267836984436,0.1186117540040014,0.16518789604535655,,0.12672964422618085,0.1320584777312478,10.666666666666666,81.0,46.91111111111111,46.5,15.0,66.0,0.11380364072908086,0.141227506120273,0.16457274640844236,0.18462047966805398,0.1961907935477599,13.123137166418674,4222.0,39.15563518218072
220,2011-09-06,STORE_2_252,65.0,0,0,0.01909294190902236,-0.0008781390215976681,0.16763463199244388,0.15021074007570376,0.10190606050114871,0.1451013342972235,,0.084531964431726,0.1320584777312478,10.82567901234568,81.0,47.15555555555556,47.0,15.0,66.0,0.11380364072908086,0.14252391140941278,0.16702294800567205,0.18672757390146624,0.1961907935477599,13.253713586960957,4244.0,39.156830311963496
221,2011-09-07,STORE_2_252,46.0,0,0,-0.04679647307033305,-0.06588941497935541,0.18672757390146624,0.12672964422618085,0.15274307659109881,0.1186117540040014,,0.1186117540040014,0.13732271772360502,10.814814814814815,81.0,47.166666666666664,47.0,15.0,66.0,0.11380364072908086,0.14252391140941278,0.16702294800567205,0.18672757390146624,0.1961907935477599,13.252305290236036,4245.0,39.15802544174627
222,2011-09-08,STORE_2_252,30.000000000000004,0,0,-0.043739523854413834,0.0030569492159192163,0.1399311008311332,0.084531964431726,0.15776387796614963,0.15776387796614963,,0.13732271772360502,0.10190606050114871,10.836543209876542,81.0,47.144444444444446,47.0,15.0,66.0,0.11380364072908086,0.14252391140941278,0.16702294800567205,0.18672757390146624,0.1961907935477599,13.27967197976431,4243.0,39.15922057152905
223,2011-09-09,STORE_2_252,52.99999999999999,0,0,0.06157230098943027,0.1053118248438441,0.09619157697671936,0.13732271772360502,0.1399311008311332,0.15526073281234534,,0.16763463199244388,0.11033922803801151,10.766666666666666,81.0,47.34444444444444,47.5,15.0,66.0,0.11655672597947975,0.14381262285331814,0.16702294800567205,0.18672757390146624,0.1961907935477599,13.230167358713778,4261.0,39.16041570131182
224,2011-09-10,STORE_2_252,70.99999999999999,0,0,0.04275198042094988,-0.01882032056848039,0.15776387796614963,0.16272729749769974,0.16025267836984436,0.09905821762832247,,0.17248713478685598,0.15274307659109881,10.988888888888889,81.0,47.56666666666667,47.5,15.0,66.0,0.11655672597947975,0.14381262285331814,0.16763463199244388,0.18672757390146624,0.1994953207319796,13.45825839776914,4281.0,39.16161083109459
225,2011-09-11,STORE_2_252,70.99999999999999,0,0,0.0,-0.04275198042094988,0.2005158583870995,0.1700676606634431,0.10190606050114871,0.14766355106182386,,0.14766355106182386,0.1075463278538414,11.089382716049384,81.0,47.977777777777774,48.5,15.0,66.0,0.1186117540040014,0.14638244267952366,0.16763463199244388,0.18696044013332452,0.2005158583870995,13.603517206939559,4318.0,39.162805960877364
226,2011-09-12,STORE_2_252,30.000000000000004,0,0,-0.10432428141038015,-0.10432428141038015,0.2005158583870995,0.12672964422618085,0.11033922803801151,0.19367643385679403,,0.16763463199244388,0.12940223408750776,11.22567901234568,81.0,47.84444444444444,48.5,15.0,66.0,0.11655672597947975,0.14638244267952366,0.16763463199244388,0.18696044013332452,0.2005158583870995,13.721066482537982,4306.0,39.16400109066014
227,2011-09-13,STORE_2_252,40.0,0,0,0.02784892873868025,0.13217321014906042,0.09619157697671936,0.084531964431726,0.1213346123394747,0.20724924104606796,,0.18672757390146624,0.15526073281234534,11.266666666666667,81.0,47.71111111111111,47.5,15.0,66.0,0.11655672597947975,0.14381262285331814,0.16763463199244388,0.18696044013332452,0.2005158583870995,13.738524890514663,4294.0,39.165196220442915
228,2011-09-14,STORE_2_252,27.000000000000004,0,0,-0.0365641606368923,-0.06441308937557255,0.12404050571539961,0.1186117540040014,0.0695029740666064,0.14766355106182386,,0.1399311008311332,0.15021074007570376,11.465679012345676,81.0,47.455555555555556,47.0,15.0,66.0,0.11380364072908086,0.14252391140941278,0.16763463199244388,0.18696044013332452,0.2005158583870995,13.908336446951449,4271.0,39.166391350225695
229,2011-09-15,STORE_2_252,22.999999999999996,0,0,-0.011899223299707745,0.024664937337184556,0.08747634507850731,0.13732271772360502,0.09905821762832247,0.15526073281234534,,0.09619157697671936,0.15274307659109881,11.684197530864193,81.0,47.144444444444446,46.5,15.0,66.0,0.11103299155170454,0.141227506120273,0.16763463199244388,0.18696044013332452,0.2005158583870995,14.139403155649905,4243.0,39.16758648000847
230,2011-09-16,STORE_2_252,36.99999999999999,0,0,0.04029459485917297,0.05219381815888072,0.07557712177879956,0.16763463199244388,0.1320584777312478,0.09905821762832247,,0.15776387796614963,0.1748932045527344,11.641975308641976,81.0,46.888888888888886,46.0,15.0,66.0,0.11103299155170454,0.1399311008311332,0.16763463199244388,0.18696044013332452,0.2005158583870995,14.112266116089785,4220.0,39.16878160979124
231,2011-09-17,STORE_2_252,41.0,0,0,0.010857927588208319,-0.029436667270964653,0.11587171663797254,0.17248713478685598,0.084531964431726,0.1320584777312478,,0.2005158583870995,0.1700676606634431,11.57555555555556,81.0,46.7,46.0,15.0,66.0,0.11103299155170454,0.1399311008311332,0.16702294800567205,0.18696044013332452,0.2005158583870995,14.075598456552829,4203.0,39.16997673957401
232,2011-09-18,STORE_2_252,59.0,0,0,0.04575749056067513,0.03489956297246681,0.12672964422618085,0.14766355106182386,0.09040089809582395,0.10473535052001298,,0.2005158583870995,0.2225659991301737,11.320246913580242,74.0,46.455555555555556,46.0,15.0,59.0,0.11103299155170454,0.1399311008311332,0.16702294800567205,0.18672757390146624,0.1994953207319796,13.658072569623567,4181.0,39.17117186935678
233,2011-09-19,STORE_2_252,46.0,0,0,-0.03255603395572279,-0.07831352451639792,0.17248713478685598,0.16763463199244388,0.081567485467987,0.15776387796614963,,0.09619157697671936,0.1796657194139794,11.140740740740746,74.0,46.27777777777778,46.0,15.0,59.0,0.11103299155170454,0.1399311008311332,0.16457274640844236,0.18672757390146624,0.1994953207319796,13.557226007879127,4165.0,39.17236699913956
234,2011-09-20,STORE_2_252,55.0,0,0,0.022796196666566543,0.05535223062228933,0.1399311008311332,0.18672757390146624,0.084531964431726,0.19824799693127745,,0.12404050571539961,0.1320584777312478,11.207160493827166,74.0,46.41111111111111,46.0,15.0,59.0,0.11103299155170454,0.1399311008311332,0.16457274640844236,0.18672757390146624,0.1994953207319796,13.583610782764204,4177.0,39.17356212892234
235,2011-09-21,STORE_2_252,40.0,0,0,-0.038686791782300126,-0.06148298844886667,0.16272729749769974,0.1399311008311332,0.084531964431726,0.16025267836984436,,0.08747634507850731,0.12404050571539961,11.207160493827164,74.0,46.41111111111111,46.0,15.0,59.0,0.11103299155170454,0.1399311008311332,0.16457274640844236,0.18672757390146624,0.1994953207319796,13.583610782764204,4177.0,39.174757258705114
236,2011-09-22,STORE_2_252,43.0,0,0,0.008017972015848182,0.04670476379814831,0.12404050571539961,0.09619157697671936,0.1213346123394747,0.15021074007570376,,0.07557712177879956,0.1399311008311332,11.239012345679008,74.0,46.37777777777778,46.0,15.0,59.0,0.11103299155170454,0.1399311008311332,0.16457274640844236,0.18672757390146624,0.1994953207319796,13.588311052276996,4174.0,39.175952388487886
237,2011-09-23,STORE_2_252,43.0,0,0,0.0,-0.008017972015848182,0.1320584777312478,0.15776387796614963,0.11311428209278364,0.12672964422618085,,0.11587171663797254,0.11311428209278364,11.164691358024687,74.0,46.455555555555556,46.0,15.0,59.0,0.11172235018800176,0.1399311008311332,0.16457274640844236,0.18672757390146624,0.1994953207319796,13.548216940695918,4181.0,39.17714751827066
238,2011-09-24,STORE_2_252,32.0,0,0,-0.03015241723009908,-0.03015241723009908,0.1320584777312478,0.2005158583870995,0.084531964431726,0.084531964431726,,0.12672964422618085,0.17248713478685598,11.165925925925926,74.0,46.15555555555556,45.5,15.0,59.0,0.11033922803801151,0.1386269092773691,0.16272729749769974,0.18672757390146624,0.1994953207319796,13.566242896141278,4154.0,39.17834264805343
239,2011-09-25,STORE_2_252,50.99999999999999,0,0,0.0508370160899501,0.08098943332004918,0.10190606050114871,0.2005158583870995,0.0695029740666064,0.13732271772360502,,0.17248713478685598,0.09330588873923117,11.040000000000001,74.0,46.4,46.0,15.0,59.0,0.11172235018800176,0.1399311008311332,0.16272729749769974,0.18672757390146624,0.1994953207319796,13.45136892077147,4176.0,39.17953777783621
240,2011-09-26,STORE_2_252,46.0,0,0,-0.012811975759965621,-0.06364899184991572,0.15274307659109881,0.09619157697671936,0.11311428209278364,0.16272729749769974,,0.1399311008311332,0.050753538053767415,10.710864197530864,74.0,46.74444444444445,46.0,23.0,51.0,0.11587171663797254,0.1399311008311332,0.16272729749769974,0.18672757390146624,0.1994953207319796,13.028543522478007,4207.0,39.18073290761898
241,2011-09-27,STORE_2_252,30.000000000000004,0,0,-0.043739523854413834,-0.030927548094448212,0.1399311008311332,0.12404050571539961,0.1346985738974562,0.1700676606634431,,0.16272729749769974,0.09619157697671936,10.710864197530864,74.0,46.74444444444445,46.0,23.0,51.0,0.11587171663797254,0.1399311008311332,0.16272729749769974,0.18672757390146624,0.1994953207319796,13.028543522478007,4207.0,39.18192803740176
242,2011-09-28,STORE_2_252,36.99999999999999,0,0,0.019680139661253176,0.06341966351566701,0.09619157697671936,0.08747634507850731,0.19824799693127745,0.12672964422618085,,0.12404050571539961,0.1213346123394747,10.732098765432099,74.0,46.72222222222222,46.0,23.0,51.0,0.11587171663797254,0.1399311008311332,0.16272729749769974,0.18672757390146624,0.1994953207319796,13.043598264298067,4205.0,39.18312316718453
243,2011-09-29,STORE_2_252,27.000000000000004,0,0,-0.028395371559465227,-0.0480755112207184,0.11587171663797254,0.07557712177879956,0.12940223408750776,0.084531964431726,,0.1320584777312478,0.2005158583870995,10.648888888888889,74.0,46.233333333333334,46.0,23.0,51.0,0.11172235018800176,0.1399311008311332,0.16272729749769974,0.18672757390146624,0.1961907935477599,12.947647393781926,4161.0,39.184318296967305
244,2011-09-30,STORE_2_252,39.0,0,0,0.0338582672609674,0.062253638820432625,0.08747634507850731,0.11587171663797254,0.18672757390146624,0.1186117540040014,,0.1320584777312478,0.18672757390146624,10.499999999999998,74.0,45.94444444444444,45.5,23.0,51.0,0.11172235018800176,0.1386269092773691,0.16210864271573588,0.18462047966805398,0.1961907935477599,12.813582252333978,4135.0,39.18551342675008
245,2011-10-01,STORE_2_252,57.99999999999999,0,0,0.04873304832396838,0.014874781063000983,0.1213346123394747,0.12672964422618085,0.1346985738974562,0.13732271772360502,,0.10190606050114871,0.18203245269308638,10.444444444444443,74.0,45.888888888888886,45.5,23.0,51.0,0.11172235018800176,0.1386269092773691,0.16210864271573588,0.18462047966805398,0.1961907935477599,12.749482866308817,4130.0,39.18670855653286
246,2011-10-02,STORE_2_252,45.0,0,0,-0.03274494293983807,-0.08147799126380645,0.1700676606634431,0.17248713478685598,0.09619157697671936,0.16763463199244388,,0.15274307659109881,0.15776387796614963,10.373333333333333,74.0,45.8,45.0,23.0,51.0,0.11172235018800176,0.13732271772360502,0.16210864271573588,0.18462047966805398,0.1961907935477599,12.727215817762742,4122.0,39.18790368631563
247,2011-10-03,STORE_2_252,31.0,0,0,-0.03826450009528255,-0.005519557155444485,0.13732271772360502,0.1399311008311332,0.084531964431726,0.17248713478685598,,0.1399311008311332,0.20724924104606796,10.20320987654321,74.0,45.32222222222222,45.0,23.0,51.0,0.11033922803801151,0.13732271772360502,0.15963047826892068,0.18226784323243414,0.1915973449202587,12.46102037210867,4079.0,39.18909881609841
248,2011-10-04,STORE_2_252,31.0,0,0,0.0,0.03826450009528255,0.09905821762832247,0.16272729749769974,0.06643374233892982,0.14766355106182386,,0.09619157697671936,0.18203245269308638,10.145185185185182,74.0,44.96666666666667,45.0,23.0,51.0,0.10824455289988393,0.13732271772360502,0.15776387796614963,0.1801377832812379,0.1915973449202587,12.407364612568355,4047.0,39.19029394588118
249,2011-10-05,STORE_2_252,22.999999999999996,0,0,-0.023481095849522904,-0.023481095849522904,0.09905821762832247,0.12404050571539961,0.1213346123394747,0.16763463199244388,,0.11587171663797254,0.1796657194139794,10.200000000000003,74.0,44.53333333333333,44.5,23.0,51.0,0.10543809485347008,0.13601064581053063,0.15776387796614963,0.17367705711682685,0.1915973449202587,12.486577062653039,4008.0,39.19148907566395
250,2011-10-06,STORE_2_252,24.999999999999996,0,0,0.005990363689187442,0.029471459538710346,0.07557712177879956,0.1320584777312478,0.12672964422618085,0.18672757390146624,,0.08747634507850731,0.16763463199244388,10.270617283950616,74.0,44.17777777777778,44.0,23.0,51.0,0.10473535052001298,0.1346985738974562,0.15713809167769854,0.17367705711682685,0.1915973449202587,12.582829193462818,3976.0,39.192684205446724
251,2011-10-07,STORE_2_252,34.0,0,0,0.025978842385854392,0.01998847869666695,0.081567485467987,0.1320584777312478,0.14252391140941278,0.1399311008311332,,0.1213346123394747,0.16272729749769974,10.255555555555555,74.0,43.94444444444444,43.5,23.0,51.0,0.10473535052001298,0.133378525814352,0.15526073281234534,0.17367705711682685,0.1915973449202587,12.574596391415163,3955.0,39.1938793352295
252,2011-10-08,STORE_2_252,63.0,0,0,0.07448612483924498,0.04850728245339059,0.1075463278538414,0.10190606050114871,0.09040089809582395,0.09619157697671936,,0.1700676606634431,0.1399311008311332,10.45037037037037,74.0,44.13333333333333,43.5,23.0,51.0,0.10473535052001298,0.133378525814352,0.15713809167769854,0.18226784323243414,0.1915973449202587,12.732511689866385,3972.0,39.195074465012276
253,2011-10-09,STORE_2_252,52.99999999999999,0,0,-0.024268574726936748,-0.09875469956618173,0.18203245269308638,0.15274307659109881,0.08747634507850731,0.15776387796614963,,0.13732271772360502,0.15274307659109881,10.473580246913581,74.0,44.15555555555556,43.5,23.0,51.0,0.10473535052001298,0.133378525814352,0.15776387796614963,0.18226784323243414,0.1915973449202587,12.746368604792444,3974.0,39.196269594795055
254,2011-10-10,STORE_2_252,28.0,1,0,-0.06736297987032568,-0.04309440514338893,0.15776387796614963,0.1399311008311332,0.0785826319185248,0.2005158583870995,,0.09905821762832247,0.1075463278538414,10.537283950617283,74.0,44.08888888888889,43.5,23.0,51.0,0.10473535052001298,0.133378525814352,0.15776387796614963,0.18226784323243414,0.1915973449202587,12.815584301886181,3968.0,39.19746472457783
255,2011-10-11,STORE_2_252,31.0,0,0,0.008657319532498514,0.07602029940282419,0.09040089809582395,0.09619157697671936,0.1075463278538414,0.2005158583870995,,0.09905821762832247,0.09619157697671936,10.526666666666666,74.0,44.1,43.5,23.0,51.0,0.10473535052001298,0.133378525814352,0.15776387796614963,0.18226784323243414,0.1915973449202587,12.80365994023461,3969.0,39.1986598543606
256,2011-10-12,STORE_2_252,36.0,0,0,0.014056064464461171,0.005398744931962657,0.09905821762832247,0.11587171663797254,0.11587171663797254,0.09619157697671936,,0.07557712177879956,0.10473535052001298,10.494814814814815,74.0,44.13333333333333,43.5,23.0,51.0,0.10473535052001298,0.133378525814352,0.15776387796614963,0.18226784323243414,0.1915973449202587,12.77831730934973,3972.0,39.19985498414337
257,2011-10-13,STORE_2_252,36.99999999999999,0,0,0.002757434545188897,-0.011298629919272274,0.11311428209278364,0.08747634507850731,0.15526073281234534,0.12404050571539961,,0.081567485467987,0.12940223408750776,10.5479012345679,74.0,44.077777777777776,43.5,23.0,51.0,0.10473535052001298,0.133378525814352,0.15776387796614963,0.18226784323243414,0.1915973449202587,12.798549582305666,3967.0,39.201050113926144
258,2011-10-14,STORE_2_252,38.0,0,0,0.0027400373660288607,-1.7397179160036358e-05,0.11587171663797254,0.1213346123394747,0.1213346123394747,0.08747634507850731,,0.1075463278538414,0.14252391140941278,10.577283950617284,74.0,43.977777777777774,43.0,23.0,51.0,0.10473535052001298,0.1320584777312478,0.15776387796614963,0.18226784323243414,0.1915973449202587,12.810615136471064,3958.0,39.20224524370892
259,2011-10-15,STORE_2_252,57.0,0,0,0.04902287798844249,0.046282840622413626,0.1186117540040014,0.1700676606634431,0.10190606050114871,0.07557712177879956,,0.18203245269308638,0.12404050571539961,10.685185185185185,74.0,44.166666666666664,43.5,23.0,51.0,0.10473535052001298,0.133378525814352,0.15776387796614963,0.18226784323243414,0.1915973449202587,12.876465772350613,3975.0,39.203440373491695
260,2011-10-16,STORE_2_252,54.0,0,0,-0.007381953622599524,-0.05640483161104201,0.16763463199244388,0.13732271772360502,0.0695029740666064,0.11587171663797254,,0.15776387796614963,0.11587171663797254,10.719012345679008,74.0,44.355555555555554,44.0,23.0,51.0,0.10473535052001298,0.1346985738974562,0.15776387796614963,0.18226784323243414,0.1915973449202587,12.89483052165759,3992.0,39.204635503274474
261,2011-10-17,STORE_2_252,39.0,0,0,-0.03891806603036965,-0.03153611240777013,0.16025267836984436,0.09905821762832247,0.11311428209278364,0.12672964422618085,,0.09040089809582395,0.09330588873923117,10.610370370370369,74.0,44.46666666666667,44.0,23.0,51.0,0.10543809485347008,0.1346985738974562,0.15776387796614963,0.18226784323243414,0.1915973449202587,12.803791573267873,4002.0,39.205830633057246
262,2011-10-18,STORE_2_252,40.0,0,0,0.002705893375924903,0.041623959406294556,0.1213346123394747,0.09905821762832247,0.1075463278538414,0.17248713478685598,,0.09905821762832247,0.1320584777312478,10.642962962962967,74.0,44.43333333333333,44.0,23.0,51.0,0.10543809485347008,0.1346985738974562,0.15776387796614963,0.18226784323243414,0.1915973449202587,12.811555528357195,3999.0,39.20702576284002
263,2011-10-19,STORE_2_252,31.0,0,0,-0.024982288087077142,-0.027688181463002046,0.12404050571539961,0.07557712177879956,0.1186117540040014,0.1399311008311332,,0.11311428209278364,0.15274307659109881,10.709382716049383,74.0,44.21111111111111,43.5,23.0,51.0,0.10473535052001298,0.133378525814352,0.15776387796614963,0.18226784323243414,0.1915973449202587,12.869696524751502,3979.0,39.20822089262279
264,2011-10-20,STORE_2_252,21.0,0,0,-0.02955524356171607,-0.004572955474638929,0.09905821762832247,0.081567485467987,0.12940223408750776,0.16272729749769974,,0.11587171663797254,0.14252391140941278,10.920493827160493,74.0,43.922222222222224,43.0,21.0,53.0,0.10261338300586478,0.1320584777312478,0.15776387796614963,0.18226784323243414,0.1915973449202587,13.096210771794867,3953.0,39.20941602240557
265,2011-10-21,STORE_2_252,38.0,0,0,0.049108779937395,0.07866402349911107,0.0695029740666064,0.1075463278538414,0.1075463278538414,0.12404050571539961,,0.1186117540040014,0.18672757390146624,10.73876543209876,74.0,43.62222222222222,43.0,21.0,53.0,0.10261338300586478,0.1320584777312478,0.15776387796614963,0.17344166657747911,0.1915973449202587,12.915958057160612,3926.0,39.21061115218834
