soundwave-77/time-series-mts-hse/models/STORE_2_555/train_data.csv
index,timestamp,segment,target,holiday,target_change_points,target_diff_1,target_diff_2,target_lag_1,target_lag_14,target_lag_180,target_lag_30,target_lag_365,target_lag_7,target_lag_90,target_mad,target_max,target_mean,target_median,target_min,target_minmax_diff,target_q_0.25,target_q_0.50,target_q_0.75,target_q_0.90,target_q_0.95,target_std,target_sum,target_trend
0,2011-01-29,STORE_2_555,18.0,0,0,,,,,,,,,,0.0,18.0,18.0,18.0,18.0,0.0,0.09231426131890731,0.09231426131890731,0.09231426131890731,0.09231426131890731,0.09231426131890731,0.0,18.0,28.15726300974289
1,2011-01-30,STORE_2_555,37.99999999999999,0,0,0.08377699773677393,,0.09231426131890731,,,,,,,10.0,38.0,28.0,28.0,18.0,20.0,0.1132585107531008,0.13420276018729427,0.15514700962148775,0.16771355928200385,0.17190240916884253,14.142135623730951,56.0,28.167196531249957
2,2011-01-31,STORE_2_555,14.0,0,0,-0.10266234189714771,-0.18643933963392162,0.17609125905568124,,,,,,,9.777777777777777,38.0,23.333333333333332,18.0,14.0,24.0,0.08287158923872043,0.09231426131890731,0.13420276018729427,0.15933585950832646,0.16771355928200385,12.858201014657274,70.0,28.177130052757022
3,2011-02-01,STORE_2_555,22.000000000000007,0,0,0.036983566253169994,0.1396459081503177,0.07342891715853353,,,,,,,7.5,38.0,23.0,20.0,14.0,24.0,0.08759292527881386,0.10136337236530542,0.12683217732269794,0.15638762636248793,0.16623944270908456,10.519822558706334,92.0,28.187063574264087
4,2011-02-02,STORE_2_555,31.0,0,0,0.038157701992714746,0.0011741357395447516,0.11041248341170352,,,,,,,7.92,38.0,24.6,22.0,14.0,24.0,0.09231426131890731,0.11041248341170352,0.14857018540441827,0.16508282959517606,0.17058704432542865,9.787747442593725,123.0,28.196997095771152
5,2011-02-03,STORE_2_555,34.99999999999999,0,0,0.01593920110144781,-0.022218500891266937,0.14857018540441827,,,,,,,8.333333333333334,38.0,26.333333333333332,26.5,14.0,24.0,0.09683881684210636,0.1294913344080609,0.16052458623050414,0.17030032278077367,0.17319579091822745,9.72967967955095,158.0,28.206930617278218
6,2011-02-04,STORE_2_555,22.000000000000007,0,0,-0.054096903094162554,-0.07003610419561036,0.16450938650586608,,,,,,,7.673469387755103,38.0,25.714285714285715,22.0,14.0,24.0,0.10136337236530542,0.11041248341170352,0.15653978595514217,0.16914213552579216,0.17261669729073667,9.031690238899282,180.0,28.216864138785283
7,2011-02-05,STORE_2_555,49.0,0,0,0.10568393731556154,0.1597808404097241,0.11041248341170352,,,,,0.09231426131890731,,9.625,49.0,28.625,26.5,14.0,35.0,0.10588792788850447,0.1294913344080609,0.16740485464331986,0.18809280755715638,0.2020946141422107,11.734412152785012,229.0,28.22679766029235
8,2011-02-06,STORE_2_555,40.00000000000001,0,0,-0.03245202378113793,-0.13813596109669946,0.21609642072726507,,,,,0.17609125905568124,,9.679012345679013,49.0,29.88888888888889,31.0,14.0,35.0,0.11041248341170352,0.14857018540441827,0.17609125905568124,0.19013480170235472,0.2031156112148099,11.612971674429895,269.0,28.236731181799414
9,2011-02-07,STORE_2_555,32.0,0,0,-0.031034233739968775,0.0014177900411691535,0.18364439694612714,,,,,0.07342891715853353,,8.879999999999999,49.0,30.1,31.5,14.0,35.0,0.11041248341170352,0.15059017430528832,0.17319579091822745,0.18688959932424093,0.20149301002575296,10.969148655306947,301.0,28.24666470330648
10,2011-02-08,STORE_2_555,27.000000000000004,0,0,-0.020586530781777496,0.01044770295819128,0.15261016320615836,,,,,0.11041248341170352,,8.3801652892562,49.0,29.818181818181817,31.0,14.0,35.0,0.11041248341170352,0.14857018540441827,0.17030032278077367,0.18364439694612714,0.1998704088366961,10.44814033039547,328.0,28.256598224813544
11,2011-02-09,STORE_2_555,29.0,0,0,0.008352074364765871,0.028938605146543367,0.13202363242438087,,,,,0.14857018540441827,,7.75,49.0,29.75,30.0,14.0,35.0,0.11041248341170352,0.14447294609678252,0.16740485464331986,0.18288908315708255,0.1982478076476392,9.964710459689963,357.0,28.266531746320638
12,2011-02-10,STORE_2_555,23.0,0,0,-0.025554104472388164,-0.033906178837154036,0.14037570678914674,,,,,0.16450938650586608,,7.633136094674556,49.0,29.23076923076923,29.0,14.0,35.0,0.11041248341170352,0.14037570678914674,0.16450938650586608,0.18213376936803796,0.19662520645858225,9.72242979021402,380.0,28.276465267827703
13,2011-02-11,STORE_2_555,40.00000000000001,0,0,0.06882279462936856,0.09437689910175673,0.11482160231675857,,,,,0.11041248341170352,,7.857142857142857,49.0,30.0,30.0,14.0,35.0,0.1115147631379673,0.14447294609678252,0.17319579091822745,0.18364439694612714,0.1950026052695254,9.774377808252632,420.0,28.28639878933477
14,2011-02-12,STORE_2_555,54.0,0,0,0.04948536307991827,-0.019337431549450293,0.18364439694612714,0.09231426131890731,,,,0.21609642072726507,,8.906666666666666,54.0,31.6,31.0,14.0,40.0,0.11261704286423105,0.14857018540441827,0.17986782800090417,0.2031156112148099,0.22120642251689915,11.274497137978514,474.0,28.296332310841834
15,2011-02-13,STORE_2_555,43.0,0,0,-0.038396390914305994,-0.08788175399422427,0.2331297600260454,0.17609125905568124,,,,0.18364439694612714,,9.1015625,54.0,32.3125,31.5,14.0,40.0,0.1137193225904948,0.15059017430528832,0.18364439694612714,0.20541489491950224,0.22035475555196016,11.258885380000988,517.0,28.3062658323489
16,2011-02-14,STORE_2_555,21.000000000000004,0,0,-0.0887752271262859,-0.0503788362119799,0.1947333691117394,0.07342891715853353,,,,0.15261016320615836,,9.155709342560554,54.0,31.647058823529413,31.0,14.0,40.0,0.11041248341170352,0.14857018540441827,0.18364439694612714,0.20327858975794968,0.2195030885870211,11.24133653347428,538.0,28.316199353855964
17,2011-02-15,STORE_2_555,17.0,0,0,-0.01828878571230974,0.07048644141397616,0.10595814198545352,0.11041248341170352,,,,0.13202363242438087,,9.388888888888891,54.0,30.833333333333332,30.0,14.0,40.0,0.11041248341170352,0.14447294609678252,0.18175611247351567,0.20114228459639713,0.2186514216220821,11.439097043756146,555.0,28.32613287536303
18,2011-02-16,STORE_2_555,27.000000000000004,0,0,0.04435427615123709,0.06264306186354683,0.08766935627314378,0.14857018540441827,,,,0.14037570678914674,,9.085872576177286,54.0,30.63157894736842,29.0,14.0,40.0,0.11041248341170352,0.14037570678914674,0.17986782800090417,0.19900597943484452,0.21779975465714307,11.151534654306502,582.0,28.336066396870095
19,2011-02-17,STORE_2_555,22.000000000000007,0,0,-0.02161114901267734,-0.06596542516391443,0.13202363242438087,0.16450938650586608,,,,0.11482160231675857,,9.02,54.0,30.2,28.0,14.0,40.0,0.11041248341170352,0.1361996696067638,0.1779795435282927,0.196869674273292,0.21694808769220408,11.024374907688108,604.0,28.34599991837716
20,2011-02-18,STORE_2_555,20.0,0,0,-0.008954842652926467,0.012656306359750874,0.11041248341170352,0.11041248341170352,,,,0.18364439694612714,,9.006802721088436,54.0,29.714285714285715,27.0,14.0,40.0,0.11041248341170352,0.13202363242438087,0.17609125905568124,0.1947333691117394,0.21609642072726507,10.973344326789611,624.0,28.355933439884225
21,2011-02-19,STORE_2_555,26.0,0,0,0.026328938722349177,0.035283781375275644,0.10145764075877706,0.21609642072726507,,,,0.2331297600260454,,8.735537190082646,54.0,29.545454545454547,27.0,14.0,40.0,0.11041248341170352,0.13202363242438087,0.17319579091822745,0.1936244718951782,0.21502826814648876,10.738126433757396,650.0,28.36586696139129
22,2011-02-20,STORE_2_555,29.0,0,0,0.012589127308020504,-0.013739811414328673,0.12778657948112623,0.18364439694612714,,,,0.1947333691117394,,8.374291115311909,54.0,29.52173913043478,27.0,14.0,40.0,0.11041248341170352,0.13202363242438087,0.17030032278077367,0.19251557467861696,0.21396011556571248,10.49185643169974,679.0,28.375800482898356
23,2011-02-21,STORE_2_555,40.99999999999999,1,0,0.04699656267622354,0.03440743536820304,0.14037570678914674,0.15261016320615836,,,,0.10595814198545352,,8.583333333333334,54.0,30.0,28.0,14.0,40.0,0.11041248341170352,0.1361996696067638,0.1779795435282927,0.19252503921782868,0.21289196298493618,10.525331761785573,720.0,28.38573400440542
24,2011-02-22,STORE_2_555,19.0,0,0,-0.09046225645731386,-0.1374588191335374,0.18737226946537028,0.13202363242438087,,,,0.08766935627314378,,8.592,54.0,29.56,27.0,14.0,40.0,0.11041248341170352,0.13202363242438087,0.17609125905568124,0.19178892925319177,0.21182381040415987,10.535970134100927,739.0,28.395667525912486
25,2011-02-23,STORE_2_555,21.000000000000004,0,0,0.009048128977397096,0.09951038543471095,0.09691001300805642,0.14037570678914674,,,,0.13202363242438087,,8.514792899408285,54.0,29.23076923076923,27.0,14.0,40.0,0.10707172734201602,0.13202363242438087,0.17319579091822745,0.19105281928855483,0.21075565782338365,10.4587100248843,760.0,28.40560104741955
26,2011-02-24,STORE_2_555,24.0,0,0,0.013228265733755129,0.004180136756358033,0.10595814198545352,0.11482160231675857,,,,0.11041248341170352,,8.342935528120714,54.0,29.037037037037038,27.0,14.0,40.0,0.10818531269857852,0.13202363242438087,0.17030032278077367,0.19031670932391795,0.20968750524260735,10.304896078606674,784.0,28.415534568926617
27,2011-02-25,STORE_2_555,23.0,0,0,-0.004364805402450073,-0.0175930711362052,0.11918640771920865,0.18364439694612714,,,,0.10145764075877706,,8.224489795918368,54.0,28.821428571428573,26.5,14.0,40.0,0.10929889805514102,0.12990510595275356,0.16740485464331986,0.189580599359281,0.20861935266183107,10.176419989835512,807.0,28.425468090433682
28,2011-02-26,STORE_2_555,34.99999999999999,0,0,0.049687784189107506,0.05405258959155758,0.11482160231675857,0.2331297600260454,,,,0.12778657948112623,,8.180737217598097,54.0,29.03448275862069,27.0,14.0,40.0,0.11041248341170352,0.13202363242438087,0.16450938650586608,0.1888444893946441,0.20755120008105477,10.058694741440254,842.0,28.435401611940748
29,2011-02-27,STORE_2_555,37.0,0,0,0.007755464696762304,-0.0419323194923452,0.16450938650586608,0.1947333691117394,,,,0.14037570678914674,,8.226666666666667,54.0,29.3,27.0,14.0,40.0,0.11041248341170352,0.13202363242438087,0.17032598502843782,0.1881083794300072,0.20648304750027846,9.990167579968919,879.0,28.445335133447813
30,2011-02-28,STORE_2_555,15.0,0,0,-0.09403705116232612,-0.10179251585908843,0.17226485120262838,0.10595814198545352,,0.09231426131890731,,0.18737226946537028,,8.339229968782517,54.0,28.838709677419356,27.0,14.0,40.0,0.10818531269857852,0.13202363242438087,0.16838711885424723,0.18737226946537028,0.20541489491950224,10.152493205098434,894.0,28.455268654954878
31,2011-03-01,STORE_2_555,29.0,0,0,0.062147906748844475,0.1561849579111706,0.07822780004030226,0.08766935627314378,,0.17609125905568124,,0.09691001300805642,,8.083984375,54.0,28.84375,27.0,14.0,40.0,0.10929889805514102,0.13202363242438087,0.16644825268005664,0.18699948221344598,0.20434674233872593,9.987441711243369,923.0,28.465202176461943
32,2011-03-02,STORE_2_555,24.0,0,0,-0.021189299069938092,-0.08333720581878257,0.14037570678914674,0.13202363242438087,,0.07342891715853353,,0.10595814198545352,,7.972451790633608,54.0,28.696969696969695,27.0,14.0,40.0,0.11041248341170352,0.13202363242438087,0.16450938650586608,0.18662669496152165,0.20327858975794966,9.866245640075206,947.0,28.47513569796901
33,2011-03-03,STORE_2_555,26.0,0,0,0.008600171761917588,0.02978947083185568,0.11918640771920865,0.11041248341170352,,0.11041248341170352,,0.11918640771920865,,7.80795847750865,54.0,28.61764705882353,26.5,14.0,40.0,0.11041248341170352,0.12990510595275356,0.16450938650586608,0.18625390770959732,0.20221043717717335,9.726610502721785,973.0,28.485069219476074
34,2011-03-04,STORE_2_555,27.000000000000004,0,0,0.004237052943254632,-0.004363118818662956,0.12778657948112623,0.10145764075877706,,0.14857018540441827,,0.11482160231675857,,7.624489795918365,54.0,28.571428571428573,27.0,14.0,40.0,0.11041248341170352,0.13202363242438087,0.16450938650586608,0.18588112045767302,0.20114228459639705,9.586404939489336,1000.0,28.49500274098314
35,2011-03-05,STORE_2_555,27.999999999999996,0,0,0.004196114593608136,-4.0938349646496563e-05,0.13202363242438087,0.12778657948112623,,0.16450938650586608,,0.16450938650586608,,7.425925925925927,54.0,28.555555555555557,27.0,14.0,40.0,0.11041248341170352,0.13202363242438087,0.16450938650586608,0.18550833320574872,0.20007413201562083,9.448943839527235,1028.0,28.504936262490233
36,2011-03-06,STORE_2_555,46.0,0,0,0.06932649137596789,0.06513037678235975,0.136219747017989,0.14037570678914674,,0.11041248341170352,,0.17226485120262838,,7.764791818845873,54.0,29.027027027027028,27.0,14.0,40.0,0.11041248341170352,0.13202363242438087,0.16450938650586608,0.19031670932391792,0.20765627486061847,9.74818070344549,1074.0,28.514869783997298
37,2011-03-07,STORE_2_555,19.0,0,0,-0.10863622538590047,-0.17796271676186837,0.2055462383939569,0.18737226946537028,,0.21609642072726507,,0.07822780004030226,,7.7783933518005535,54.0,28.763157894736842,27.0,14.0,40.0,0.11041248341170352,0.13202363242438087,0.16450938650586608,0.18958059935928104,0.20712876574395309,9.752156270299476,1093.0,28.524803305504363
38,2011-03-08,STORE_2_555,32.0,0,0,0.05570015019810194,0.1643363755840024,0.09691001300805642,0.09691001300805642,,0.18364439694612714,,0.14037570678914674,,7.67258382642998,54.0,28.846153846153847,27.0,14.0,40.0,0.11041248341170352,0.13202363242438087,0.16450938650586608,0.18884448939464413,0.20660125662728773,9.636931324033059,1125.0,28.53473682701143
39,2011-03-09,STORE_2_555,33.0,0,0,0.004002742453673935,-0.051697407744428006,0.15261016320615836,0.10595814198545352,,0.15261016320615836,,0.11918640771920865,,7.595000000000001,54.0,28.95,27.0,14.0,40.0,0.11041248341170352,0.13202363242438087,0.16450938650586608,0.1881083794300072,0.20607374751062227,9.535224843731417,1158.0,28.544670348518494
40,2011-03-10,STORE_2_555,26.0,0,0,-0.028826326178706063,-0.03282906863238,0.1566129056598323,0.11918640771920865,,0.13202363242438087,,0.12778657948112623,,7.472932778108269,54.0,28.878048780487806,27.0,14.0,40.0,0.11041248341170352,0.13202363242438087,0.16450938650586608,0.18737226946537028,0.2055462383939569,9.426545289636122,1184.0,28.55460387002556
41,2011-03-11,STORE_2_555,29.0,0,0,0.012589127308020504,0.04141545348672657,0.12778657948112623,0.11482160231675857,,0.14037570678914674,,0.13202363242438087,,7.298185941043084,54.0,28.88095238095238,27.0,14.0,40.0,0.11041248341170352,0.13202363242438087,0.16253526629435763,0.18699948221344595,0.20500559492984596,9.310896791977015,1213.0,28.564537391532625
42,2011-03-12,STORE_2_555,37.0,0,0,0.031889144413481646,0.019300017105461142,0.14037570678914674,0.16450938650586608,,0.11482160231675857,,0.136219747017989,,7.343428880475932,54.0,29.069767441860463,27.0,14.0,40.0,0.11041248341170352,0.13202363242438087,0.16450938650586608,0.18662669496152168,0.20446495146573512,9.282331780213545,1250.0,28.57447091303969
43,2011-03-13,STORE_2_555,34.0,0,0,-0.011685758325194695,-0.04357490273867634,0.17226485120262838,0.17226485120262838,,0.18364439694612714,,0.2055462383939569,,7.314049586776861,54.0,29.181818181818183,27.5,14.0,40.0,0.11041248341170352,0.13412168972118493,0.16450938650586608,0.18625390770959735,0.20392430800162428,9.20382308652409,1284.0,28.584404434546755
44,2011-03-14,STORE_2_555,44.0,0,0,0.037788560889399775,0.04947431921459447,0.1605790928774337,0.07822780004030226,,0.2331297600260454,,0.09691001300805642,,7.546666666666669,54.0,29.511111111111113,28.0,14.0,40.0,0.11041248341170352,0.136219747017989,0.16450938650586608,0.19178892925319177,0.20411052146853217,9.362940054525954,1328.0,28.59433795605382
45,2011-03-15,STORE_2_555,23.0,0,0,-0.08354605145007489,-0.12133461233947467,0.19836765376683346,0.14037570678914674,,0.1947333691117394,,0.15261016320615836,,7.4933837429111545,54.0,29.369565217391305,27.5,14.0,40.0,0.1115147631379673,0.13412168972118493,0.16450938650586608,0.19105281928855483,0.20375159223717604,9.307962411355545,1351.0,28.604271477560886
46,2011-03-16,STORE_2_555,19.0,0,0,-0.017911589308702153,0.06563446214137274,0.11482160231675857,0.11918640771920865,,0.10595814198545352,,0.1566129056598323,,7.502942507922138,54.0,29.148936170212767,27.0,14.0,40.0,0.11041248341170352,0.13202363242438087,0.16450938650586608,0.19031670932391792,0.20339266300581982,9.329659864726544,1370.0,28.61420499906795
47,2011-03-17,STORE_2_555,19.0,0,0,0.0,0.017911589308702153,0.09691001300805642,0.12778657948112623,,0.08766935627314378,,0.12778657948112623,,7.515625,54.0,28.9375,27.0,14.0,40.0,0.11041248341170352,0.13202363242438087,0.16450938650586608,0.18958059935928104,0.20303373377446368,9.345396522899003,1389.0,28.624138520575016
48,2011-03-18,STORE_2_555,19.0,0,0,0.0,0.0,0.09691001300805642,0.13202363242438087,,0.13202363242438087,,0.14037570678914674,,7.544356518117452,54.0,28.73469387755102,27.0,14.0,40.0,0.11041248341170352,0.13202363242438087,0.16450938650586608,0.18884448939464413,0.2026748045431075,9.355870506006914,1408.0,28.63407204208208
49,2011-03-19,STORE_2_555,22.000000000000007,0,0,0.013502470403647104,0.013502470403647104,0.09691001300805642,0.136219747017989,,0.11041248341170352,,0.17226485120262838,,7.511999999999998,54.0,28.6,27.0,14.0,40.0,0.11041248341170352,0.13202363242438087,0.163526813098758,0.1881083794300072,0.20231587531175133,9.30876260436852,1430.0,28.644005563589147
50,2011-03-20,STORE_2_555,29.999999999999996,0,0,0.03407978957227535,0.020577319168628247,0.11041248341170352,0.2055462383939569,,0.10145764075877706,,0.1605790928774337,,7.394848135332564,54.0,28.627450980392158,27.0,14.0,40.0,0.11041248341170352,0.13202363242438087,0.16254423969164988,0.18737226946537028,0.20195694608039516,9.217289806258075,1460.0,28.653939085096212
51,2011-03-21,STORE_2_555,17.0,0,0,-0.0568229167108351,-0.09090270628311045,0.14449227298397888,0.09691001300805642,,0.12778657948112623,,0.19836765376683346,,7.45044378698225,54.0,28.403846153846153,27.0,14.0,40.0,0.10929889805514102,0.13202363242438087,0.16156166628454177,0.18699948221344595,0.20159801684903897,9.267822502435596,1477.0,28.663872606603277
52,2011-03-22,STORE_2_555,25.000000000000007,0,0,0.03583842522870748,0.09266134193954258,0.08766935627314378,0.15261016320615836,,0.14037570678914674,,0.11482160231675857,,7.36561053755785,54.0,28.339622641509433,27.0,14.0,40.0,0.11041248341170352,0.13202363242438087,0.1605790928774337,0.18662669496152168,0.20123908761768283,9.190177440796433,1502.0,28.673806128110343
53,2011-03-23,STORE_2_555,18.0,0,0,-0.03119352018294394,-0.06703194541165142,0.12350778150185125,0.1566129056598323,,0.18737226946537028,,0.09691001300805642,,7.392318244170097,54.0,28.14814814814815,26.5,14.0,40.0,0.10707172734201602,0.12990510595275356,0.15958754607303333,0.18625390770959735,0.2008801583863266,9.211165102400225,1520.0,28.683739649617408
54,2011-03-24,STORE_2_555,16.000000000000004,0,0,-0.009340026254143374,0.021853493928800566,0.09231426131890731,0.12778657948112623,,0.09691001300805642,,0.09691001300805642,,7.445289256198348,54.0,27.927272727272726,26.0,14.0,40.0,0.10595814198545352,0.12778657948112623,0.158595999268633,0.18588112045767302,0.20052122915497048,9.271330851478428,1536.0,28.693673171124473
55,2011-03-25,STORE_2_555,25.000000000000007,0,0,0.040533546437087314,0.04987357269123069,0.08297423506476394,0.14037570678914674,,0.10595814198545352,,0.09691001300805642,,7.357142857142857,54.0,27.875,26.0,14.0,40.0,0.10595814198545352,0.12778657948112623,0.15760445246423266,0.18550833320574872,0.2001622999236143,9.194983810356996,1561.0,28.70360669263154
56,2011-03-26,STORE_2_555,37.99999999999999,0,0,0.052583477553829985,0.012049931116742671,0.12350778150185125,0.17226485120262838,,0.11918640771920865,,0.11041248341170352,,7.429362880886425,54.0,28.05263157894737,26.0,14.0,40.0,0.10595814198545352,0.12778657948112623,0.1605790928774337,0.1851355459538244,0.19980337069225812,9.21067132001862,1599.0,28.713540214138604
57,2011-03-27,STORE_2_555,33.0,0,0,-0.01947835339584894,-0.07206183094967893,0.17609125905568124,0.1605790928774337,,0.11482160231675857,,0.14449227298397888,,7.398335315101071,54.0,28.137931034482758,26.5,14.0,40.0,0.10707172734201602,0.12990510595275356,0.15958754607303333,0.1847627587019001,0.19944444146090196,9.15260153959128,1632.0,28.72347373564567
58,2011-03-28,STORE_2_555,23.0,0,0,-0.041791303343073724,-0.022312949947224783,0.1566129056598323,0.19836765376683346,,0.16450938650586608,,0.08766935627314378,,7.346739442688882,54.0,28.050847457627118,26.0,14.0,40.0,0.10818531269857852,0.12778657948112623,0.158595999268633,0.18438997144997576,0.19908551222954576,9.097979557465148,1655.0,28.733407257152734
59,2011-03-29,STORE_2_555,23.0,0,0,0.0,0.041791303343073724,0.11482160231675857,0.11482160231675857,,0.17226485120262838,,0.12350778150185125,,7.295555555555556,54.0,27.966666666666665,26.0,14.0,40.0,0.10929889805514102,0.12778657948112623,0.15760445246423266,0.18401718419805146,0.19872658299818963,9.044085372550876,1678.0,28.7433407786598
60,2011-03-30,STORE_2_555,27.000000000000004,0,0,0.017202030107622293,0.017202030107622293,0.11482160231675857,0.09691001300805642,,0.07822780004030226,,0.09231426131890731,,7.1894651975275465,54.0,27.950819672131146,26.0,14.0,40.0,0.11041248341170352,0.12778657948112623,0.1566129056598323,0.18364439694612714,0.19836765376683346,8.969255319345445,1705.0,28.753274300166893
61,2011-03-31,STORE_2_555,25.000000000000007,0,0,-0.008515850922529614,-0.025717881030151907,0.13202363242438087,0.09691001300805642,,0.14037570678914674,,0.08297423506476394,,7.113423517169616,54.0,27.903225806451612,26.0,14.0,40.0,0.11041248341170352,0.12778657948112623,0.1566129056598323,0.18364439694612714,0.19818593953407873,8.903323522789355,1730.0,28.76320782167396
62,2011-04-01,STORE_2_555,40.00000000000001,0,0,0.060136615444275884,0.0686524663668055,0.12350778150185125,0.09691001300805642,,0.11918640771920865,,0.12350778150185125,,7.222978080120938,54.0,28.095238095238095,26.0,14.0,40.0,0.11041248341170352,0.12778657948112623,0.158595999268633,0.18364439694612714,0.19800422530132405,8.961772372432785,1770.0,28.773141343181024
63,2011-04-02,STORE_2_555,45.0,0,0,0.018327381089531608,-0.041809234354744276,0.18364439694612714,0.11041248341170352,,0.12778657948112623,,0.17609125905568124,,7.41552734375,54.0,28.359375,26.5,14.0,40.0,0.11041248341170352,0.12990510595275356,0.16156166628454177,0.18625390770959735,0.20143115939533493,9.138037001352929,1815.0,28.78307486468809
64,2011-04-03,STORE_2_555,36.0,0,0,-0.03356734764626848,-0.05189472873580009,0.20197177803565874,0.14449227298397888,,0.13202363242438087,,0.1566129056598323,,7.435266272189349,54.0,28.476923076923075,27.0,14.0,40.0,0.11041248341170352,0.13202363242438087,0.16450938650586608,0.18588112045767302,0.20125095318189368,9.115761920136759,1851.0,28.793008386195154
65,2011-04-04,STORE_2_555,33.0,0,0,-0.011791524729557967,0.021775822916710513,0.16840443038939026,0.08766935627314378,,0.136219747017989,,0.11482160231675857,,7.399449035812673,54.0,28.545454545454547,27.0,14.0,40.0,0.11041248341170352,0.13202363242438087,0.163526813098758,0.18550833320574872,0.20107074696845242,9.062487038813977,1884.0,28.80294190770222
66,2011-04-05,STORE_2_555,24.0,0,0,-0.03742649794062365,-0.025634973211065684,0.1566129056598323,0.12350778150185125,,0.2055462383939569,,0.11482160231675857,,7.347738917353532,54.0,28.47761194029851,27.0,14.0,40.0,0.11041248341170352,0.13202363242438087,0.16254423969164988,0.1851355459538244,0.20089054075501114,9.010697697661552,1908.0,28.812875429209285
67,2011-04-06,STORE_2_555,20.0,0,0,-0.01772876696043159,0.019697730980192063,0.11918640771920865,0.09231426131890731,,0.09691001300805642,,0.13202363242438087,,7.346020761245675,54.0,28.352941176470587,26.5,14.0,40.0,0.11041248341170352,0.12990510595275356,0.16156166628454177,0.1847627587019001,0.2007103345415699,9.002097112028872,1928.0,28.82280895071635
68,2011-04-07,STORE_2_555,24.0,0,0,0.01772876696043159,0.03545753392086318,0.10145764075877706,0.08297423506476394,,0.15261016320615836,,0.12350778150185125,,7.292585591262339,54.0,28.28985507246377,26.0,14.0,40.0,0.11041248341170352,0.12778657948112623,0.1605790928774337,0.18438997144997576,0.2005301283281286,8.951012839955043,1952.0,28.832742472223416
69,2011-04-08,STORE_2_555,34.99999999999999,0,0,0.045322978786657434,0.027594211826225845,0.11918640771920865,0.12350778150185125,,0.1566129056598323,,0.18364439694612714,,7.297959183673471,54.0,28.385714285714286,26.5,14.0,40.0,0.11041248341170352,0.12990510595275356,0.163526813098758,0.18401718419805146,0.20034992211468736,8.922034045630355,1987.0,28.84267599373048
70,2011-04-09,STORE_2_555,36.0,0,0,0.003895043883524185,-0.04142793490313325,0.16450938650586608,0.17609125905568124,,0.12778657948112623,,0.20197177803565874,,7.3160087284269,54.0,28.492957746478872,27.0,14.0,40.0,0.11041248341170352,0.13202363242438087,0.16450938650586608,0.18364439694612714,0.2001697159012461,8.904049222423017,2023.0,28.852609515237546
71,2011-04-10,STORE_2_555,33.0,0,0,-0.011791524729557967,-0.015686568613082152,0.16840443038939026,0.1566129056598323,,0.14037570678914674,,0.16840443038939026,,7.283950617283949,54.0,28.555555555555557,27.0,14.0,40.0,0.11041248341170352,0.13202363242438087,0.16450938650586608,0.18364439694612714,0.19998950968780485,8.85706352776688,2056.0,28.86254303674461
72,2011-04-11,STORE_2_555,27.999999999999996,0,0,-0.020393158641843295,-0.008601633912285328,0.1566129056598323,0.11482160231675857,,0.17226485120262838,,0.1566129056598323,,7.190842559579656,54.0,28.54794520547945,27.0,14.0,40.0,0.11041248341170352,0.13202363242438087,0.16450938650586608,0.18364439694612714,0.19980930347436354,8.795581428400428,2084.0,28.872476558251677
73,2011-04-12,STORE_2_555,26.0,0,0,-0.008433167536862768,0.011959991104980527,0.136219747017989,0.11482160231675857,,0.1605790928774337,,0.11918640771920865,,7.123447772096418,54.0,28.513513513513512,27.0,14.0,40.0,0.11041248341170352,0.13202363242438087,0.163526813098758,0.18364439694612714,0.1996290972609223,8.740150218519167,2110.0,28.882410079758742
74,2011-04-13,STORE_2_555,27.999999999999996,0,0,0.008433167536862768,0.016866335073725536,0.12778657948112623,0.13202363242438087,,0.19836765376683346,,0.10145764075877706,,7.03431111111111,54.0,28.506666666666668,27.0,14.0,40.0,0.11041248341170352,0.13202363242438087,0.16254423969164988,0.18364439694612714,0.19944889104748104,8.681096787931892,2138.0,28.892343601265807
75,2011-04-14,STORE_2_555,24.0,0,0,-0.017033339298780356,-0.025466506835643124,0.136219747017989,0.12350778150185125,,0.11482160231675857,,0.11918640771920865,,6.991689750692519,54.0,28.44736842105263,27.0,14.0,40.0,0.11041248341170352,0.13202363242438087,0.16156166628454177,0.18364439694612714,0.19926868483403978,8.638510267929465,2162.0,28.902277122772873
76,2011-04-15,STORE_2_555,29.999999999999996,0,0,0.02530586526477023,0.042339204563550586,0.11918640771920865,0.18364439694612714,,0.09691001300805642,,0.16450938650586608,,6.923933209647495,54.0,28.467532467532468,27.0,14.0,40.0,0.11041248341170352,0.13202363242438087,0.1605790928774337,0.18364439694612714,0.19908847862059853,8.58331370126519,2192.0,28.912210644279938
77,2011-04-16,STORE_2_555,29.999999999999996,0,0,0.0,-0.02530586526477023,0.14449227298397888,0.20197177803565874,,0.09691001300805642,,0.16840443038939026,,6.85733070348455,54.0,28.487179487179485,27.0,14.0,40.0,0.1115147631379673,0.13202363242438087,0.15958754607303333,0.18364439694612714,0.19890827240715722,8.529160963810376,2222.0,28.922144165787003
78,2011-04-17,STORE_2_555,44.0,0,0,0.05387538078285459,0.05387538078285459,0.14449227298397888,0.16840443038939026,,0.09691001300805642,,0.1566129056598323,,6.989264540938953,54.0,28.68354430379747,27.0,14.0,40.0,0.11261704286423105,0.13202363242438087,0.16254423969164988,0.18438997144997576,0.19872806619371597,8.652173735760352,2266.0,28.93207768729407
79,2011-04-18,STORE_2_555,25.000000000000007,0,0,-0.07485987226498221,-0.12873525304783678,0.19836765376683346,0.1566129056598323,,0.11041248341170352,,0.136219747017989,,6.9421875,54.0,28.6375,27.0,14.0,40.0,0.1137193225904948,0.13202363242438087,0.16156166628454177,0.1840171841980515,0.19854785998027472,8.60709708630991,2291.0,28.942011208801134
80,2011-04-19,STORE_2_555,33.0,0,0,0.033105124157981045,0.10796499642296326,0.12350778150185125,0.11918640771920865,,0.14449227298397888,,0.12778657948112623,,6.9163237311385455,54.0,28.691358024691358,27.0,14.0,40.0,0.11482160231675857,0.13202363242438087,0.1605790928774337,0.18364439694612714,0.19836765376683346,8.566857614243162,2324.0,28.9519447303082
81,2011-04-20,STORE_2_555,24.0,0,0,-0.03742649794062365,-0.0705316220986047,0.1566129056598323,0.10145764075877706,,0.08766935627314378,,0.136219747017989,,6.882212968471147,54.0,28.634146341463413,27.0,14.0,40.0,0.11482160231675857,0.13202363242438087,0.15958754607303333,0.18364439694612714,0.19836765376683346,8.52955963305699,2348.0,28.961878251815264
82,2011-04-21,STORE_2_555,29.0,0,0,0.021189299069938092,0.05861579701056174,0.11918640771920865,0.11918640771920865,,0.12350778150185125,,0.11918640771920865,,6.804180577732617,54.0,28.63855421686747,27.0,14.0,40.0,0.11482160231675857,0.13202363242438087,0.158595999268633,0.18364439694612714,0.19836765376683346,8.477485696707388,2377.0,28.97181177332233
83,2011-04-22,STORE_2_555,27.999999999999996,0,0,-0.004155959771157736,-0.025345258841095827,0.14037570678914674,0.16450938650586608,,0.09231426131890731,,0.14449227298397888,,6.729875283446714,54.0,28.63095238095238,27.0,14.0,40.0,0.11482160231675857,0.13202363242438087,0.15760445246423266,0.18364439694612714,0.19836765376683346,8.426549783316846,2405.0,28.981745294829395
84,2011-04-23,STORE_2_555,29.0,0,0,0.004155959771157736,0.008311919542315471,0.136219747017989,0.16840443038939026,,0.08297423506476394,,0.14449227298397888,,6.655501730103805,54.0,28.63529411764706,27.0,14.0,40.0,0.11482160231675857,0.13202363242438087,0.1566129056598323,0.18364439694612714,0.19836765376683346,8.37633721921963,2434.0,28.99167881633649
85,2011-04-24,STORE_2_555,20.0,0,0,-0.03891806603036968,-0.043074025801527416,0.14037570678914674,0.1566129056598323,,0.12350778150185125,,0.19836765376683346,,6.666846944294212,54.0,28.53488372093023,27.0,14.0,40.0,0.11482160231675857,0.13202363242438087,0.1566129056598323,0.18364439694612714,0.19836765376683346,8.378821585568623,2454.0,29.001612337843554
86,2011-04-25,STORE_2_555,27.999999999999996,0,0,0.034762106259211945,0.07368017228958162,0.10145764075877706,0.136219747017989,,0.17609125905568124,,0.12350778150185125,,6.595587263839343,54.0,28.528735632183906,27.0,14.0,40.0,0.11482160231675857,0.13202363242438087,0.1566129056598323,0.18364439694612714,0.19836765376683346,8.330162454737616,2482.0,29.01154585935062
87,2011-04-26,STORE_2_555,19.0,0,0,-0.03930973400993258,-0.07407184026914453,0.136219747017989,0.12778657948112623,,0.1566129056598323,,0.1566129056598323,,6.614152892561986,54.0,28.420454545454547,27.0,14.0,40.0,0.1137193225904948,0.13202363242438087,0.1566129056598323,0.18364439694612714,0.19836765376683346,8.344206594941161,2501.0,29.021479380857684
88,2011-04-27,STORE_2_555,26.0,0,0,0.030876566473069814,0.0701863004830024,0.09691001300805642,0.136219747017989,,0.11482160231675857,,0.11918640771920865,,6.563060219669234,54.0,28.39325842696629,27.0,14.0,40.0,0.11482160231675857,0.13202363242438087,0.1566129056598323,0.18364439694612714,0.19836765376683346,8.300626999220231,2527.0,29.03141290236475
89,2011-04-28,STORE_2_555,24.0,0,0,-0.008600171761917588,-0.0394767382349874,0.12778657948112623,0.11918640771920865,,0.11482160231675857,,0.14037570678914674,,6.5313580246913565,54.0,28.344444444444445,27.0,14.0,40.0,0.11482160231675857,0.13202363242438087,0.1566129056598323,0.18364439694612714,0.19836765376683346,8.266843359232857,2551.0,29.041346423871815
90,2011-04-29,STORE_2_555,18.0,0,0,-0.026872146400301333,-0.018271974638383745,0.11918640771920865,0.14449227298397888,,0.13202363242438087,,0.136219747017989,0.09231426131890731,6.5313580246913565,54.0,28.344444444444445,27.0,14.0,40.0,0.11482160231675857,0.13202363242438087,0.1566129056598323,0.18364439694612714,0.19836765376683346,8.266843359232857,2551.0,29.05127994537888
91,2011-04-30,STORE_2_555,40.00000000000001,0,0,0.09133013562721982,0.11820228202752116,0.09231426131890731,0.14449227298397888,,0.12350778150185125,,0.14037570678914674,0.17609125905568124,6.557037037037037,54.0,28.366666666666667,27.0,14.0,40.0,0.11482160231675857,0.13202363242438087,0.1566129056598323,0.18364439694612714,0.19836765376683346,8.29572788389274,2553.0,29.061213466885945
92,2011-05-01,STORE_2_555,42.0,0,0,0.0074240180792068955,-0.08390611754801293,0.18364439694612714,0.19836765376683346,,0.18364439694612714,,0.10145764075877706,0.07342891715853353,6.590370370370372,54.0,28.677777777777777,27.0,15.0,39.0,0.11482160231675857,0.13202363242438087,0.1566129056598323,0.1840171841980515,0.19836765376683346,8.275899459283853,2581.0,29.07114698839301
93,2011-05-02,STORE_2_555,29.999999999999996,0,0,-0.046576142041355156,-0.05400016012056205,0.19106841502533403,0.12350778150185125,,0.20197177803565874,,0.136219747017989,0.11041248341170352,6.540740740740739,54.0,28.766666666666666,27.5,15.0,39.0,0.11482160231675857,0.13412168972118493,0.1566129056598323,0.1840171841980515,0.19836765376683346,8.246279378938459,2589.0,29.081080509900076
94,2011-05-03,STORE_2_555,37.0,0,0,0.027772578218649507,0.07434872026000466,0.14449227298397888,0.1566129056598323,,0.16840443038939026,,0.09691001300805642,0.14857018540441827,6.614814814814811,54.0,28.833333333333332,27.5,15.0,39.0,0.11482160231675857,0.13412168972118493,0.15958754607303333,0.1840171841980515,0.19836765376683346,8.288681872952491,2595.0,29.09101403140714
95,2011-05-04,STORE_2_555,29.0,0,0,-0.031889144413481646,-0.05966172263213115,0.17226485120262838,0.11918640771920865,,0.1566129056598323,,0.12778657948112623,0.16450938650586608,6.540740740740739,54.0,28.766666666666666,27.5,15.0,39.0,0.11482160231675857,0.13412168972118493,0.1566129056598323,0.1840171841980515,0.19836765376683346,8.262613782384722,2589.0,29.100947552914207
96,2011-05-05,STORE_2_555,33.0,0,0,0.01623719887068556,0.048126343284167206,0.14037570678914674,0.14037570678914674,,0.11918640771920865,,0.11918640771920865,0.11041248341170352,6.523456790123458,54.0,28.88888888888889,28.0,15.0,39.0,0.11482160231675857,0.136219747017989,0.1566129056598323,0.1840171841980515,0.19836765376683346,8.242728418749973,2600.0,29.110881074421272
97,2011-05-06,STORE_2_555,21.000000000000004,0,0,-0.05065476367437878,-0.06689196254506434,0.1566129056598323,0.136219747017989,,0.10145764075877706,,0.09231426131890731,0.21609642072726507,6.353086419753087,54.0,28.57777777777778,27.5,15.0,39.0,0.11482160231675857,0.13412168972118493,0.1566129056598323,0.18364439694612714,0.19673222567204113,7.9999687889528515,2572.0,29.120814595928337
98,2011-05-07,STORE_2_555,31.0,0,0,0.042612043418964754,0.09326680709334353,0.10595814198545352,0.14037570678914674,,0.11918640771920865,,0.18364439694612714,0.18364439694612714,6.241975308641973,54.0,28.477777777777778,27.5,15.0,39.0,0.11482160231675857,0.13412168972118493,0.1566129056598323,0.18364439694612714,0.19673222567204113,7.911345540719932,2563.0,29.130748117435402
99,2011-05-08,STORE_2_555,26.0,0,0,-0.020783605923292037,-0.06339564934225679,0.14857018540441827,0.10145764075877706,,0.16450938650586608,,0.19106841502533403,0.15261016320615836,6.2214814814814785,54.0,28.41111111111111,27.0,15.0,39.0,0.11482160231675857,0.13202363242438087,0.1566129056598323,0.18364439694612714,0.19673222567204113,7.906610012997225,2557.0,29.140681638942468
100,2011-05-09,STORE_2_555,25.000000000000007,0,0,-0.004278797979274981,0.016504807944017055,0.12778657948112623,0.136219747017989,,0.16840443038939026,,0.14449227298397888,0.13202363242438087,6.240740740740743,54.0,28.38888888888889,27.0,15.0,39.0,0.11482160231675857,0.13202363242438087,0.1566129056598323,0.18364439694612714,0.19673222567204113,7.913428275164139,2555.0,29.150615160449533
101,2011-05-10,STORE_2_555,24.0,0,0,-0.004321373782642607,-4.257580336762545e-05,0.12350778150185125,0.09691001300805642,,0.1566129056598323,,0.17226485120262838,0.14037570678914674,6.274074074074071,54.0,28.333333333333332,27.0,15.0,39.0,0.11482160231675857,0.13202363242438087,0.1566129056598323,0.18364439694612714,0.19673222567204113,7.926629843392292,2550.0,29.160548681956598
102,2011-05-11,STORE_2_555,17.0,0,0,-0.03151705144606487,-0.027195677663422263,0.11918640771920865,0.12778657948112623,,0.136219747017989,,0.14037570678914674,0.11482160231675857,6.330370370370369,54.0,28.266666666666666,27.0,15.0,39.0,0.11482160231675857,0.13202363242438087,0.1566129056598323,0.18364439694612714,0.19673222567204113,7.996909515416116,2544.0,29.170482203463663
103,2011-05-12,STORE_2_555,27.999999999999996,0,0,0.048550390744845226,0.0800674421909101,0.08766935627314378,0.11918640771920865,,0.12778657948112623,,0.1566129056598323,0.18364439694612714,6.179259259259258,54.0,28.133333333333333,27.0,15.0,39.0,0.11482160231675857,0.13202363242438087,0.1566129056598323,0.18364439694612714,0.19673222567204113,7.898513585095147,2532.0,29.18041572497073
104,2011-05-13,STORE_2_555,27.999999999999996,0,0,0.0,-0.048550390744845226,0.136219747017989,0.09231426131890731,,0.136219747017989,,0.10595814198545352,0.2331297600260454,5.859753086419753,46.0,27.844444444444445,27.0,15.0,31.0,0.11482160231675857,0.13202363242438087,0.1566129056598323,0.17684657284472588,0.193084139772857,7.401656527481635,2506.0,29.190349246477794
105,2011-05-14,STORE_2_555,29.999999999999996,0,0,0.008272525965989874,0.008272525965989874,0.136219747017989,0.18364439694612714,,0.11918640771920865,,0.14857018540441827,0.1947333691117394,5.708888888888889,46.0,27.7,27.0,15.0,31.0,0.11482160231675857,0.13202363242438087,0.1556122200464138,0.1726474919879337,0.18940514952335033,7.227366841435002,2493.0,29.20028276798486
106,2011-05-15,STORE_2_555,29.0,0,0,-0.004116566194832139,-0.012389092160822013,0.14449227298397888,0.19106841502533403,,0.14449227298397888,,0.12778657948112623,0.10595814198545352,5.650864197530864,46.0,27.788888888888888,27.0,15.0,31.0,0.11482160231675857,0.13202363242438087,0.1556122200464138,0.1726474919879337,0.18940514952335033,7.193152868510635,2501.0,29.210216289491925
107,2011-05-16,STORE_2_555,20.0,0,0,-0.03891806603036968,-0.03480149983553754,0.14037570678914674,0.14449227298397888,,0.14449227298397888,,0.12350778150185125,0.08766935627314378,5.618271604938268,46.0,27.822222222222223,27.0,15.0,31.0,0.11482160231675857,0.13202363242438087,0.1556122200464138,0.1726474919879337,0.18940514952335033,7.1494130784136924,2504.0,29.22014981099899
108,2011-05-17,STORE_2_555,24.0,0,0,0.01772876696043159,0.05664683299080127,0.10145764075877706,0.17226485120262838,,0.19836765376683346,,0.11918640771920865,0.13202363242438087,5.650864197530864,46.0,27.788888888888888,27.0,15.0,31.0,0.11482160231675857,0.13202363242438087,0.1556122200464138,0.1726474919879337,0.18940514952335033,7.160275000124173,2501.0,29.230083332506055
109,2011-05-18,STORE_2_555,16.000000000000004,0,0,-0.03621217265444471,-0.053940939614876296,0.11918640771920865,0.14037570678914674,,0.12350778150185125,,0.08766935627314378,0.11041248341170352,5.71604938271605,46.0,27.72222222222222,27.0,15.0,31.0,0.11482160231675857,0.13202363242438087,0.1556122200464138,0.1726474919879337,0.18940514952335033,7.242241532976688,2495.0,29.24001685401315
110,2011-05-19,STORE_2_555,20.0,0,0,0.01848340569401312,0.05469557834845783,0.08297423506476394,0.1566129056598323,,0.1566129056598323,,0.136219747017989,0.10145764075877706,5.71604938271605,46.0,27.72222222222222,27.0,15.0,31.0,0.11482160231675857,0.13202363242438087,0.1556122200464138,0.1726474919879337,0.18940514952335033,7.242241532976688,2495.0,29.249950375520214
111,2011-05-20,STORE_2_555,32.0,0,0,0.051152522447381304,0.032669116753368185,0.10145764075877706,0.10595814198545352,,0.11918640771920865,,0.136219747017989,0.12778657948112623,5.7444444444444445,46.0,27.788888888888888,27.5,15.0,31.0,0.11482160231675857,0.13412168972118493,0.1556122200464138,0.1726474919879337,0.18940514952335033,7.253816422004682,2501.0,29.25988389702728
112,2011-05-21,STORE_2_555,32.0,0,0,0.0,-0.051152522447381304,0.15261016320615836,0.14857018540441827,,0.14037570678914674,,0.14449227298397888,0.14037570678914674,5.777777777777775,46.0,27.822222222222223,27.5,15.0,31.0,0.11482160231675857,0.13412168972118493,0.1556122200464138,0.1726474919879337,0.18940514952335033,7.266326487587777,2504.0,29.269817418534345
113,2011-05-22,STORE_2_555,24.0,0,0,-0.033423755486949716,-0.033423755486949716,0.15261016320615836,0.12778657948112623,,0.136219747017989,,0.14037570678914674,0.18737226946537028,5.66962962962963,46.0,27.633333333333333,27.0,15.0,31.0,0.11482160231675857,0.13202363242438087,0.15261016320615836,0.17226485120262838,0.1877276068896909,7.139776221590003,2487.0,29.27975094004141
114,2011-05-23,STORE_2_555,21.000000000000004,0,0,-0.013228265733755129,0.020195489753194587,0.11918640771920865,0.12350778150185125,,0.14037570678914674,,0.10145764075877706,0.09691001300805642,5.647901234567902,46.0,27.655555555555555,27.0,15.0,31.0,0.11482160231675857,0.13202363242438087,0.15261016320615836,0.17226485120262838,0.1877276068896909,7.115675228504534,2489.0,29.289684461548475
115,2011-05-24,STORE_2_555,32.0,0,0,0.046652021220704845,0.059880286954459974,0.10595814198545352,0.11918640771920865,,0.10145764075877706,,0.11918640771920865,0.10595814198545352,5.622222222222222,46.0,27.77777777777778,27.5,15.0,31.0,0.11591280366737108,0.13412168972118493,0.15261016320615836,0.17226485120262838,0.1877276068896909,7.094510898848675,2500.0,29.29961798305554
116,2011-05-25,STORE_2_555,25.000000000000007,0,0,-0.02910238170430711,-0.07575440292501195,0.15261016320615836,0.08766935627314378,,0.136219747017989,,0.08297423506476394,0.11918640771920865,5.611111111111111,46.0,27.788888888888888,27.5,15.0,31.0,0.11591280366737108,0.13412168972118493,0.15261016320615836,0.17226485120262838,0.1877276068896909,7.0893090017537705,2501.0,29.309551504562606
117,2011-05-26,STORE_2_555,21.000000000000004,0,0,-0.017549639516397736,0.011552742187909373,0.12350778150185125,0.136219747017989,,0.09691001300805642,,0.10145764075877706,0.11482160231675857,5.633333333333334,46.0,27.766666666666666,27.5,15.0,31.0,0.11591280366737108,0.13412168972118493,0.15261016320615836,0.17226485120262838,0.1877276068896909,7.107599983685765,2499.0,29.31948502606967
118,2011-05-27,STORE_2_555,34.99999999999999,0,0,0.05855124452041256,0.0761008840368103,0.10595814198545352,0.136219747017989,,0.12778657948112623,,0.15261016320615836,0.16450938650586608,5.633333333333334,46.0,27.766666666666666,27.5,15.0,31.0,0.11591280366737108,0.13412168972118493,0.15261016320615836,0.17226485120262838,0.1877276068896909,7.107599983685764,2499.0,29.329418547576736
119,2011-05-28,STORE_2_555,22.000000000000007,0,0,-0.054096903094162554,-0.11264814761457512,0.16450938650586608,0.14449227298397888,,0.11918640771920865,,0.15261016320615836,0.17226485120262838,5.591111111111113,46.0,27.6,27.0,15.0,31.0,0.11482160231675857,0.13202363242438087,0.15261016320615836,0.17226485120262838,0.1877276068896909,7.064390842636617,2484.0,29.3393520690838
120,2011-05-29,STORE_2_555,29.0,0,0,0.029963223377443213,0.08406012647160577,0.11041248341170352,0.14037570678914674,,0.09231426131890731,,0.11918640771920865,0.07822780004030226,5.466666666666665,46.0,27.755555555555556,27.5,16.0,30.0,0.11591280366737108,0.13412168972118493,0.15261016320615836,0.17226485120262838,0.1877276068896909,6.936811285560941,2498.0,29.349285590590867
121,2011-05-30,STORE_2_555,26.0,1,0,-0.012589127308020504,-0.042552350685463716,0.14037570678914674,0.10145764075877706,,0.18364439694612714,,0.10595814198545352,0.14037570678914674,5.4716049382716045,46.0,27.72222222222222,27.0,16.0,30.0,0.11591280366737108,0.13202363242438087,0.15261016320615836,0.17226485120262838,0.1877276068896909,6.93797201496226,2495.0,29.359219112097932
122,2011-05-31,STORE_2_555,22.000000000000007,0,0,-0.01737409606942271,-0.004784968761402206,0.12778657948112623,0.11918640771920865,,0.19106841502533403,,0.15261016320615836,0.11918640771920865,5.493333333333333,46.0,27.7,27.0,16.0,30.0,0.11482160231675857,0.13202363242438087,0.15261016320615836,0.17226485120262838,0.1877276068896909,6.95321443731142,2493.0,29.369152633604998
123,2011-06-01,STORE_2_555,23.0,0,0,0.004409118905055048,0.021783214974477758,0.11041248341170352,0.08297423506476394,,0.14449227298397888,,0.12350778150185125,0.12778657948112623,5.525925925925928,46.0,27.666666666666668,27.0,16.0,30.0,0.11482160231675857,0.13202363242438087,0.15261016320615836,0.17226485120262838,0.1877276068896909,6.968629546245732,2490.0,29.379086155112063
124,2011-06-02,STORE_2_555,22.000000000000007,0,0,-0.004409118905055048,-0.008818237810110097,0.11482160231675857,0.10145764075877706,,0.17226485120262838,,0.10595814198545352,0.13202363242438087,5.580246913580246,46.0,27.61111111111111,26.5,16.0,30.0,0.11482160231675857,0.12990510595275356,0.15261016320615836,0.17226485120262838,0.1877276068896909,6.993888896574492,2485.0,29.389019676619128
125,2011-06-03,STORE_2_555,37.0,0,0,0.06185236779092486,0.06626148669597991,0.11041248341170352,0.15261016320615836,,0.14037570678914674,,0.16450938650586608,0.136219747017989,5.682469135802469,46.0,27.711111111111112,26.5,16.0,30.0,0.11482160231675857,0.12990510595275356,0.15261016320615836,0.17226485120262838,0.1877276068896909,7.0635071729999135,2494.0,29.398953198126193
126,2011-06-04,STORE_2_555,37.0,0,0,0.0,-0.06185236779092486,0.17226485120262838,0.15261016320615836,,0.1566129056598323,,0.11041248341170352,0.2055462383939569,5.580246913580246,45.0,27.61111111111111,26.5,16.0,29.0,0.11482160231675857,0.12990510595275356,0.15261016320615836,0.17226485120262838,0.18364439694612714,6.862525568515344,2485.0,29.40888671963326
127,2011-06-05,STORE_2_555,34.0,0,0,-0.011685758325194695,-0.011685758325194695,0.17226485120262838,0.11918640771920865,,0.10595814198545352,,0.14037570678914674,0.09691001300805642,5.555555555555555,45.0,27.77777777777778,27.5,16.0,29.0,0.11482160231675857,0.13412168972118493,0.1556122200464138,0.17226485120262838,0.18364439694612714,6.833127794478923,2500.0,29.418820241140324
128,2011-06-06,STORE_2_555,33.0,0,0,-0.003966187217601391,0.007719571107593304,0.1605790928774337,0.10595814198545352,,0.14857018540441827,,0.12778657948112623,0.15261016320615836,5.566666666666667,45.0,27.788888888888888,27.5,16.0,29.0,0.11482160231675857,0.13412168972118493,0.1566129056598323,0.17226485120262838,0.18364439694612714,6.840879180707966,2501.0,29.42875376264739
129,2011-06-07,STORE_2_555,25.000000000000007,0,0,-0.033105124157981045,-0.029138936940379653,0.1566129056598323,0.15261016320615836,,0.12778657948112623,,0.11041248341170352,0.1566129056598323,5.537777777777778,45.0,27.7,26.5,16.0,29.0,0.11482160231675857,0.12990510595275356,0.1556122200464138,0.17226485120262838,0.18364439694612714,6.82436151682775,2493.0,29.438687284154454
130,2011-06-08,STORE_2_555,40.00000000000001,0,0,0.060136615444275884,0.09324173960225693,0.12350778150185125,0.12350778150185125,,0.12350778150185125,,0.11482160231675857,0.12778657948112623,5.655555555555556,45.0,27.855555555555554,27.5,16.0,29.0,0.11482160231675857,0.13412168972118493,0.1566129056598323,0.17226485120262838,0.18364439694612714,6.9436918443622755,2507.0,29.44862080566152
131,2011-06-09,STORE_2_555,24.0,0,0,-0.06445798922691849,-0.12459460467119438,0.18364439694612714,0.10595814198545352,,0.11918640771920865,,0.11041248341170352,0.14037570678914674,5.684444444444444,45.0,27.8,26.5,16.0,29.0,0.11482160231675857,0.12990510595275356,0.1566129056598323,0.17226485120262838,0.18364439694612714,6.9544262843041365,2502.0,29.458554327168585
132,2011-06-10,STORE_2_555,36.0,0,0,0.04921802267018162,0.11367601189710011,0.11918640771920865,0.16450938650586608,,0.08766935627314378,,0.17226485120262838,0.17226485120262838,5.673086419753086,45.0,27.788888888888888,26.5,16.0,29.0,0.11482160231675857,0.12990510595275356,0.1566129056598323,0.17226485120262838,0.18364439694612714,6.940346856022228,2501.0,29.46848784867565
133,2011-06-11,STORE_2_555,29.0,0,0,-0.028028723600243527,-0.07724674627042515,0.16840443038939026,0.11041248341170352,,0.136219747017989,,0.17226485120262838,0.1605790928774337,5.616296296296297,45.0,27.733333333333334,26.5,16.0,29.0,0.11482160231675857,0.12990510595275356,0.1556122200464138,0.17226485120262838,0.18364439694612714,6.910015528690335,2496.0,29.478421370182744
134,2011-06-12,STORE_2_555,44.0,0,0,0.057991946977686726,0.08602067057793025,0.14037570678914674,0.14037570678914674,,0.136219747017989,,0.1605790928774337,0.19836765376683346,5.616296296296297,45.0,27.733333333333334,26.5,16.0,29.0,0.11482160231675857,0.12990510595275356,0.1556122200464138,0.17226485120262838,0.18364439694612714,6.910015528690335,2496.0,29.48835489168981
135,2011-06-13,STORE_2_555,32.0,0,0,-0.0457574905606751,-0.10374943753836183,0.19836765376683346,0.12778657948112623,,0.14449227298397888,,0.1566129056598323,0.11482160231675857,5.61111111111111,45.0,27.833333333333332,27.5,16.0,29.0,0.11482160231675857,0.13412168972118493,0.1556122200464138,0.17226485120262838,0.18364439694612714,6.905867884339742,2505.0,29.498288413196875
136,2011-06-14,STORE_2_555,26.0,0,0,-0.024823583725032128,0.020933906835642974,0.15261016320615836,0.11041248341170352,,0.14037570678914674,,0.12350778150185125,0.09691001300805642,5.533333333333333,45.0,27.91111111111111,27.5,16.0,29.0,0.11591280366737108,0.13412168972118493,0.1556122200464138,0.17226485120262838,0.18364439694612714,6.844409585332052,2512.0,29.50822193470394
137,2011-06-15,STORE_2_555,29.999999999999996,0,0,0.016705693502852642,0.04152927722788477,0.12778657948112623,0.11482160231675857,,0.10145764075877706,,0.18364439694612714,0.09691001300805642,5.459259259259262,45.0,28.033333333333335,28.0,16.0,29.0,0.11918640771920865,0.136219747017989,0.1556122200464138,0.17226485120262838,0.18364439694612714,6.781418763757198,2523.0,29.518155456211005
138,2011-06-16,STORE_2_555,23.0,0,0,-0.029670670667220303,-0.046376364170072945,0.14449227298397888,0.11041248341170352,,0.11918640771920865,,0.11918640771920865,0.09691001300805642,5.419753086419754,45.0,28.07777777777778,28.0,16.0,29.0,0.11918640771920865,0.136219747017989,0.1556122200464138,0.17226485120262838,0.18364439694612714,6.734495764976717,2527.0,29.52808897771807
139,2011-06-17,STORE_2_555,22.000000000000007,0,0,-0.004409118905055048,0.025261551762165255,0.11482160231675857,0.17226485120262838,,0.08297423506476394,,0.16840443038939026,0.11041248341170352,5.419753086419754,45.0,28.07777777777778,28.0,16.0,29.0,0.11918640771920865,0.136219747017989,0.1556122200464138,0.17226485120262838,0.18364439694612714,6.734495764976717,2527.0,29.538022499225136
140,2011-06-18,STORE_2_555,39.0,0,0,0.0694717646611168,0.07388088356617185,0.11041248341170352,0.17226485120262838,,0.10145764075877706,,0.14037570678914674,0.14449227298397888,5.530864197530867,45.0,28.177777777777777,28.0,16.0,29.0,0.11918640771920865,0.136219747017989,0.1566129056598323,0.1726474919879337,0.18364439694612714,6.8295092981438446,2536.0,29.5479560207322
141,2011-06-19,STORE_2_555,31.0,0,0,-0.03131406266840206,-0.10078582732951887,0.17988424807282033,0.1605790928774337,,0.15261016320615836,,0.19836765376683346,0.08766935627314378,5.451851851851851,45.0,28.333333333333332,28.0,16.0,29.0,0.11918640771920865,0.136219747017989,0.1566129056598323,0.1726474919879337,0.18364439694612714,6.7307778738060335,2550.0,29.557889542239266
142,2011-06-20,STORE_2_555,47.0,0,0,0.060521333754188306,0.09183539642259037,0.14857018540441827,0.1566129056598323,,0.15261016320615836,,0.15261016320615836,0.12350778150185125,5.638518518518519,47.0,28.57777777777778,28.0,16.0,31.0,0.11918640771920865,0.136219747017989,0.1566129056598323,0.1764705579573952,0.1877276068896909,7.00237163319602,2572.0,29.56782306374633
143,2011-06-21,STORE_2_555,47.0,0,0,0.0,-0.060521333754188306,0.20909151915860658,0.12350778150185125,,0.11918640771920865,,0.12778657948112623,0.09231426131890731,5.739999999999999,47.0,28.9,28.0,16.0,31.0,0.11918640771920865,0.136219747017989,0.1566129056598323,0.18026026296015105,0.1950829963331587,7.175253978983695,2601.0,29.577756585253397
144,2011-06-22,STORE_2_555,27.000000000000004,0,0,-0.07706788673422571,-0.07706788673422571,0.20909151915860658,0.18364439694612714,,0.10595814198545352,,0.14449227298397888,0.08297423506476394,5.626172839506173,47.0,29.022222222222222,28.0,16.0,31.0,0.11918640771920865,0.136219747017989,0.1566129056598323,0.18026026296015105,0.1950829963331587,7.045562437621426,2612.0,29.587690106760462
145,2011-06-23,STORE_2_555,25.000000000000007,0,0,-0.008515850922529614,0.0685520358116961,0.13202363242438087,0.11918640771920865,,0.15261016320615836,,0.11482160231675857,0.12350778150185125,5.6261728395061725,47.0,29.022222222222222,28.0,16.0,31.0,0.11918640771920865,0.136219747017989,0.1566129056598323,0.18026026296015105,0.1950829963331587,7.045562437621426,2612.0,29.597623628267527
146,2011-06-24,STORE_2_555,34.0,0,0,0.037071311375582436,0.04558716229811205,0.12350778150185125,0.16840443038939026,,0.12350778150185125,,0.11041248341170352,0.17609125905568124,5.5767901234567905,47.0,28.977777777777778,28.0,16.0,31.0,0.11918640771920865,0.136219747017989,0.1566129056598323,0.18026026296015105,0.1950829963331587,7.000766856514788,2608.0,29.607557149774593
147,2011-06-25,STORE_2_555,27.999999999999996,0,0,-0.024359345859444687,-0.06143065723502712,0.1605790928774337,0.14037570678914674,,0.10595814198545352,,0.17988424807282033,0.1566129056598323,5.539259259259259,47.0,28.92222222222222,28.0,16.0,31.0,0.11918640771920865,0.136219747017989,0.1566129056598323,0.18026026296015105,0.1950829963331587,6.988317342243771,2603.0,29.617490671281658
148,2011-06-26,STORE_2_555,32.0,0,0,0.01639041618816936,0.040749762047614047,0.136219747017989,0.19836765376683346,,0.16450938650586608,,0.14857018540441827,0.11482160231675857,5.515061728395064,47.0,29.022222222222222,28.0,16.0,31.0,0.11918640771920865,0.136219747017989,0.1566129056598323,0.18026026296015105,0.1950829963331587,6.9669811587886725,2612.0,29.627424192788723
149,2011-06-27,STORE_2_555,18.0,0,0,-0.06029590188725105,-0.07668631807542041,0.15261016320615836,0.15261016320615836,,0.11041248341170352,,0.20909151915860658,0.11482160231675857,5.565185185185184,47.0,28.966666666666665,28.0,16.0,31.0,0.11918640771920865,0.136219747017989,0.1566129056598323,0.18026026296015105,0.1950829963331587,7.035144520687994,2607.0,29.63735771429579
150,2011-06-28,STORE_2_555,18.0,0,0,0.0,0.06029590188725105,0.09231426131890731,0.12778657948112623,,0.14037570678914674,,0.20909151915860658,0.13202363242438087,5.660740740740741,47.0,28.866666666666667,28.0,16.0,31.0,0.11918640771920865,0.136219747017989,0.1566129056598323,0.18026026296015105,0.1950829963331587,7.126781267581815,2598.0,29.647291235802854
151,2011-06-29,STORE_2_555,29.0,0,0,0.048061445470239425,0.048061445470239425,0.09231426131890731,0.14449227298397888,,0.12778657948112623,,0.13202363242438087,0.12350778150185125,5.620246913580246,47.0,28.91111111111111,28.0,16.0,31.0,0.11918640771920865,0.136219747017989,0.1566129056598323,0.18026026296015105,0.1950829963331587,7.114859342999106,2602.0,29.65722475730992
152,2011-06-30,STORE_2_555,32.0,0,0,0.012234456417011624,-0.0358269890532278,0.14037570678914674,0.11482160231675857,,0.11041248341170352,,0.12350778150185125,0.18364439694612714,5.5293827160493825,47.0,28.822222222222223,28.0,16.0,31.0,0.11918640771920865,0.136219747017989,0.1566129056598323,0.17302679088964765,0.1950829963331587,7.024160196558474,2594.0,29.667158278816984
153,2011-07-01,STORE_2_555,40.00000000000001,0,0,0.031034233739968775,0.01879977732295715,0.15261016320615836,0.11041248341170352,,0.11482160231675857,,0.1605790928774337,0.20197177803565874,5.472592592592592,47.0,28.766666666666666,28.0,16.0,31.0,0.11918640771920865,0.136219747017989,0.1566129056598323,0.17302679088964765,0.1877276068896909,6.913673148514789,2589.0,29.67709180032405
154,2011-07-02,STORE_2_555,42.0,0,0,0.0074240180792068955,-0.02361021566076188,0.18364439694612714,0.17988424807282033,,0.11041248341170352,,0.136219747017989,0.16840443038939026,5.540740740740739,47.0,28.833333333333332,28.0,16.0,31.0,0.11918640771920865,0.136219747017989,0.1566129056598323,0.18026026296015105,0.19106841502533403,7.012428773497154,2595.0,29.687025321831115
155,2011-07-03,STORE_2_555,44.0,0,0,0.007299238741499431,-0.00012477933770746463,0.19106841502533403,0.14857018540441827,,0.17226485120262838,,0.15261016320615836,0.1566129056598323,5.665679012345682,47.0,28.955555555555556,28.0,16.0,31.0,0.11918640771920865,0.136219747017989,0.1566129056598323,0.18364439694612714,0.1950829963331587,7.179732884629602,2606.0,29.69695884333818
156,2011-07-04,STORE_2_555,37.0,1,0,-0.02610280256420508,-0.03340204130570451,0.19836765376683346,0.20909151915860658,,0.17226485120262838,,0.09231426131890731,0.11918640771920865,5.715555555555559,47.0,29.1,28.5,16.0,31.0,0.11918640771920865,0.13829772690356787,0.1566129056598323,0.18364439694612714,0.1950829963331587,7.209622159683079,2619.0,29.706892364845245
157,2011-07-05,STORE_2_555,37.0,0,0,0.0,0.02610280256420508,0.17226485120262838,0.20909151915860658,,0.1605790928774337,,0.09231426131890731,0.10145764075877706,5.727407407407408,47.0,29.288888888888888,29.0,16.0,31.0,0.11918640771920865,0.14037570678914674,0.1566129056598323,0.18364439694612714,0.1950829963331587,7.191200059942873,2636.0,29.71682588635231
158,2011-07-06,STORE_2_555,40.99999999999999,0,0,0.015107418262741895,0.015107418262741895,0.17226485120262838,0.13202363242438087,,0.1566129056598323,,0.14037570678914674,0.11918640771920865,5.819753086419748,47.0,29.477777777777778,29.0,16.0,31.0,0.11918640771920865,0.14037570678914674,0.15958754607303333,0.18364439694612714,0.1950829963331587,7.273513250571707,2653.0,29.726759407859404
159,2011-07-07,STORE_2_555,50.0,0,0,0.032184683371401235,0.01707726510865934,0.18737226946537028,0.12350778150185125,,0.12350778150185125,,0.15261016320615836,0.16450938650586608,6.004938271604937,50.0,29.644444444444446,29.0,16.0,34.0,0.11918640771920865,0.14037570678914674,0.15958754607303333,0.1840171841980515,0.19836765376683346,7.567391771754384,2668.0,29.73669292936647
160,2011-07-08,STORE_2_555,40.99999999999999,0,0,-0.032184683371401235,-0.06436936674280247,0.2195569528367715,0.1605790928774337,,0.18364439694612714,,0.18364439694612714,0.16840443038939026,6.066666666666664,50.0,29.7,29.0,16.0,34.0,0.11918640771920865,0.14037570678914674,0.15958754607303333,0.18737226946537028,0.19836765376683346,7.6326472059690085,2673.0,29.746626450873535
161,2011-07-09,STORE_2_555,31.0,0,0,-0.03880208406095201,-0.006617400689550773,0.18737226946537028,0.136219747017989,,0.11918640771920865,,0.19106841502533403,0.1566129056598323,6.041975308641982,50.0,29.677777777777777,29.0,16.0,34.0,0.11918640771920865,0.14037570678914674,0.15958754607303333,0.18737226946537028,0.19836765376683346,7.625839836273077,2671.0,29.7565599723806
162,2011-07-10,STORE_2_555,29.999999999999996,0,0,-0.004077912420439395,0.03472417164051261,0.14857018540441827,0.15261016320615836,,0.16840443038939026,,0.19836765376683346,0.136219747017989,6.028888888888886,50.0,29.7,29.0,16.0,34.0,0.11918640771920865,0.14037570678914674,0.15958754607303333,0.18737226946537028,0.19836765376683346,7.62380954051925,2673.0,29.766493493887666
163,2011-07-11,STORE_2_555,37.0,0,0,0.027772578218649507,0.0318504906390889,0.14449227298397888,0.09231426131890731,,0.14037570678914674,,0.17226485120262838,0.12778657948112623,6.077037037037031,50.0,29.822222222222223,29.0,16.0,34.0,0.11918640771920865,0.14037570678914674,0.1605790928774337,0.18737226946537028,0.19836765376683346,7.651948092674427,2684.0,29.77642701539473
164,2011-07-12,STORE_2_555,24.0,0,0,-0.05307844348341974,-0.08085102170206925,0.17226485120262838,0.09231426131890731,,0.19836765376683346,,0.17226485120262838,0.136219747017989,6.11851851851852,50.0,29.77777777777778,29.0,16.0,34.0,0.11918640771920865,0.14037570678914674,0.1605790928774337,0.18737226946537028,0.19836765376683346,7.674234987716471,2680.0,29.786360536901796
165,2011-07-13,STORE_2_555,24.0,0,0,0.0,0.05307844348341974,0.11918640771920865,0.14037570678914674,,0.15261016320615836,,0.18737226946537028,0.11918640771920865,6.118518518518518,50.0,29.77777777777778,29.0,16.0,34.0,0.11918640771920865,0.14037570678914674,0.1605790928774337,0.18737226946537028,0.19836765376683346,7.674234987716471,2680.0,29.79629405840886
166,2011-07-14,STORE_2_555,16.000000000000004,0,0,-0.03621217265444471,-0.03621217265444471,0.11918640771920865,0.15261016320615836,,0.12778657948112623,,0.2195569528367715,0.14449227298397888,6.255308641975309,50.0,29.622222222222224,29.0,16.0,34.0,0.11918640771920865,0.14037570678914674,0.1605790928774337,0.18737226946537028,0.19836765376683346,7.810361567509596,2666.0,29.806227579915927
167,2011-07-15,STORE_2_555,27.000000000000004,0,0,0.04904939735961693,0.08526157001406164,0.08297423506476394,0.18364439694612714,,0.14449227298397888,,0.18737226946537028,0.14449227298397888,6.276543209876542,50.0,29.58888888888889,29.0,16.0,34.0,0.11918640771920865,0.14037570678914674,0.1605790928774337,0.18737226946537028,0.19836765376683346,7.8151314544566,2663.0,29.816161101422992
168,2011-07-16,STORE_2_555,27.999999999999996,0,0,0.004196114593608136,-0.04485328276600879,0.13202363242438087,0.19106841502533403,,0.11482160231675857,,0.14857018540441827,0.19836765376683346,6.110370370370372,50.0,29.41111111111111,29.0,16.0,34.0,0.11918640771920865,0.14037570678914674,0.15958754607303333,0.1840171841980515,0.1950829963331587,7.664150376835751,2647.0,29.826094622930057
169,2011-07-17,STORE_2_555,40.00000000000001,0,0,0.047424649928138135,0.04322853533453,0.136219747017989,0.19836765376683346,,0.11041248341170352,,0.14449227298397888,0.12350778150185125,6.197530864197532,50.0,29.57777777777778,29.0,16.0,34.0,0.11918640771920865,0.14037570678914674,0.1605790928774337,0.1840171841980515,0.1950829963331587,7.729961811870986,2662.0,29.836028144437122
170,2011-07-18,STORE_2_555,25.000000000000007,0,0,-0.060136615444275884,-0.10756126537241402,0.18364439694612714,0.17226485120262838,,0.17988424807282033,,0.17226485120262838,0.1566129056598323,6.198518518518524,50.0,29.488888888888887,29.0,16.0,34.0,0.11918640771920865,0.14037570678914674,0.1605790928774337,0.1840171841980515,0.1950829963331587,7.7361611774055286,2654.0,29.845961665944188
171,2011-07-19,STORE_2_555,18.0,0,0,-0.03119352018294394,0.028943095261331944,0.12350778150185125,0.17226485120262838,,0.14857018540441827,,0.11918640771920865,0.11918640771920865,6.256296296296296,50.0,29.42222222222222,29.0,16.0,34.0,0.11918640771920865,0.14037570678914674,0.1605790928774337,0.1840171841980515,0.1950829963331587,7.8094983621973775,2648.0,29.855895187451253
172,2011-07-20,STORE_2_555,32.0,0,0,0.06029590188725105,0.09148942207019499,0.09231426131890731,0.18737226946537028,,0.20909151915860658,,0.11918640771920865,0.14037570678914674,6.28395061728395,50.0,29.455555555555556,29.0,16.0,34.0,0.11918640771920865,0.14037570678914674,0.1605790928774337,0.1840171841980515,0.1950829963331587,7.8140770568051,2651.0,29.86582870895832
173,2011-07-21,STORE_2_555,36.0,0,0,0.015794267183231903,-0.04450163470401915,0.15261016320615836,0.2195569528367715,,0.20909151915860658,,0.08297423506476394,0.136219747017989,6.348395061728395,50.0,29.544444444444444,29.0,16.0,34.0,0.11918640771920865,0.14037570678914674,0.163526813098758,0.1840171841980515,0.1950829963331587,7.842782570742036,2659.0,29.875762230465384
174,2011-07-22,STORE_2_555,45.0,0,0,0.03356734764626848,0.017773080463036578,0.16840443038939026,0.18737226946537028,,0.13202363242438087,,0.13202363242438087,0.14037570678914674,6.525925925925925,50.0,29.72222222222222,29.0,16.0,34.0,0.11918640771920865,0.14037570678914674,0.1674306694185092,0.18737226946537028,0.19836765376683346,8.009864392766701,2675.0,29.88569575197245
175,2011-07-23,STORE_2_555,36.0,0,0,-0.03356734764626848,-0.06713469529253696,0.20197177803565874,0.14857018540441827,,0.12350778150185125,,0.136219747017989,0.10145764075877706,6.495555555555552,50.0,29.9,29.0,16.0,34.0,0.11918640771920865,0.14037570678914674,0.16840443038939026,0.18737226946537028,0.19836765376683346,7.969111717941575,2691.0,29.895629273479514
176,2011-07-24,STORE_2_555,32.0,0,0,-0.015794267183231903,0.017773080463036578,0.16840443038939026,0.14449227298397888,,0.1605790928774337,,0.18364439694612714,0.136219747017989,6.498765432098765,50.0,29.944444444444443,29.0,16.0,34.0,0.11918640771920865,0.14037570678914674,0.16840443038939026,0.18737226946537028,0.19836765376683346,7.969550353310881,2695.0,29.90556279498658
177,2011-07-25,STORE_2_555,23.0,0,0,-0.03778856088939979,-0.021994293706167886,0.15261016320615836,0.17226485120262838,,0.136219747017989,,0.12350778150185125,0.09691001300805642,6.455308641975307,50.0,29.988888888888887,29.0,16.0,34.0,0.11918640771920865,0.14037570678914674,0.16840443038939026,0.18737226946537028,0.19836765376683346,7.918821902568227,2699.0,29.915496316493645
178,2011-07-26,STORE_2_555,27.999999999999996,0,0,0.02139814470123043,0.05918670559063022,0.11482160231675857,0.11918640771920865,,0.15261016320615836,,0.09231426131890731,0.12778657948112623,6.434567901234567,50.0,30.011111111111113,29.0,16.0,34.0,0.11918640771920865,0.14037570678914674,0.16840443038939026,0.18737226946537028,0.19836765376683346,7.910303967858636,2701.0,29.92542983800071
179,2011-07-27,STORE_2_555,29.0,0,0,0.004155959771157736,-0.017242184930072693,0.136219747017989,0.11918640771920865,,0.09231426131890731,,0.15261016320615836,0.11918640771920865,6.385185185185184,50.0,30.066666666666666,29.0,16.0,34.0,0.11918640771920865,0.14037570678914674,0.16840443038939026,0.18737226946537028,0.19836765376683346,7.885130366637979,2706.0,29.935363359507775
180,2011-07-28,STORE_2_555,22.000000000000007,0,0,-0.029963223377443213,-0.03411918314860095,0.14037570678914674,0.08297423506476394,0.09231426131890731,0.09231426131890731,,0.16840443038939026,0.09231426131890731,6.345679012345676,50.0,30.11111111111111,29.0,16.0,34.0,0.11918640771920865,0.14037570678914674,0.16840443038939026,0.18737226946537028,0.19836765376683346,7.82741429093271,2710.0,29.94529688101484
181,2011-07-29,STORE_2_555,31.0,0,0,0.038157701992714746,0.06812092537015796,0.11041248341170352,0.13202363242438087,0.17609125905568124,0.14037570678914674,,0.20197177803565874,0.18364439694612714,6.234567901234568,50.0,30.011111111111113,29.0,16.0,34.0,0.11918640771920865,0.14037570678914674,0.1674306694185092,0.18737226946537028,0.19836765376683346,7.756830182613101,2701.0,29.955230402521906
182,2011-07-30,STORE_2_555,26.0,0,0,-0.020783605923292037,-0.05894130791600678,0.14857018540441827,0.136219747017989,0.07342891715853353,0.15261016320615836,,0.16840443038939026,0.19106841502533403,6.137037037037036,50.0,29.833333333333332,29.0,16.0,34.0,0.11918640771920865,0.14037570678914674,0.163526813098758,0.1840171841980515,0.19836765376683346,7.66173917534467,2685.0,29.965163924029
183,2011-07-31,STORE_2_555,23.0,0,0,-0.012964977164367661,0.007818628758924376,0.12778657948112623,0.18364439694612714,0.11041248341170352,0.18364439694612714,,0.15261016320615836,0.14449227298397888,6.205925925925924,50.0,29.755555555555556,29.0,16.0,34.0,0.11918640771920865,0.14037570678914674,0.163526813098758,0.1840171841980515,0.19836765376683346,7.695484026816718,2678.0,29.975097445536065
184,2011-08-01,STORE_2_555,34.99999999999999,0,0,0.049687784189107506,0.06265276135347517,0.11482160231675857,0.12350778150185125,0.14857018540441827,0.19106841502533403,,0.11482160231675857,0.17226485120262838,6.182222222222222,50.0,29.733333333333334,29.0,16.0,34.0,0.11918640771920865,0.14037570678914674,0.163526813098758,0.1840171841980515,0.19836765376683346,7.677195180708683,2676.0,29.98503096704313
185,2011-08-02,STORE_2_555,29.0,0,0,-0.024133679716719342,-0.07382146390582685,0.16450938650586608,0.09231426131890731,0.16450938650586608,0.19836765376683346,,0.136219747017989,0.14037570678914674,6.182222222222222,50.0,29.733333333333334,29.0,16.0,34.0,0.11918640771920865,0.14037570678914674,0.163526813098758,0.1840171841980515,0.19836765376683346,7.677195180708683,2676.0,29.994964488550195
186,2011-08-03,STORE_2_555,34.0,0,0,0.02020338608828695,0.04433706580500629,0.14037570678914674,0.15261016320615836,0.11041248341170352,0.17226485120262838,,0.14037570678914674,0.1566129056598323,6.194074074074073,50.0,29.744444444444444,29.0,16.0,34.0,0.11918640771920865,0.14037570678914674,0.163526813098758,0.1840171841980515,0.19836765376683346,7.68269778095612,2677.0,30.00489801005726
187,2011-08-04,STORE_2_555,31.0,0,0,-0.012008907473015418,-0.03221229356130237,0.1605790928774337,0.16840443038939026,0.21609642072726507,0.17226485120262838,,0.11041248341170352,0.10595814198545352,6.115802469135805,50.0,29.855555555555554,29.0,16.0,34.0,0.11918640771920865,0.14037570678914674,0.163526813098758,0.1840171841980515,0.19836765376683346,7.626920257170549,2687.0,30.014831531564326
188,2011-08-05,STORE_2_555,31.0,0,0,0.0,0.012008907473015418,0.14857018540441827,0.20197177803565874,0.18364439694612714,0.18737226946537028,,0.14857018540441827,0.14857018540441827,6.115802469135805,50.0,29.855555555555554,29.0,16.0,34.0,0.11918640771920865,0.14037570678914674,0.163526813098758,0.1840171841980515,0.19836765376683346,7.626920257170549,2687.0,30.02476505307139
189,2011-08-06,STORE_2_555,34.99999999999999,0,0,0.01593920110144781,0.01593920110144781,0.14857018540441827,0.16840443038939026,0.15261016320615836,0.2195569528367715,,0.12778657948112623,0.12778657948112623,6.132345679012344,50.0,29.955555555555556,29.0,16.0,34.0,0.11918640771920865,0.14037570678914674,0.16450938650586608,0.1840171841980515,0.19836765376683346,7.6347977922365144,2696.0,30.034698574578456
190,2011-08-07,STORE_2_555,27.000000000000004,0,0,-0.03248575408148521,-0.04842495518293302,0.16450938650586608,0.15261016320615836,0.13202363242438087,0.18737226946537028,,0.11482160231675857,0.12350778150185125,6.1106172839506145,50.0,29.977777777777778,29.0,16.0,34.0,0.11918640771920865,0.14037570678914674,0.16450938650586608,0.1840171841980515,0.19836765376683346,7.623113548595581,2698.0,30.04463209608552
191,2011-08-08,STORE_2_555,7.0,0,0,-0.0937591323290983,-0.061273378247613086,0.13202363242438087,0.11482160231675857,0.14037570678914674,0.14857018540441827,,0.16450938650586608,0.11918640771920865,6.295308641975309,50.0,29.788888888888888,29.0,7.0,43.0,0.11918640771920865,0.14037570678914674,0.16450938650586608,0.1840171841980515,0.19836765376683346,7.975375648149032,2681.0,30.054565617592587
192,2011-08-09,STORE_2_555,27.000000000000004,0,0,0.0937591323290983,0.1875182646581966,0.03826450009528257,0.136219747017989,0.11482160231675857,0.14449227298397888,,0.14037570678914674,0.08766935627314378,6.186666666666664,50.0,29.9,29.0,7.0,43.0,0.11918640771920865,0.14037570678914674,0.16450938650586608,0.1840171841980515,0.19836765376683346,7.864084194915459,2691.0,30.064499139099652
193,2011-08-10,STORE_2_555,33.0,0,0,0.02458927323545143,-0.06916985909364687,0.13202363242438087,0.14037570678914674,0.18364439694612714,0.17226485120262838,,0.1605790928774337,0.136219747017989,6.2,50.0,29.955555555555556,29.5,7.0,43.0,0.11918640771920865,0.1424339898865628,0.16450938650586608,0.1840171841980515,0.19836765376683346,7.8681709981691075,2696.0,30.074432660606718
194,2011-08-11,STORE_2_555,27.999999999999996,0,0,-0.020393158641843295,-0.044982431877294726,0.1566129056598323,0.11041248341170352,0.2331297600260454,0.11918640771920865,,0.14857018540441827,0.136219747017989,6.2,50.0,29.955555555555556,29.5,7.0,43.0,0.11918640771920865,0.1424339898865628,0.16450938650586608,0.1840171841980515,0.19836765376683346,7.868170998169108,2696.0,30.084366182113783
195,2011-08-12,STORE_2_555,29.999999999999996,0,0,0.008272525965989874,0.02866568460783317,0.136219747017989,0.14857018540441827,0.1947333691117394,0.11918640771920865,,0.14857018540441827,0.14449227298397888,6.2,50.0,29.955555555555556,29.5,7.0,43.0,0.11918640771920865,0.1424339898865628,0.16450938650586608,0.1840171841980515,0.19836765376683346,7.868170998169108,2696.0,30.094299703620848
196,2011-08-13,STORE_2_555,32.0,0,0,0.008117890222179486,-0.00015463574381038847,0.14449227298397888,0.12778657948112623,0.10595814198545352,0.08297423506476394,,0.16450938650586608,0.14037570678914674,6.21135802469136,50.0,29.988888888888887,30.0,7.0,43.0,0.11918640771920865,0.14449227298397888,0.16450938650586608,0.1840171841980515,0.19836765376683346,7.8704317150188166,2699.0,30.104233225127913
197,2011-08-14,STORE_2_555,52.00000000000001,0,0,0.07378621416091866,0.06566832393873917,0.15261016320615836,0.11482160231675857,0.08766935627314378,0.13202363242438087,,0.13202363242438087,0.10145764075877706,6.352098765432099,52.0,30.344444444444445,30.0,7.0,45.0,0.12026675116486929,0.14449227298397888,0.16450938650586608,0.18737226946537028,0.20034992211468736,8.132555068063239,2731.0,30.11416674663498
198,2011-08-15,STORE_2_555,25.000000000000007,0,0,-0.10288859586522577,-0.17667481002614444,0.22639637736707702,0.16450938650586608,0.13202363242438087,0.136219747017989,,0.03826450009528257,0.11918640771920865,6.341234567901235,52.0,30.355555555555554,30.0,7.0,45.0,0.12350778150185125,0.14449227298397888,0.16450938650586608,0.18737226946537028,0.20034992211468736,8.124468675607273,2732.0,30.124100268142044
199,2011-08-16,STORE_2_555,31.0,0,0,0.025062403902567018,0.12795099976779278,0.12350778150185125,0.14037570678914674,0.11041248341170352,0.18364439694612714,,0.13202363242438087,0.08297423506476394,6.188888888888889,52.0,30.522222222222222,30.5,7.0,45.0,0.12350778150185125,0.1465312291941986,0.16450938650586608,0.18737226946537028,0.20034992211468736,7.979225523198501,2747.0,30.13403378964911
200,2011-08-17,STORE_2_555,27.999999999999996,0,0,-0.012350438386429269,-0.03741284228899629,0.14857018540441827,0.1605790928774337,0.10145764075877706,0.12350778150185125,,0.1566129056598323,0.10145764075877706,6.1,52.0,30.61111111111111,30.5,7.0,45.0,0.12350778150185125,0.1465312291941986,0.16450938650586608,0.18737226946537028,0.20034992211468736,7.9049045285501816,2755.0,30.143967311156175
201,2011-08-18,STORE_2_555,25.000000000000007,0,0,-0.01271196551613775,-0.00036152712970848044,0.136219747017989,0.14857018540441827,0.12778657948112623,0.09231426131890731,,0.136219747017989,0.15261016320615836,6.145185185185184,52.0,30.533333333333335,30.0,7.0,45.0,0.12350778150185125,0.14449227298397888,0.16450938650586608,0.18737226946537028,0.20034992211468736,7.925495766579365,2748.0,30.15390083266324
202,2011-08-19,STORE_2_555,37.0,0,0,0.04875706970077713,0.06146903521691488,0.12350778150185125,0.14857018540441827,0.14037570678914674,0.15261016320615836,,0.14449227298397888,0.15261016320615836,6.201975308641973,52.0,30.58888888888889,30.0,7.0,45.0,0.12350778150185125,0.14449227298397888,0.1674306694185092,0.18737226946537028,0.20034992211468736,7.953367521455037,2753.0,30.163834354170305
203,2011-08-20,STORE_2_555,37.99999999999999,0,0,0.0038264078530528545,-0.044930661847724276,0.17226485120262838,0.16450938650586608,0.18737226946537028,0.16840443038939026,,0.15261016320615836,0.11918640771920865,6.211111111111108,52.0,30.744444444444444,30.5,7.0,45.0,0.12350778150185125,0.1465312291941986,0.16840443038939026,0.18737226946537028,0.20034992211468736,7.959957527851107,2767.0,30.17376787567737
204,2011-08-21,STORE_2_555,46.0,0,0,0.02945497933827565,0.025628571485222795,0.17609125905568124,0.13202363242438087,0.09691001300805642,0.20197177803565874,,0.22639637736707702,0.10595814198545352,6.269135802469134,52.0,31.022222222222222,31.0,7.0,45.0,0.12350778150185125,0.14857018540441827,0.16840443038939026,0.18774188402136668,0.2039377312327227,8.051767588447708,2792.0,30.183701397184436
205,2011-08-22,STORE_2_555,34.0,0,0,-0.0449671455165232,-0.07442212485479885,0.2055462383939569,0.03826450009528257,0.10595814198545352,0.16840443038939026,,0.12350778150185125,0.15261016320615836,6.293827160493833,52.0,31.044444444444444,31.0,7.0,45.0,0.12350778150185125,0.14857018540441827,0.16840443038939026,0.18774188402136668,0.2039377312327227,8.057254545531354,2794.0,30.1936349186915
206,2011-08-23,STORE_2_555,37.0,0,0,0.011685758325194695,0.056652903841717894,0.1605790928774337,0.13202363242438087,0.11918640771920865,0.15261016320615836,,0.14857018540441827,0.12350778150185125,6.304691358024692,52.0,31.177777777777777,31.0,7.0,45.0,0.12457748099667,0.14857018540441827,0.17129974599931885,0.18774188402136668,0.2039377312327227,8.055394978811973,2806.0,30.203568440198566
207,2011-08-24,STORE_2_555,29.999999999999996,0,0,-0.027772578218649507,-0.0394583365438442,0.17226485120262838,0.1566129056598323,0.11482160231675857,0.11482160231675857,,0.136219747017989,0.10595814198545352,6.213580246913582,52.0,31.27777777777778,31.0,7.0,45.0,0.12778657948112623,0.14857018540441827,0.17129974599931885,0.18774188402136668,0.2039377312327227,7.983167372564415,2815.0,30.21350196170566
208,2011-08-25,STORE_2_555,19.0,0,0,-0.047582259975922456,-0.01980968175727295,0.14449227298397888,0.136219747017989,0.16450938650586608,0.136219747017989,,0.12350778150185125,0.16450938650586608,6.288888888888889,52.0,31.1,31.0,7.0,45.0,0.12457748099667,0.14857018540441827,0.17129974599931885,0.18774188402136668,0.2039377312327227,8.076947359719847,2799.0,30.223435483212725
209,2011-08-26,STORE_2_555,31.0,0,0,0.05166017239636185,0.0992424323722843,0.09691001300805642,0.14449227298397888,0.17226485120262838,0.14037570678914674,,0.17226485120262838,0.11041248341170352,6.200000000000001,52.0,31.2,31.0,7.0,45.0,0.12778657948112623,0.14857018540441827,0.17129974599931885,0.18774188402136668,0.2039377312327227,8.018517893818231,2808.0,30.23336900471979
210,2011-08-27,STORE_2_555,37.0,0,0,0.023694665798210113,-0.027965506598151738,0.14857018540441827,0.15261016320615836,0.07822780004030226,0.11041248341170352,,0.17609125905568124,0.14037570678914674,6.247901234567902,52.0,31.288888888888888,31.0,7.0,45.0,0.12778657948112623,0.14857018540441827,0.17226485120262838,0.18774188402136668,0.2039377312327227,8.038173592714747,2816.0,30.243302526226856
211,2011-08-28,STORE_2_555,40.99999999999999,0,0,0.015107418262741895,-0.008587247535468218,0.17226485120262838,0.22639637736707702,0.14037570678914674,0.14857018540441827,,0.2055462383939569,0.12778657948112623,6.308148148148147,52.0,31.455555555555556,31.0,7.0,45.0,0.12778657948112623,0.14857018540441827,0.17226485120262838,0.18774188402136668,0.2039377312327227,8.082664360904527,2831.0,30.25323604773392
212,2011-08-29,STORE_2_555,20.0,0,0,-0.08591462870659322,-0.10102204696933512,0.18737226946537028,0.12350778150185125,0.11918640771920865,0.12778657948112623,,0.1605790928774337,0.11041248341170352,6.328888888888891,52.0,31.433333333333334,31.0,7.0,45.0,0.12778657948112623,0.14857018540441827,0.17226485120262838,0.18774188402136668,0.2039377312327227,8.111650658435334,2829.0,30.263169569240986
213,2011-08-30,STORE_2_555,26.0,0,0,0.026328938722349177,0.1122435674289424,0.10145764075877706,0.14857018540441827,0.12778657948112623,0.11482160231675857,,0.17226485120262838,0.11482160231675857,6.297777777777777,52.0,31.466666666666665,31.0,7.0,45.0,0.12778657948112623,0.14857018540441827,0.17226485120262838,0.18774188402136668,0.2039377312327227,8.08271842133893,2832.0,30.27310309074805
214,2011-08-31,STORE_2_555,22.000000000000007,0,0,-0.01737409606942271,-0.043703034791771886,0.12778657948112623,0.136219747017989,0.13202363242438087,0.16450938650586608,,0.14449227298397888,0.11041248341170352,6.297777777777776,52.0,31.466666666666665,31.0,7.0,45.0,0.12778657948112623,0.14857018540441827,0.17226485120262838,0.18774188402136668,0.2039377312327227,8.08271842133893,2832.0,30.283036612255117
215,2011-09-01,STORE_2_555,33.0,0,0,0.04620042224812877,0.06357451831755148,0.11041248341170352,0.12350778150185125,0.136219747017989,0.14037570678914674,,0.09691001300805642,0.17226485120262838,6.25037037037037,52.0,31.42222222222222,31.0,7.0,45.0,0.12778657948112623,0.14857018540441827,0.17226485120262838,0.18774188402136668,0.2039377312327227,8.062923575185113,2828.0,30.292970133762182
216,2011-09-02,STORE_2_555,33.0,0,0,0.0,-0.04620042224812877,0.1566129056598323,0.17226485120262838,0.2055462383939569,0.1605790928774337,,0.14857018540441827,0.17226485120262838,6.202962962962964,52.0,31.377777777777776,31.0,7.0,45.0,0.12778657948112623,0.14857018540441827,0.17129974599931885,0.18774188402136668,0.2039377312327227,8.042831657672433,2824.0,30.302903655269247
217,2011-09-03,STORE_2_555,50.0,0,0,0.06294404717693922,0.06294404717693922,0.1566129056598323,0.17609125905568124,0.09691001300805642,0.14857018540441827,,0.17226485120262838,0.1605790928774337,6.3925925925925915,52.0,31.555555555555557,31.0,7.0,45.0,0.12778657948112623,0.14857018540441827,0.17226485120262838,0.19179833889948403,0.2074961428145142,8.274926403978522,2840.0,30.312837176776313
218,2011-09-04,STORE_2_555,27.000000000000004,0,0,-0.08753332041239065,-0.15047736758932986,0.2195569528367715,0.2055462383939569,0.15261016320615836,0.14857018540441827,,0.18737226946537028,0.1566129056598323,6.4212345679012355,52.0,31.488888888888887,31.0,7.0,45.0,0.12778657948112623,0.14857018540441827,0.17226485120262838,0.19179833889948403,0.2074961428145142,8.287318651829057,2834.0,30.322770698283378
219,2011-09-05,STORE_2_555,31.0,1,0,0.016546552980037404,0.10407987339242805,0.13202363242438087,0.1605790928774337,0.1566129056598323,0.16450938650586608,,0.10145764075877706,0.12350778150185125,6.360493827160493,52.0,31.555555555555557,31.0,7.0,45.0,0.12884584271693988,0.14857018540441827,0.17226485120262838,0.19179833889948403,0.2074961428145142,8.258616353234519,2840.0,30.332704219790443
220,2011-09-06,STORE_2_555,34.0,0,0,0.012008907473015418,-0.004537645507021987,0.14857018540441827,0.17226485120262838,0.12778657948112623,0.13202363242438087,,0.12778657948112623,0.18364439694612714,6.287901234567902,52.0,31.488888888888887,31.0,7.0,45.0,0.12884584271693988,0.14857018540441827,0.17129974599931885,0.19179833889948403,0.2074961428145142,8.213779111400937,2834.0,30.34263774129751
221,2011-09-07,STORE_2_555,27.999999999999996,0,0,-0.024359345859444687,-0.036368253332460104,0.1605790928774337,0.14449227298397888,0.14037570678914674,0.03826450009528257,,0.11041248341170352,0.11918640771920865,6.247407407407406,52.0,31.533333333333335,31.0,7.0,45.0,0.13202363242438087,0.14857018540441827,0.17129974599931885,0.19179833889948403,0.2074961428145142,8.183568079808094,2838.0,30.352571262804574
222,2011-09-08,STORE_2_555,27.999999999999996,0,0,0.0,0.024359345859444687,0.136219747017989,0.09691001300805642,0.17226485120262838,0.13202363242438087,,0.1566129056598323,0.16840443038939026,6.227160493827162,52.0,31.444444444444443,31.0,7.0,45.0,0.13202363242438087,0.14857018540441827,0.17129974599931885,0.19179833889948403,0.2074961428145142,8.177952150342005,2830.0,30.36250478431164
223,2011-09-09,STORE_2_555,40.99999999999999,0,0,0.05115252244738128,0.05115252244738128,0.136219747017989,0.14857018540441827,0.1605790928774337,0.1566129056598323,,0.1566129056598323,0.14037570678914674,6.318024691358025,52.0,31.57777777777778,31.0,7.0,45.0,0.13202363242438087,0.14857018540441827,0.17226485120262838,0.19179833889948403,0.2074961428145142,8.235273240355834,2842.0,30.372438305818704
224,2011-09-10,STORE_2_555,39.0,0,0,-0.007488021392549948,-0.058640543839931225,0.18737226946537028,0.17226485120262838,0.19836765376683346,0.136219747017989,,0.2195569528367715,0.19836765376683346,6.257530864197531,52.0,31.522222222222222,31.0,7.0,45.0,0.13202363242438087,0.14857018540441827,0.17226485120262838,0.18774188402136668,0.2074961428145142,8.167113799576383,2837.0,30.38237182732577
225,2011-09-11,STORE_2_555,37.99999999999999,0,0,-0.0037929890171390923,0.003695032375410856,0.17988424807282033,0.18737226946537028,0.11482160231675857,0.14449227298397888,,0.13202363242438087,0.15261016320615836,6.3301234567901234,52.0,31.58888888888889,31.0,7.0,45.0,0.13202363242438087,0.14857018540441827,0.17226485120262838,0.18774188402136668,0.2074961428145142,8.195496769012017,2843.0,30.392305348832835
226,2011-09-12,STORE_2_555,26.0,0,0,-0.048304679574555004,-0.04451169055741591,0.17609125905568124,0.10145764075877706,0.09691001300805642,0.15261016320615836,,0.14857018540441827,0.12778657948112623,6.3301234567901234,52.0,31.58888888888889,31.0,7.0,45.0,0.13202363242438087,0.14857018540441827,0.17226485120262838,0.18774188402136668,0.2074961428145142,8.195496769012017,2843.0,30.4022388703399
227,2011-09-13,STORE_2_555,21.000000000000004,0,0,-0.021828437495672717,0.026476242078882287,0.12778657948112623,0.12778657948112623,0.09691001300805642,0.22639637736707702,,0.1605790928774337,0.14449227298397888,6.4212345679012355,52.0,31.488888888888887,31.0,7.0,45.0,0.12884584271693988,0.14857018540441827,0.17226485120262838,0.18774188402136668,0.2074961428145142,8.269674455835194,2834.0,30.412172391846966
228,2011-09-14,STORE_2_555,20.0,0,0,-0.004500501226676459,0.017327936268996258,0.10595814198545352,0.11041248341170352,0.09691001300805642,0.12350778150185125,,0.136219747017989,0.11482160231675857,6.451604938271606,52.0,31.455555555555556,31.0,7.0,45.0,0.12884584271693988,0.14857018540441827,0.17226485120262838,0.18774188402136668,0.2074961428145142,8.310222635386364,2831.0,30.42210591335403
229,2011-09-15,STORE_2_555,19.0,0,0,-0.004547627750720637,-4.712652404417761e-05,0.10145764075877706,0.1566129056598323,0.11041248341170352,0.14857018540441827,,0.136219747017989,0.11041248341170352,6.4819753086419745,52.0,31.42222222222222,31.0,7.0,45.0,0.12884584271693988,0.14857018540441827,0.17226485120262838,0.18774188402136668,0.2074961428145142,8.354475054317207,2828.0,30.432039434861096
230,2011-09-16,STORE_2_555,24.0,0,0,0.022276394711152225,0.026824022461872862,0.09691001300805642,0.1566129056598323,0.14449227298397888,0.136219747017989,,0.18737226946537028,0.17988424807282033,6.461728395061728,52.0,31.255555555555556,31.0,7.0,45.0,0.12778657948112623,0.14857018540441827,0.17226485120262838,0.18774188402136668,0.2074961428145142,8.351224240619072,2813.0,30.44197295636816
231,2011-09-17,STORE_2_555,40.00000000000001,0,0,0.06445798922691849,0.042181594515766266,0.11918640771920865,0.2195569528367715,0.08766935627314378,0.12350778150185125,,0.17988424807282033,0.14857018540441827,6.564938271604938,52.0,31.355555555555554,31.0,7.0,45.0,0.12778657948112623,0.14857018540441827,0.17226485120262838,0.18774188402136668,0.2074961428145142,8.401860563223194,2822.0,30.451906477875255
232,2011-09-18,STORE_2_555,43.0,0,0,0.011088972165612276,-0.053369017061306215,0.18364439694612714,0.13202363242438087,0.12350778150185125,0.17226485120262838,,0.17609125905568124,0.20909151915860658,6.516543209876545,52.0,31.31111111111111,31.0,7.0,45.0,0.12778657948112623,0.14857018540441827,0.17226485120262838,0.18774188402136668,0.2039377312327227,8.328433016142325,2818.0,30.46183999938232
233,2011-09-19,STORE_2_555,33.0,0,0,-0.038120463451907116,-0.04920943561751939,0.1947333691117394,0.14857018540441827,0.09231426131890731,0.17609125905568124,,0.12778657948112623,0.20909151915860658,6.347160493827161,52.0,31.155555555555555,31.0,7.0,45.0,0.12778657948112623,0.14857018540441827,0.17226485120262838,0.18737226946537028,0.20034992211468736,8.161172959196039,2804.0,30.471773520889386
234,2011-09-20,STORE_2_555,33.0,0,0,0.0,0.038120463451907116,0.1566129056598323,0.1605790928774337,0.08297423506476394,0.2055462383939569,,0.10595814198545352,0.13202363242438087,6.325925925925926,52.0,31.22222222222222,31.0,7.0,45.0,0.12778657948112623,0.14857018540441827,0.17226485120262838,0.18737226946537028,0.20034992211468736,8.151346173758322,2810.0,30.48170704239645
235,2011-09-21,STORE_2_555,26.0,0,0,-0.028826326178706063,-0.028826326178706063,0.1566129056598323,0.136219747017989,0.12350778150185125,0.1605790928774337,,0.10145764075877706,0.12350778150185125,6.315555555555557,52.0,31.233333333333334,31.0,7.0,45.0,0.12778657948112623,0.14857018540441827,0.17226485120262838,0.18737226946537028,0.20034992211468736,8.143447079528341,2811.0,30.491640563903516
236,2011-09-22,STORE_2_555,26.0,0,0,0.0,0.028826326178706063,0.12778657948112623,0.136219747017989,0.17609125905568124,0.17226485120262838,,0.09691001300805642,0.1605790928774337,6.335061728395062,52.0,31.144444444444446,31.0,7.0,45.0,0.12778657948112623,0.14857018540441827,0.17226485120262838,0.18737226946537028,0.20034992211468736,8.15655951802206,2803.0,30.50157408541058
237,2011-09-23,STORE_2_555,33.0,0,0,0.028826326178706063,0.028826326178706063,0.12778657948112623,0.18737226946537028,0.1566129056598323,0.14449227298397888,,0.11918640771920865,0.136219747017989,6.324444444444443,52.0,31.2,31.0,7.0,45.0,0.12778657948112623,0.14857018540441827,0.17226485120262838,0.18737226946537028,0.20034992211468736,8.151928151319149,2808.0,30.511507606917647
238,2011-09-24,STORE_2_555,40.99999999999999,0,0,0.03075936380553798,0.0019330376268319183,0.1566129056598323,0.17988424807282033,0.11482160231675857,0.09691001300805642,,0.18364439694612714,0.15261016320615836,6.431111111111112,52.0,31.3,31.0,7.0,45.0,0.12778657948112623,0.14857018540441827,0.17226485120262838,0.18737226946537028,0.20034992211468736,8.216795624638515,2817.0,30.521441128424712
239,2011-09-25,STORE_2_555,37.0,0,0,-0.015107418262741895,-0.04586678206827988,0.18737226946537028,0.17609125905568124,0.11482160231675857,0.14857018540441827,,0.1947333691117394,0.09231426131890731,6.356049382716052,52.0,31.511111111111113,31.0,7.0,45.0,0.12778657948112623,0.14857018540441827,0.17226485120262838,0.18737226946537028,0.20034992211468736,8.114689751481352,2836.0,30.531374649931777
240,2011-09-26,STORE_2_555,27.000000000000004,0,0,-0.04024121877824752,-0.025133800515505622,0.17226485120262838,0.12778657948112623,0.13202363242438087,0.17226485120262838,,0.1566129056598323,0.09231426131890731,6.2604938271604915,52.0,31.61111111111111,31.0,7.0,45.0,0.12884584271693988,0.14857018540441827,0.17226485120262838,0.18737226946537028,0.20034992211468736,8.000975283872187,2845.0,30.541308171438843
241,2011-09-27,STORE_2_555,22.000000000000007,0,0,-0.02161114901267734,0.018630069765570176,0.13202363242438087,0.10595814198545352,0.12350778150185125,0.18737226946537028,,0.1566129056598323,0.14037570678914674,6.334814814814821,52.0,31.533333333333335,31.0,7.0,45.0,0.12778657948112623,0.14857018540441827,0.17226485120262838,0.18737226946537028,0.20034992211468736,8.0604458013719,2838.0,30.551241692945908
242,2011-09-28,STORE_2_555,29.999999999999996,0,0,0.03407978957227535,0.05569093858495269,0.11041248341170352,0.10145764075877706,0.18364439694612714,0.10145764075877706,,0.12778657948112623,0.15261016320615836,6.34518518518519,52.0,31.511111111111113,31.0,7.0,45.0,0.12778657948112623,0.14857018540441827,0.17226485120262838,0.18737226946537028,0.20034992211468736,8.06190158576293,2836.0,30.561175214452973
243,2011-09-29,STORE_2_555,21.000000000000004,0,0,-0.03853413099852536,-0.07261392057080071,0.14449227298397888,0.09691001300805642,0.20197177803565874,0.12778657948112623,,0.12778657948112623,0.18364439694612714,6.348888888888893,52.0,31.3,31.0,7.0,45.0,0.12778657948112623,0.14857018540441827,0.17226485120262838,0.18737226946537028,0.20034992211468736,8.085845588211814,2817.0,30.57110873596004
244,2011-09-30,STORE_2_555,24.0,0,0,0.013228265733755129,0.05176239673228049,0.10595814198545352,0.11918640771920865,0.16840443038939026,0.11041248341170352,,0.1566129056598323,0.19106841502533403,6.2888888888888905,52.0,31.1,31.0,7.0,45.0,0.12778657948112623,0.14857018540441827,0.17226485120262838,0.18737226946537028,0.20034992211468736,8.040697046199668,2799.0,30.581042257467104
245,2011-10-01,STORE_2_555,37.99999999999999,0,0,0.05690485133647259,0.04367658560271746,0.11918640771920865,0.18364439694612714,0.1566129056598323,0.1566129056598323,,0.18737226946537028,0.19836765376683346,6.214814814814819,52.0,31.033333333333335,31.0,7.0,45.0,0.12778657948112623,0.14857018540441827,0.17226485120262838,0.18737226946537028,0.19871449401989502,7.956977010527768,2793.0,30.59097577897417
246,2011-10-02,STORE_2_555,37.99999999999999,0,0,0.0,-0.05690485133647259,0.17609125905568124,0.1947333691117394,0.11918640771920865,0.1566129056598323,,0.17226485120262838,0.17226485120262838,6.2271604938271565,52.0,31.044444444444444,31.0,7.0,45.0,0.12778657948112623,0.14857018540441827,0.17226485120262838,0.18737226946537028,0.19871449401989502,7.966095445962362,2794.0,30.600909300481234
247,2011-10-03,STORE_2_555,26.0,0,0,-0.048304679574555004,-0.048304679574555004,0.17609125905568124,0.1566129056598323,0.10145764075877706,0.2195569528367715,,0.13202363242438087,0.17226485120262838,6.212839506172839,52.0,30.92222222222222,31.0,7.0,45.0,0.12778657948112623,0.14857018540441827,0.17129974599931885,0.18737226946537028,0.19871449401989502,7.958075225729964,2783.0,30.6108428219883
248,2011-10-04,STORE_2_555,21.000000000000004,0,0,-0.021828437495672717,0.026476242078882287,0.12778657948112623,0.1566129056598323,0.11918640771920865,0.13202363242438087,,0.11041248341170352,0.18737226946537028,6.2111111111111095,52.0,30.7,30.5,7.0,45.0,0.12778657948112623,0.1465312291941986,0.16840443038939026,0.18737226946537028,0.19871449401989502,7.952739616995537,2763.0,30.620776343495365
249,2011-10-05,STORE_2_555,29.999999999999996,0,0,0.03853413099852536,0.06036256849419808,0.10595814198545352,0.12778657948112623,0.16450938650586608,0.14857018540441827,,0.14449227298397888,0.2195569528367715,5.999506172839507,52.0,30.477777777777778,30.0,7.0,45.0,0.12778657948112623,0.14449227298397888,0.1674306694185092,0.1840171841980515,0.1914208742708733,7.682210265073716,2743.0,30.63070986500243
250,2011-10-06,STORE_2_555,22.000000000000007,0,0,-0.03407978957227535,-0.07261392057080071,0.14449227298397888,0.12778657948112623,0.16840443038939026,0.1605790928774337,,0.10595814198545352,0.18737226946537028,5.967407407407408,52.0,30.266666666666666,30.0,7.0,45.0,0.12457748099667,0.14449227298397888,0.16450938650586608,0.18364439694612714,0.1914208742708733,7.65080593536878,2724.0,30.640643386509495
251,2011-10-07,STORE_2_555,18.0,0,0,-0.018098222092796212,0.01598156747947914,0.11041248341170352,0.1566129056598323,0.1566129056598323,0.136219747017989,,0.11918640771920865,0.14857018540441827,6.085925925925928,52.0,30.122222222222224,30.0,7.0,45.0,0.12350778150185125,0.14449227298397888,0.16450938650586608,0.18364439694612714,0.1914208742708733,7.758761307625987,2711.0,30.65057690801656
252,2011-10-08,STORE_2_555,40.99999999999999,0,0,0.09505800814646297,0.11315623023925918,0.09231426131890731,0.18737226946537028,0.136219747017989,0.136219747017989,,0.17609125905568124,0.14449227298397888,6.210864197530863,52.0,30.244444444444444,30.0,7.0,45.0,0.12350778150185125,0.14449227298397888,0.1674306694185092,0.1840171841980515,0.1914208742708733,7.84299746515654,2722.0,30.660510429523626
253,2011-10-09,STORE_2_555,44.0,0,0,0.010995384301463185,-0.08406262384499978,0.18737226946537028,0.17226485120262838,0.12778657948112623,0.18737226946537028,,0.17609125905568124,0.17226485120262838,6.292098765432099,52.0,30.322222222222223,30.0,7.0,45.0,0.12350778150185125,0.14449227298397888,0.1674306694185092,0.18737226946537028,0.19673222567204113,7.944792341107528,2729.0,30.67044395103069
254,2011-10-10,STORE_2_555,15.0,1,0,-0.1201398537265312,-0.13113523802799437,0.19836765376683346,0.13202363242438087,0.136219747017989,0.17988424807282033,,0.12778657948112623,0.11918640771920865,6.387654320987654,52.0,30.22222222222222,30.0,7.0,45.0,0.12350778150185125,0.14449227298397888,0.1674306694185092,0.18737226946537028,0.19673222567204113,8.080741118778285,2720.0,30.680377472537756
255,2011-10-11,STORE_2_555,19.0,0,0,0.018682212967754158,0.13882206669428537,0.07822780004030226,0.11041248341170352,0.11918640771920865,0.17609125905568124,,0.10595814198545352,0.11918640771920865,6.440740740740741,52.0,30.166666666666668,30.0,7.0,45.0,0.12350778150185125,0.14449227298397888,0.1674306694185092,0.18737226946537028,0.19673222567204113,8.140963143196041,2715.0,30.69031099404482
256,2011-10-12,STORE_2_555,34.0,0,0,0.06366907986937727,0.04498686690162311,0.09691001300805642,0.14449227298397888,0.14449227298397888,0.12778657948112623,,0.14449227298397888,0.08297423506476394,6.33037037037037,52.0,30.366666666666667,30.0,7.0,45.0,0.12457748099667,0.14449227298397888,0.1674306694185092,0.18737226946537028,0.19673222567204113,8.009053865484033,2733.0,30.700244515551915
257,2011-10-13,STORE_2_555,37.99999999999999,0,0,0.01551216617824755,-0.04815691369112972,0.1605790928774337,0.10595814198545352,0.14449227298397888,0.10595814198545352,,0.11041248341170352,0.13202363242438087,6.377777777777776,52.0,30.488888888888887,30.5,7.0,45.0,0.12457748099667,0.1465312291941986,0.16840443038939026,0.18737226946537028,0.19673222567204113,8.040968755494667,2744.0,30.71017803705898
258,2011-10-14,STORE_2_555,31.0,0,0,-0.027521073651262967,-0.04303323982951052,0.17609125905568124,0.11918640771920865,0.19836765376683346,0.10145764075877706,,0.09231426131890731,0.136219747017989,6.35506172839506,52.0,30.522222222222222,31.0,7.0,45.0,0.12457748099667,0.14857018540441827,0.16840443038939026,0.18737226946537028,0.19673222567204113,8.036752345610083,2747.0,30.720111558566046
259,2011-10-15,STORE_2_555,29.0,0,0,-0.008194478615271533,0.019326595035991434,0.14857018540441827,0.17609125905568124,0.12350778150185125,0.09691001300805642,,0.18737226946537028,0.18364439694612714,6.2666666666666675,52.0,30.4,30.5,7.0,45.0,0.12457748099667,0.1465312291941986,0.1674306694185092,0.18737226946537028,0.19673222567204113,7.974397233393574,2736.0,30.73004508007311
260,2011-10-16,STORE_2_555,36.0,0,0,0.028028723600243527,0.03622320221551506,0.14037570678914674,0.17609125905568124,0.1566129056598323,0.11918640771920865,,0.19836765376683346,0.12350778150185125,6.266172839506171,52.0,30.522222222222222,31.0,7.0,45.0,0.12778657948112623,0.14857018540441827,0.16840443038939026,0.18737226946537028,0.19673222567204113,7.974999951079958,2747.0,30.739978601580177
261,2011-10-17,STORE_2_555,26.0,0,0,-0.04061785090826403,-0.06864657450850756,0.16840443038939026,0.12778657948112623,0.11918640771920865,0.18364439694612714,,0.07822780004030226,0.09231426131890731,6.175308641975311,52.0,30.61111111111111,31.0,7.0,45.0,0.12778657948112623,0.14857018540441827,0.16840443038939026,0.18737226946537028,0.19673222567204113,7.877851820982564,2755.0,30.749912123087242
262,2011-10-18,STORE_2_555,22.000000000000007,0,0,-0.01737409606942271,0.02324375483884132,0.12778657948112623,0.10595814198545352,0.14037570678914674,0.1947333691117394,,0.09691001300805642,0.15261016320615836,6.2555555555555555,52.0,30.5,30.5,7.0,45.0,0.12778657948112623,0.1465312291941986,0.16840443038939026,0.18737226946537028,0.19673222567204113,7.928401513659469,2745.0,30.759845644594307
263,2011-10-19,STORE_2_555,17.0,0,0,-0.02274312713855975,-0.00536903106913704,0.11041248341170352,0.14449227298397888,0.136219747017989,0.1566129056598323,,0.1605790928774337,0.16840443038939026,6.339753086419752,52.0,30.288888888888888,30.0,7.0,45.0,0.12457748099667,0.14449227298397888,0.1674306694185092,0.18737226946537028,0.19673222567204113,8.032580349188377,2726.0,30.769779166101372
264,2011-10-20,STORE_2_555,25.000000000000007,0,0,0.03583842522870748,0.058581552367267226,0.08766935627314378,0.11041248341170352,0.14037570678914674,0.1566129056598323,,0.17609125905568124,0.20197177803565874,6.225185185185186,52.0,30.066666666666666,30.0,7.0,45.0,0.12350778150185125,0.14449227298397888,0.16450938650586608,0.1840171841980515,0.1914208742708733,7.896521777325463,2706.0,30.779712687608438
265,2011-10-21,STORE_2_555,26.0,0,0,0.004278797979274981,-0.031559627249432495,0.12350778150185125,0.09231426131890731,0.10145764075877706,0.12778657948112623,,0.14857018540441827,0.16840443038939026,6.200987654320986,52.0,29.955555555555556,30.0,7.0,45.0,0.12350778150185125,0.14449227298397888,0.163526813098758,0.1840171841980515,0.1914208742708733,7.882438325642203,2696.0,30.789646209115503
