soundwave-77/time-series-mts-hse/models/STORE_2_681/train_data.csv
index,timestamp,segment,target,holiday,target_change_points,target_diff_1,target_diff_2,target_lag_1,target_lag_14,target_lag_180,target_lag_30,target_lag_365,target_lag_7,target_lag_90,target_mad,target_max,target_mean,target_median,target_min,target_minmax_diff,target_q_0.25,target_q_0.50,target_q_0.75,target_q_0.90,target_q_0.95,target_std,target_sum,target_trend
0,2011-01-29,STORE_2_681,14.0,0,0,,,,,,,,,,0.0,14.0,14.0,14.0,14.0,0.0,0.02842192822819294,0.02842192822819294,0.02842192822819294,0.02842192822819294,0.02842192822819294,0.0,14.0,18.209227355194695
1,2011-01-30,STORE_2_681,10.0,0,0,-0.007932539836581185,,0.02842192822819294,,,,,,,2.0,14.0,12.0,12.0,10.0,4.0,0.02247252335075705,0.024455658309902345,0.026438793269047644,0.027628674244534822,0.02802530123636388,2.8284271247461903,24.0,18.211538175430416
2,2011-01-31,STORE_2_681,9.0,0,0,-0.0020059826975986107,0.005926557138982574,0.020489388391611754,,,,,,,2.0,14.0,11.0,10.0,9.0,5.0,0.01948639704281245,0.020489388391611754,0.024455658309902345,0.0268354202608767,0.027628674244534822,2.6457513110645907,33.0,18.21384899566613
3,2011-02-01,STORE_2_681,5.0,0,0,-0.008117890222179458,-0.006111907524580847,0.018483405694013143,,,,,,,2.5,14.0,9.5,9.5,5.0,9.0,0.01645393313846828,0.01948639704281245,0.02247252335075705,0.026042166277218587,0.027232047252705758,3.696845502136472,38.0,18.216159815901843
4,2011-02-02,STORE_2_681,6.0,0,0,0.0020437425099862835,0.010161632732165742,0.010365515471833685,,,,,,,2.6399999999999997,14.0,8.8,9.0,5.0,9.0,0.012409257981819969,0.018483405694013143,0.020489388391611754,0.025248912293560466,0.0268354202608767,3.5637059362410923,44.0,18.218470636137564
5,2011-02-03,STORE_2_681,7.0,0,0,0.002034169910453111,-9.572599533172466e-06,0.012409257981819969,,,,,,,2.5,14.0,8.5,8.0,5.0,9.0,0.012917800459433247,0.016463416793143112,0.019987892717212102,0.024455658309902345,0.026438793269047644,3.271085446759225,51.0,18.220781456373278
6,2011-02-04,STORE_2_681,18.0,0,0,0.02176874476217165,0.019734574851718537,0.01444342789227308,,,,,,,3.5510204081632653,18.0,9.857142857142858,9.0,5.0,13.0,0.013426342937046525,0.018483405694013143,0.024455658309902345,0.03153802599869366,0.03387509932656919,4.6700667885506535,69.0,18.22309227660899
7,2011-02-05,STORE_2_681,19.0,0,0,0.0019259210360384263,-0.019842823726133222,0.03621217265444473,,,,,0.02842192822819294,,4.5,19.0,11.0,9.5,5.0,14.0,0.013934885414659802,0.01948639704281245,0.030369489334755886,0.03678994896525625,0.037464021327869704,5.398412465054624,88.0,18.225403096844705
8,2011-02-06,STORE_2_681,26.000000000000004,0,0,0.013247481878618059,0.011321560842579632,0.038138093690483155,,,,,0.020489388391611754,,5.851851851851851,26.0,12.666666666666666,10.0,5.0,21.0,0.01444342789227308,0.020489388391611754,0.03621217265444473,0.04078759006620677,0.04608658281765399,7.106335201775948,114.0,18.227713917080425
9,2011-02-07,STORE_2_681,15.0,0,0,-0.021002946575380346,-0.03425042845399841,0.05138557556910121,,,,,0.018483405694013143,,5.499999999999999,26.0,12.9,12.0,5.0,21.0,0.015453422342708096,0.024455658309902345,0.034754786739263764,0.03946284187834496,0.045424208723723075,6.740425308044985,129.0,18.23002473731614
10,2011-02-08,STORE_2_681,8.0,0,0,-0.013914514535033295,0.007088432040347051,0.030382628993720868,,,,,0.010365515471833685,,5.404958677685951,26.0,12.454545454545455,10.0,5.0,21.0,0.015455771175480327,0.020489388391611754,0.0332974008240828,0.038138093690483155,0.044761834629792184,6.562981584061262,137.0,18.232335557551853
11,2011-02-09,STORE_2_681,7.0,0,0,-0.002024686566414493,0.011889827968618802,0.016468114458687573,,,,,0.012409257981819969,,5.333333333333333,26.0,12.0,9.5,5.0,21.0,0.01444342789227308,0.01948639704281245,0.031840014908901836,0.037945501586879316,0.04409946053586127,6.452624554114677,144.0,18.234646377787573
12,2011-02-10,STORE_2_681,14.0,0,0,0.01397850033591986,0.016003186902334352,0.01444342789227308,,,,,0.01444342789227308,,5.088757396449704,26.0,12.153846153846153,10.0,5.0,21.0,0.01444342789227308,0.020489388391611754,0.030382628993720868,0.03775290948327547,0.04343708644193036,6.202770266127787,158.0,18.236957198023287
13,2011-02-11,STORE_2_681,20.999999999999996,0,0,0.013542573315343084,-0.00043592702057677554,0.02842192822819294,,,,,0.03621217265444473,,5.3571428571428585,26.0,12.785714285714286,12.0,5.0,21.0,0.014949599533876704,0.024455658309902345,0.034754786739263764,0.04081657918762017,0.045261877452483834,6.4112709819813105,179.0,18.239268018259
14,2011-02-12,STORE_2_681,22.999999999999996,0,0,0.0037929890171390923,-0.009749584298203991,0.04196450154353602,0.02842192822819294,,,,0.038138093690483155,,5.635555555555555,26.0,13.466666666666667,14.0,5.0,21.0,0.015455771175480327,0.02842192822819294,0.037175133172463945,0.044240294953819474,0.04744591606320294,6.7174258108154445,202.0,18.241578838494714
15,2011-02-13,STORE_2_681,22.999999999999996,0,0,0.0,-0.0037929890171390923,0.045757490560675115,0.020489388391611754,,,,0.05138557556910121,,5.8203125,26.0,14.0625,14.0,5.0,21.0,0.01596194281708395,0.02842192822819294,0.039094695653746375,0.045757490560675115,0.04716451181278164,6.913453068715613,225.0,18.243889658730435
16,2011-02-14,STORE_2_681,12.0,0,0,-0.021283721177474537,-0.021283721177474537,0.045757490560675115,0.018483405694013143,,,,0.030382628993720868,,5.591695501730104,26.0,13.941176470588236,14.0,5.0,21.0,0.016468114458687573,0.02842192822819294,0.038138093690483155,0.045757490560675115,0.04688310756236033,6.712586947623976,237.0,18.24620047896615
17,2011-02-15,STORE_2_681,4.0,0,0,-0.016161659542425672,0.005122061635048865,0.02447376938320058,0.010365515471833685,,,,0.016468114458687573,,5.833333333333333,26.0,13.38888888888889,13.0,4.0,22.0,0.014949599533876704,0.02644784880569676,0.03765661343147355,0.045757490560675115,0.046601703311939024,6.920888151852875,241.0,18.248511299201862
18,2011-02-16,STORE_2_681,9.0,0,0,0.010171295853238237,0.02633295539566391,0.008312109840774906,0.012409257981819969,,,,0.01444342789227308,,5.745152354570638,26.0,13.157894736842104,12.0,4.0,22.0,0.015455771175480327,0.02447376938320058,0.037175133172463945,0.045757490560675115,0.04632029906151771,6.80084274103615,250.0,18.250822119437583
19,2011-02-17,STORE_2_681,14.0,0,0,0.009938522534179796,-0.00023277331905844148,0.018483405694013143,0.01444342789227308,,,,0.02842192822819294,,5.5,26.0,13.2,13.0,4.0,22.0,0.01596194281708395,0.02644784880569676,0.03669365291345433,0.045757490560675115,0.04603889481109642,6.62213195118818,264.0,18.253132939673296
20,2011-02-18,STORE_2_681,17.0,0,0,0.00585574464905211,-0.004082777885127686,0.02842192822819294,0.03621217265444473,,,,0.04196450154353602,,5.4104308390022675,26.0,13.380952380952381,14.0,4.0,22.0,0.016468114458687573,0.02842192822819294,0.03621217265444473,0.045757490560675115,0.045757490560675115,6.507504825016964,281.0,18.25544375990901
21,2011-02-19,STORE_2_681,14.0,0,0,-0.00585574464905211,-0.01171148929810422,0.03427767287724505,0.038138093690483155,,,,0.045757490560675115,,5.1900826446281,26.0,13.409090909090908,14.0,4.0,22.0,0.016971937267518965,0.02842192822819294,0.03572854771014481,0.04537819165896122,0.045757490560675115,6.352045721536082,295.0,18.257754580144724
22,2011-02-20,STORE_2_681,19.0,0,0,0.009716165462290215,0.015571910111342326,0.02842192822819294,0.05138557556910121,,,,0.045757490560675115,,5.175803402646503,26.0,13.652173913043478,14.0,4.0,22.0,0.017475760076350356,0.02842192822819294,0.037175133172463945,0.0449988927572473,0.045757490560675115,6.314548106282924,314.0,18.260065400380444
23,2011-02-21,STORE_2_681,22.999999999999996,1,0,0.007619396870191961,-0.0020967685920982547,0.038138093690483155,0.030382628993720868,,,,0.02447376938320058,,5.298611111111112,26.0,14.041666666666666,14.0,4.0,22.0,0.01797958288518175,0.02842192822819294,0.038138093690483155,0.045757490560675115,0.045757490560675115,6.463806703595743,337.0,18.262376220616158
24,2011-02-22,STORE_2_681,15.0,0,0,-0.015374861566954248,-0.022994258437146208,0.045757490560675115,0.016468114458687573,,,,0.008312109840774906,,5.1296,26.0,14.08,14.0,4.0,22.0,0.018483405694013143,0.02842192822819294,0.038138093690483155,0.045757490560675115,0.045757490560675115,6.330613451054066,352.0,18.26468704085187
25,2011-02-23,STORE_2_681,22.0,0,0,0.013482507889249363,0.02885736945620361,0.030382628993720868,0.01444342789227308,,,,0.018483405694013143,,5.260355029585799,26.0,14.384615384615385,14.0,4.0,22.0,0.018483405694013143,0.02842192822819294,0.038138093690483155,0.045757490560675115,0.045757490560675115,6.394228166569743,374.0,18.266997861087592
26,2011-02-24,STORE_2_681,12.0,0,0,-0.019391367499769652,-0.032873875389019015,0.04386513688297023,0.02842192822819294,,,,0.02842192822819294,,5.144032921810701,26.0,14.296296296296296,14.0,4.0,22.0,0.018483405694013143,0.02842192822819294,0.038138093690483155,0.045757490560675115,0.045757490560675115,6.286828813019846,386.0,18.269308681323306
27,2011-02-25,STORE_2_681,18.0,0,0,0.01173840327124415,0.031129770771013802,0.02447376938320058,0.04196450154353602,,,,0.03427767287724505,,5.10204081632653,26.0,14.428571428571429,14.0,4.0,22.0,0.018483405694013143,0.02842192822819294,0.038138093690483155,0.045757490560675115,0.045757490560675115,6.208885934712003,404.0,18.27161950155902
28,2011-02-26,STORE_2_681,14.0,0,0,-0.007790244426251789,-0.01952864769749594,0.03621217265444473,0.045757490560675115,,,,0.02842192822819294,,4.939357907253271,26.0,14.413793103448276,14.0,4.0,22.0,0.018483405694013143,0.02842192822819294,0.038138093690483155,0.045757490560675115,0.045757490560675115,6.097524330059292,418.0,18.273930321794733
29,2011-02-27,STORE_2_681,20.0,0,0,0.01163358350801202,0.01942382793426381,0.02842192822819294,0.045757490560675115,,,,0.038138093690483155,,4.973333333333333,26.0,14.6,14.0,4.0,22.0,0.018984901368412795,0.02842192822819294,0.038138093690483155,0.045757490560675115,0.045757490560675115,6.077658351247029,438.0,18.276241142030454
30,2011-02-28,STORE_2_681,10.0,0,0,-0.019566123344593206,-0.031199706852605227,0.04005551173620496,0.02447376938320058,,0.02842192822819294,,0.045757490560675115,,4.946930280957334,26.0,14.451612903225806,14.0,4.0,22.0,0.01948639704281245,0.02842192822819294,0.038138093690483155,0.045757490560675115,0.045757490560675115,6.032350065424582,448.0,18.278551962266167
31,2011-03-01,STORE_2_681,2.0000000000000036,0,0,-0.016313447737475506,0.0032526756071177,0.020489388391611754,0.008312109840774906,,0.020489388391611754,,0.030382628993720868,,5.1328125,26.0,14.0625,14.0,2.0,24.0,0.018483405694013143,0.02842192822819294,0.038138093690483155,0.04556825519290463,0.045757490560675115,6.329335183964249,450.0,18.28086278250188
32,2011-03-02,STORE_2_681,10.0,0,0,0.016313447737475506,0.03262689547495101,0.004175940654136249,0.018483405694013143,,0.018483405694013143,,0.04386513688297023,,5.100091827364555,26.0,13.93939393939394,14.0,2.0,24.0,0.018483405694013143,0.02842192822819294,0.038138093690483155,0.04537901982513414,0.045757490560675115,6.26966602947973,460.0,18.2831736027376
33,2011-03-03,STORE_2_681,22.0,0,0,0.023375748491358476,0.0070623007538829705,0.020489388391611754,0.02842192822819294,,0.010365515471833685,,0.02447376938320058,,5.197231833910036,26.0,14.176470588235293,14.0,2.0,24.0,0.018984901368412795,0.02842192822819294,0.038138093690483155,0.04518978445736365,0.045757490560675115,6.326809661994641,482.0,18.285484422973315
34,2011-03-04,STORE_2_681,42.0,0,0,0.036363864755848345,0.012988116264489868,0.04386513688297023,0.03427767287724505,,0.012409257981819969,,0.03621217265444473,,5.9118367346938765,42.0,14.971428571428572,14.0,2.0,40.0,0.01948639704281245,0.02842192822819294,0.03909680271334406,0.045757490560675115,0.04744591606320293,7.808312743426692,524.0,18.28779524320903
35,2011-03-05,STORE_2_681,51.99999999999999,0,0,0.017100416985515482,-0.019263447770332863,0.08022900163881858,0.02842192822819294,,0.01444342789227308,,0.02842192822819294,,6.944444444444445,52.0,16.0,14.0,2.0,50.0,0.019987892717212102,0.02842192822819294,0.040532759188037726,0.045757490560675115,0.05859643208653055,9.864800338287933,576.0,18.290106063444743
36,2011-03-06,STORE_2_681,58.0,0,0,0.009946109855556023,-0.0071543071299594585,0.09732941862433406,0.038138093690483155,,0.03621217265444473,,0.04005551173620496,,8.052593133674218,58.0,17.135135135135137,14.0,2.0,56.0,0.020489388391611754,0.02842192822819294,0.04196450154353602,0.04800872456404555,0.0836490850359216,11.928402524512105,634.0,18.292416883680463
37,2011-03-07,STORE_2_681,36.000000000000014,0,0,-0.03763960033849564,-0.04758571019405167,0.10727552847989008,0.045757490560675115,,0.038138093690483155,,0.020489388391611754,,8.415512465373961,58.0,17.63157894736842,14.5,2.0,56.0,0.020489388391611754,0.029402278610956904,0.04338997804811168,0.05686068134078926,0.08279406418664588,12.15757144274673,670.0,18.294727703916177
38,2011-03-08,STORE_2_681,45.0,0,0,0.01579426718323189,0.05343386752172753,0.06963592814139444,0.030382628993720868,,0.05138557556910121,,0.004175940654136249,,9.025641025641022,58.0,18.333333333333332,15.0,2.0,56.0,0.020489388391611754,0.030382628993720868,0.04386513688297023,0.0717545428408793,0.08662011765459712,12.771953923246974,715.0,18.29703852415189
39,2011-03-09,STORE_2_681,36.99999999999999,0,0,-0.014010714442814667,-0.029804981626046556,0.08543019532462633,0.04386513688297023,,0.030382628993720868,,0.020489388391611754,,9.360000000000003,58.0,18.8,15.0,2.0,56.0,0.020489388391611754,0.030382628993720868,0.04433822530239645,0.07230043295751236,0.08602515648961168,12.948022322010493,752.0,18.29934934438761
40,2011-03-10,STORE_2_681,36.000000000000014,0,0,-0.0017835527404172213,0.012227161702397446,0.07141948088181166,0.02447376938320058,,0.016468114458687573,,0.04386513688297023,,9.64425936942297,58.0,19.21951219512195,15.0,2.0,56.0,0.020489388391611754,0.030382628993720868,0.045757490560675115,0.07141948088181166,0.08543019532462633,13.064287571700861,788.0,18.301660164623325
41,2011-03-11,STORE_2_681,57.00000000000001,0,0,0.03599765327151887,0.03778120601193609,0.06963592814139444,0.03621217265444473,,0.01444342789227308,,0.08022900163881858,,10.534013605442166,58.0,20.11904761904762,16.0,2.0,56.0,0.020489388391611754,0.03233015093548296,0.045757490560675115,0.07934804956311788,0.09673445745934862,14.159720234511287,845.0,18.30397098485904
42,2011-03-12,STORE_2_681,83.0,0,0,0.04079407102912501,0.004796417757606142,0.1056335814129133,0.02842192822819294,,0.02842192822819294,,0.09732941862433406,,12.152514872904264,83.0,21.58139534883721,17.0,2.0,81.0,0.020489388391611754,0.03427767287724505,0.045757490560675115,0.0843899565874648,0.10480316513405537,16.96106544011276,928.0,18.306281805094752
43,2011-03-13,STORE_2_681,58.0,0,0,-0.03915212396214823,-0.07994619499127324,0.14642765244203831,0.04005551173620496,,0.04196450154353602,,0.10727552847989008,,12.96694214876034,83.0,22.40909090909091,17.5,2.0,81.0,0.020489388391611754,0.035244922765844885,0.04716451181278164,0.09375965163442178,0.10702923641984356,17.63890807913295,986.0,18.308592625330473
44,2011-03-14,STORE_2_681,41.0,0,0,-0.028794193110591587,0.010357930851556646,0.10727552847989008,0.020489388391611754,,0.045757490560675115,,0.06963592814139444,,13.229629629629613,83.0,22.822222222222223,18.0,2.0,81.0,0.020489388391611754,0.03621217265444473,0.05138557556910121,0.09256972930445098,0.10694713906649472,17.65617183990924,1027.0,18.310903445566186
45,2011-03-15,STORE_2_681,31.0,0,0,-0.017874723769704302,0.010919469340887285,0.0784813353692985,0.004175940654136249,,0.045757490560675115,,0.08543019532462633,,13.173913043478262,83.0,23.0,18.0,2.0,81.0,0.02148548363950896,0.03621217265444473,0.058301352591970945,0.0913798069744802,0.10686504171314588,17.500476183997584,1058.0,18.3132142658019
46,2011-03-16,STORE_2_681,29.0,0,0,-0.003664954086405374,0.014209769683298928,0.06060661159959419,0.020489388391611754,,0.02447376938320058,,0.07141948088181166,,13.072883657763713,83.0,23.127659574468087,18.0,2.0,81.0,0.022481578887406165,0.03621217265444473,0.05877413455639151,0.0901898846445094,0.10678294435979704,17.331320004517327,1087.0,18.31552508603762
47,2011-03-17,STORE_2_681,34.0,0,0,0.009105039604761805,0.01276999369116718,0.05694165751318882,0.04386513688297023,,0.008312109840774906,,0.06963592814139444,,13.11197916666667,83.0,23.354166666666668,18.5,2.0,81.0,0.023477674135303373,0.037175133172463945,0.0619666329791833,0.0889999623145387,0.1067008470064482,17.217617873800865,1121.0,18.317835906273334
48,2011-03-18,STORE_2_681,29.0,0,0,-0.009105039604761805,-0.01821007920952361,0.06604669711795062,0.08022900163881858,,0.018483405694013143,,0.1056335814129133,,12.999583506872138,83.0,23.46938775510204,19.0,2.0,81.0,0.02447376938320058,0.038138093690483155,0.06060661159959419,0.0878100399845679,0.10661874965309937,17.056404028028506,1150.0,18.320146726509048
49,2011-03-19,STORE_2_681,66.0,0,0,0.06325064407064944,0.07235568367541124,0.05694165751318882,0.09732941862433406,,0.02842192822819294,,0.14642765244203831,,13.862400000000013,83.0,24.32,19.0,2.0,81.0,0.02447376938320058,0.038138093690483155,0.06468667573836151,0.098159834903192,0.10727552847989008,17.92096025124018,1216.0,18.32245754674476
50,2011-03-20,STORE_2_681,29.999999999999996,0,0,-0.06141430103065216,-0.1246649451013016,0.12019230158383826,0.10727552847989008,,0.03427767287724505,,0.10727552847989008,,13.7347174163783,83.0,24.431372549019606,19.0,2.0,81.0,0.02447376938320058,0.038138093690483155,0.06332665435877241,0.09732941862433406,0.10727552847989008,17.758665379989328,1246.0,18.324768366980482
51,2011-03-21,STORE_2_681,8.0,0,0,-0.042309886094498525,0.019104414936153634,0.0587780005531861,0.06963592814139444,,0.02842192822819294,,0.0784813353692985,,13.68934911242605,83.0,24.115384615384617,19.0,2.0,81.0,0.023477674135303373,0.038138093690483155,0.0619666329791833,0.09613949629436326,0.10727552847989008,17.730724243586657,1254.0,18.327079187216196
52,2011-03-22,STORE_2_681,10.0,0,0,0.004021273932924181,0.046331160027422706,0.016468114458687573,0.08543019532462633,,0.038138093690483155,,0.06060661159959419,,13.611961552153774,83.0,23.849056603773583,19.0,2.0,81.0,0.020489388391611754,0.038138093690483155,0.06060661159959419,0.09494957396439256,0.10727552847989008,17.666130378620743,1264.0,18.32939000745191
53,2011-03-23,STORE_2_681,18.0,0,0,0.015722784262832974,0.011701510329908793,0.020489388391611754,0.07141948088181166,,0.045757490560675115,,0.05694165751318882,,13.43209876543211,83.0,23.74074074074074,18.5,2.0,81.0,0.02148548363950896,0.037175133172463945,0.060149458837992165,0.09375965163442178,0.10727552847989008,17.516768446247184,1282.0,18.33170082768763
54,2011-03-24,STORE_2_681,22.999999999999996,0,0,0.009545317906230387,-0.006177466356602587,0.03621217265444473,0.06963592814139444,,0.030382628993720868,,0.06604669711795062,,13.196694214876043,83.0,23.727272727272727,19.0,2.0,81.0,0.022481578887406165,0.038138093690483155,0.059692306076390145,0.09256972930445098,0.10727552847989008,17.354105657307237,1305.0,18.334011647923344
55,2011-03-25,STORE_2_681,42.0,0,0,0.03447151107814346,0.024926193171913073,0.045757490560675115,0.1056335814129133,,0.04386513688297023,,0.05694165751318882,,13.392219387755107,83.0,24.053571428571427,19.0,2.0,81.0,0.023477674135303373,0.038138093690483155,0.0619666329791833,0.0913798069744802,0.10727552847989008,17.36812089365523,1347.0,18.336322468159057
56,2011-03-26,STORE_2_681,53.00000000000001,0,0,0.018774000875081645,-0.015697510203061815,0.08022900163881858,0.14642765244203831,,0.02447376938320058,,0.12019230158383826,,13.816558941212685,83.0,24.56140350877193,19.0,2.0,81.0,0.02447376938320058,0.038138093690483155,0.06604669711795062,0.09799885218016052,0.10727552847989008,17.63419723947483,1400.0,18.33863328839477
57,2011-03-27,STORE_2_681,36.000000000000014,0,0,-0.029367074372505783,-0.04814107524758743,0.09900300251390022,0.10727552847989008,,0.03621217265444473,,0.0587780005531861,,13.829964328180711,83.0,24.75862068965517,19.5,2.0,81.0,0.02447376938320058,0.03909680271334406,0.06873862038553348,0.09783149379120391,0.10727552847989008,17.54324015845158,1436.0,18.34094410863049
58,2011-03-28,STORE_2_681,25.0,0,0,-0.02011828870741253,0.009248785665093254,0.06963592814139444,0.0784813353692985,,0.02842192822819294,,0.016468114458687573,,13.600689457052583,83.0,24.76271186440678,20.0,2.0,81.0,0.02447376938320058,0.04005551173620496,0.06784131262967252,0.09766413540224729,0.10727552847989008,17.391376165582404,1461.0,18.343254928866205
59,2011-03-29,STORE_2_681,14.0,0,0,-0.02109571120578897,-0.0009774224983764394,0.04951763943398191,0.06060661159959419,,0.04005551173620496,,0.020489388391611754,,13.505555555555572,83.0,24.583333333333332,19.5,2.0,81.0,0.02447376938320058,0.03909680271334406,0.06694400487381158,0.09749677701329068,0.10727552847989008,17.299252131054264,1475.0,18.34556574910192
60,2011-03-30,STORE_2_681,20.999999999999996,0,0,0.013542573315343084,0.03463828452113205,0.02842192822819294,0.05694165751318882,,0.020489388391611754,,0.03621217265444473,,13.326525127653882,83.0,24.524590163934427,20.0,2.0,81.0,0.02447376938320058,0.04005551173620496,0.06604669711795062,0.09732941862433406,0.10727552847989008,17.160620188265387,1496.0,18.34787656933764
61,2011-03-31,STORE_2_681,29.0,0,0,0.014977155969652794,0.0014345826543097108,0.04196450154353602,0.06604669711795062,,0.004175940654136249,,0.045757490560675115,,13.202393340270563,83.0,24.596774193548388,20.5,2.0,81.0,0.02546080909444867,0.04101000663987049,0.06468667573836151,0.09613949629436326,0.10719343112654124,17.028866213155606,1525.0,18.350187389573353
62,2011-04-01,STORE_2_681,45.0,0,0,0.02848853781143751,0.013511381841784714,0.05694165751318882,0.05694165751318882,,0.020489388391611754,,0.08022900163881858,,13.393801965230544,83.0,24.92063492063492,21.0,2.0,81.0,0.02644784880569676,0.04196450154353602,0.06784131262967252,0.09494957396439256,0.1071113337731924,17.085460322422787,1570.0,18.352498209809067
63,2011-04-02,STORE_2_681,51.99999999999999,0,0,0.011899223299707731,-0.016589314511729777,0.08543019532462633,0.12019230158383826,,0.04386513688297023,,0.09900300251390022,,13.7109375,83.0,25.34375,21.0,2.0,81.0,0.02743488851694485,0.04196450154353602,0.06963592814139444,0.09732941862433406,0.10702923641984355,17.28401293608065,1622.0,18.35480903004478
64,2011-04-03,STORE_2_681,26.000000000000004,0,0,-0.045943843055232844,-0.057843066354940575,0.09732941862433406,0.0587780005531861,,0.08022900163881858,,0.06963592814139444,,13.512426035502942,83.0,25.353846153846153,21.0,2.0,81.0,0.02842192822819294,0.04196450154353602,0.06963592814139444,0.09732941862433406,0.10694713906649472,17.14864313986566,1648.0,18.3571198502805
65,2011-04-04,STORE_2_681,17.0,0,0,-0.017107902691856164,0.02883594036337668,0.05138557556910121,0.016468114458687573,,0.09732941862433406,,0.04951763943398191,,13.403581267217637,83.0,25.227272727272727,21.0,2.0,81.0,0.02842192822819294,0.04196450154353602,0.06873862038553348,0.09732941862433406,0.10686504171314588,17.047260510389666,1665.0,18.359430670516215
66,2011-04-05,STORE_2_681,13.000000000000004,0,0,-0.007825337511956569,0.009282565179899595,0.03427767287724505,0.020489388391611754,,0.10727552847989008,,0.02842192822819294,,13.339719313878364,83.0,25.044776119402986,21.0,2.0,81.0,0.02743713179674071,0.04196450154353602,0.06784131262967252,0.09732941862433406,0.10678294435979704,16.983443663204447,1678.0,18.36174149075193
67,2011-04-06,STORE_2_681,8.0,0,0,-0.009984220906600907,-0.0021588833946443384,0.02645233536528848,0.03621217265444473,,0.06963592814139444,,0.04196450154353602,,13.333910034602056,83.0,24.794117647058822,20.5,2.0,81.0,0.025957693869766506,0.04101000663987049,0.06694400487381158,0.09732941862433406,0.1067008470064482,16.982483357886085,1686.0,18.36405231098765
68,2011-04-07,STORE_2_681,11.0,0,0,0.006018033688999499,0.016002254595600406,0.016468114458687573,0.045757490560675115,,0.08543019532462633,,0.05694165751318882,,13.291325351816852,83.0,24.594202898550726,20.0,2.0,81.0,0.02447376938320058,0.04005551173620496,0.06604669711795062,0.09732941862433406,0.10661874965309937,16.938746776842482,1697.0,18.366363131223363
69,2011-04-08,STORE_2_681,18.0,0,0,0.013726024506757657,0.007707990817758158,0.022486148147687072,0.08022900163881858,,0.07141948088181166,,0.08543019532462633,,13.17142857142857,83.0,24.5,19.5,2.0,81.0,0.024968410878722553,0.03909680271334406,0.06468667573836151,0.09732941862433406,0.10653665229975053,16.83401490943306,1715.0,18.368673951459076
70,2011-04-09,STORE_2_681,28.0,0,0,0.018885344160373782,0.0051593196536161255,0.03621217265444473,0.09900300251390022,,0.06963592814139444,,0.09732941862433406,,13.04701448125374,83.0,24.549295774647888,20.0,2.0,81.0,0.02546305237424453,0.04005551173620496,0.06332665435877241,0.09732941862433406,0.10645455494640169,16.71850021673541,1743.0,18.37098477169479
71,2011-04-10,STORE_2_681,16.0,0,0,-0.0227629992235756,-0.041648343383949384,0.05509751681481851,0.06963592814139444,,0.1056335814129133,,0.05138557556910121,,12.954861111111107,83.0,24.430555555555557,19.5,2.0,81.0,0.025957693869766506,0.03909680271334406,0.0619666329791833,0.09613949629436326,0.10637245759305286,16.630894709604185,1759.0,18.37329559193051
72,2011-04-11,STORE_2_681,3.552713678800501e-15,0,0,-0.03233451759124291,-0.009571518367667307,0.03233451759124291,0.04951763943398191,,0.14642765244203831,,0.03427767287724505,,13.02495777819477,83.0,24.095890410958905,19.0,0.0,83.0,0.02447376938320058,0.038138093690483155,0.06060661159959419,0.09494957396439248,0.10629036023970401,16.760705023259383,1759.0,18.375606412166224
73,2011-04-12,STORE_2_681,18.0,0,0,0.03621217265444473,0.06854669024568763,0.0,0.02842192822819294,,0.10727552847989008,,0.02645233536528848,,12.909057706355016,83.0,24.013513513513512,19.0,0.0,83.0,0.024968410878722553,0.038138093690483155,0.060149458837992165,0.09375965163442178,0.10620826288635517,16.660586944916734,1777.0,18.377917232401938
74,2011-04-13,STORE_2_681,15.0,0,0,-0.005829543660723861,-0.04204171631516859,0.03621217265444473,0.04196450154353602,,0.0784813353692985,,0.016468114458687573,,12.823466666666661,83.0,23.893333333333334,19.0,0.0,83.0,0.02546305237424453,0.038138093690483155,0.059692306076390145,0.09256972930445106,0.10612616553300633,16.580331341302784,1792.0,18.38022805263766
75,2011-04-14,STORE_2_681,9.0,0,0,-0.011899223299707724,-0.006069679638983864,0.030382628993720868,0.05694165751318882,,0.06060661159959419,,0.022486148147687072,,12.793975069252072,83.0,23.69736842105263,18.5,0.0,83.0,0.02447376938320058,0.037175133172463945,0.059235153314788125,0.0913798069744802,0.1060440681796575,16.55779352195785,1801.0,18.382538872873372
76,2011-04-15,STORE_2_681,16.0,0,0,0.013851111897229765,0.02575033519693749,0.018483405694013143,0.08543019532462633,,0.05694165751318882,,0.03621217265444473,,12.697925451172207,83.0,23.5974025974026,18.0,0.0,83.0,0.02447376938320058,0.03621217265444473,0.0587780005531861,0.09018988464450949,0.10596197082630866,16.471873747199417,1817.0,18.384849693109086
77,2011-04-16,STORE_2_681,12.0,0,0,-0.00786074820804233,-0.021711860105272096,0.03233451759124291,0.09732941862433406,,0.06604669711795062,,0.05509751681481851,,12.638067061143968,83.0,23.44871794871795,18.0,0.0,83.0,0.02447376938320058,0.03621217265444473,0.05831891479318678,0.0889999623145386,0.10587987347295981,16.41716510312636,1829.0,18.3871605133448
78,2011-04-17,STORE_2_681,10.0,0,0,-0.003984380991588824,0.0038763672164535065,0.02447376938320058,0.05138557556910121,,0.05694165751318882,,0.03233451759124291,,12.59445601666398,83.0,23.27848101265823,18.0,0.0,83.0,0.02447376938320058,0.03621217265444473,0.057859829033187454,0.0878100399845679,0.10579777611961097,16.381616266695122,1839.0,18.38947133358052
79,2011-04-18,STORE_2_681,9.0,0,0,-0.0020059826975986107,0.0019783982939902134,0.020489388391611754,0.03427767287724505,,0.12019230158383826,,0.0,,12.557500000000006,83.0,23.1,18.0,0.0,83.0,0.0239768640743222,0.03621217265444473,0.057400743273188136,0.0866201176545972,0.10571567876626214,16.35569811287472,1848.0,18.391782153816234
80,2011-04-19,STORE_2_681,26.000000000000004,0,0,0.032902169875088066,0.034908152572686674,0.018483405694013143,0.02645233536528848,,0.0587780005531861,,0.03621217265444473,,12.44932174973327,83.0,23.135802469135804,18.0,0.0,83.0,0.02447376938320058,0.03621217265444473,0.05694165751318882,0.08543019532462633,0.1056335814129133,16.256347288382273,1874.0,18.394092974051947
81,2011-04-20,STORE_2_681,6.0,0,0,-0.03897631758728125,-0.07187848746236931,0.05138557556910121,0.016468114458687573,,0.016468114458687573,,0.030382628993720868,,12.447352766210578,83.0,22.926829268292682,18.0,0.0,83.0,0.02298305345656545,0.03621217265444473,0.05694165751318882,0.08543019532462633,0.10530205246796268,16.26613575925124,1880.0,18.396403794287668
82,2011-04-21,STORE_2_681,12.0,0,0,0.01206451140138061,0.05104082898866186,0.012409257981819969,0.022486148147687072,,0.020489388391611754,,0.018483405694013143,,12.398896791987227,83.0,22.795180722891565,18.0,0.0,83.0,0.023479958765443825,0.03621217265444473,0.05694165751318882,0.08543019532462633,0.10497052352301194,16.211076487438305,1892.0,18.39871461452338
83,2011-04-22,STORE_2_681,15.0,0,0,0.0059088596105202895,-0.00615565179086032,0.02447376938320058,0.03621217265444473,,0.03621217265444473,,0.03233451759124291,,12.321995464852607,83.0,22.702380952380953,18.0,0.0,83.0,0.0239768640743222,0.03621217265444473,0.05694165751318882,0.08543019532462633,0.1046389945780613,16.135555114128508,1907.0,18.401025434759095
84,2011-04-23,STORE_2_681,36.99999999999999,0,0,0.041036851888090795,0.035127992277570505,0.030382628993720868,0.05509751681481851,,0.045757490560675115,,0.02447376938320058,,12.38283737024221,83.0,22.870588235294118,18.0,0.0,83.0,0.02447376938320058,0.03621217265444473,0.05694165751318882,0.08543019532462633,0.10430746563311066,16.114019506313745,1944.0,18.40333625499481
85,2011-04-24,STORE_2_681,35.00000000000001,0,0,-0.0035744603582981427,-0.04461131224638894,0.07141948088181166,0.03233451759124291,,0.08022900163881858,,0.020489388391611754,,12.410492157923207,83.0,23.011627906976745,18.0,0.0,83.0,0.02447376938320058,0.03621217265444473,0.05831891479318678,0.08543019532462633,0.10397593668816003,16.072259027900152,1979.0,18.40564707523053
86,2011-04-25,STORE_2_681,8.0,0,0,-0.05137690606482594,-0.0478024457065278,0.06784502052351352,0.0,,0.09900300251390022,,0.018483405694013143,,12.40163826132911,83.0,22.839080459770116,18.0,0.0,83.0,0.023479958765443825,0.03621217265444473,0.057859829033187454,0.08543019532462633,0.1036444077432094,16.059390908559273,1987.0,18.407957895466243
87,2011-04-26,STORE_2_681,14.0,0,0,0.011953813769505366,0.0633307198343313,0.016468114458687573,0.03621217265444473,,0.06963592814139444,,0.05138557556910121,,12.33832644628099,83.0,22.738636363636363,18.0,0.0,83.0,0.0239768640743222,0.03621217265444473,0.057400743273188136,0.08543019532462633,0.10331287879825866,15.994607078336955,2001.0,18.410268715701957
88,2011-04-27,STORE_2_681,16.0,0,0,0.00391258936304997,-0.008041224406455397,0.02842192822819294,0.030382628993720868,,0.04951763943398191,,0.012409257981819969,,12.257543239489959,83.0,22.662921348314608,18.0,0.0,83.0,0.02447376938320058,0.03621217265444473,0.05694165751318882,0.08543019532462633,0.10298134985330804,15.919501919618703,2017.0,18.412579535937677
89,2011-04-28,STORE_2_681,15.0,0,0,-0.001951888597522041,-0.005864477960572011,0.03233451759124291,0.018483405694013143,,0.02842192822819294,,0.02447376938320058,,12.18567901234568,83.0,22.57777777777778,18.0,0.0,83.0,0.02447376938320058,0.03621217265444473,0.05694165751318882,0.08543019532462633,0.10264982090835739,15.850408691273534,2032.0,18.41489035617339
90,2011-04-29,STORE_2_681,19.0,0,0,0.007755464696762287,0.009707353294284328,0.030382628993720868,0.03233451759124291,,0.04196450154353602,,0.030382628993720868,0.02842192822819294,12.143703703703707,83.0,22.633333333333333,18.0,0.0,83.0,0.02447376938320058,0.03621217265444473,0.05694165751318882,0.08543019532462633,0.10264982090835739,15.828753526486132,2037.0,18.417201176409105
91,2011-04-30,STORE_2_681,11.0,0,0,-0.015651945542796083,-0.02340741023955837,0.038138093690483155,0.02447376938320058,,0.05694165751318882,,0.07141948088181166,0.020489388391611754,12.1353086419753,83.0,22.644444444444446,18.0,0.0,83.0,0.02447376938320058,0.03621217265444473,0.05694165751318882,0.08543019532462633,0.10264982090835739,15.820134455252651,2038.0,18.419511996644818
92,2011-05-01,STORE_2_681,15.0,0,0,0.007896480846033796,0.02354842638882988,0.022486148147687072,0.020489388391611754,,0.08543019532462633,,0.06784502052351352,0.018483405694013143,12.084938271604942,83.0,22.711111111111112,18.0,0.0,83.0,0.02447376938320058,0.03621217265444473,0.05694165751318882,0.08543019532462633,0.10264982090835739,15.774566675751835,2044.0,18.42182281688054
93,2011-05-02,STORE_2_681,19.0,0,0,0.007755464696762287,-0.0001410161492715091,0.030382628993720868,0.018483405694013143,,0.09732941862433406,,0.016468114458687573,0.010365515471833685,11.967407407407403,83.0,22.866666666666667,18.0,0.0,83.0,0.02447376938320058,0.03621217265444473,0.05694165751318882,0.08543019532462633,0.10264982090835739,15.666610885230202,2058.0,18.424133637116253
94,2011-05-03,STORE_2_681,29.0,0,0,0.018803563822705663,0.011048099125943376,0.038138093690483155,0.05138557556910121,,0.05138557556910121,,0.02842192822819294,0.012409257981819969,11.915802469135807,83.0,23.122222222222224,18.0,0.0,83.0,0.024968410878722553,0.03621217265444473,0.05694165751318882,0.08543019532462633,0.10264982090835739,15.575714154116232,2081.0,18.426444457351966
95,2011-05-04,STORE_2_681,5.0,0,0,-0.04657614204135513,-0.06537970586406079,0.05694165751318882,0.012409257981819969,,0.03427767287724505,,0.03233451759124291,0.01444342789227308,11.931111111111111,83.0,23.1,18.0,0.0,83.0,0.024968410878722553,0.03621217265444473,0.05694165751318882,0.08543019532462633,0.10264982090835739,15.60038172970006,2079.0,18.428755277587687
96,2011-05-05,STORE_2_681,6.0,0,0,0.0020437425099862835,0.04861988455134141,0.010365515471833685,0.02447376938320058,,0.02645233536528848,,0.030382628993720868,0.03621217265444473,12.025925925925927,83.0,22.966666666666665,18.0,0.0,83.0,0.02447376938320058,0.03621217265444473,0.05694165751318882,0.08543019532462633,0.10264982090835739,15.695451284089794,2067.0,18.4310660978234
97,2011-05-06,STORE_2_681,9.0,0,0,0.0060741477121931745,0.004030405202206891,0.012409257981819969,0.030382628993720868,,0.016468114458687573,,0.038138093690483155,0.038138093690483155,12.112345679012348,83.0,22.855555555555554,18.0,0.0,83.0,0.02447376938320058,0.03621217265444473,0.05694165751318882,0.08543019532462633,0.10264982090835739,15.759114438639543,2057.0,18.433376918059114
98,2011-05-07,STORE_2_681,13.000000000000004,0,0,0.007968929671275337,0.0018947819590821625,0.018483405694013143,0.07141948088181166,,0.022486148147687072,,0.022486148147687072,0.05138557556910121,12.151604938271612,83.0,22.711111111111112,18.0,0.0,83.0,0.02447376938320058,0.03621217265444473,0.05694165751318882,0.08543019532462633,0.10264982090835739,15.789517532847537,2044.0,18.435687738294828
99,2011-05-08,STORE_2_681,11.0,0,0,-0.003966187217601409,-0.011935116888876746,0.02645233536528848,0.06784502052351352,,0.03621217265444473,,0.030382628993720868,0.030382628993720868,12.18518518518519,83.0,22.666666666666668,18.0,0.0,83.0,0.02447376938320058,0.03621217265444473,0.05694165751318882,0.08543019532462633,0.10264982090835739,15.817072272734254,2040.0,18.43799855853055
100,2011-05-09,STORE_2_681,9.0,0,0,-0.004002742453673928,-3.655523607251979e-05,0.022486148147687072,0.016468114458687573,,0.05509751681481851,,0.038138093690483155,0.016468114458687573,12.176790123456787,83.0,22.677777777777777,18.0,0.0,83.0,0.02447376938320058,0.03621217265444473,0.05694165751318882,0.08543019532462633,0.10264982090835739,15.807001561872148,2041.0,18.440309378766262
101,2011-05-10,STORE_2_681,10.0,0,0,0.0020059826975986107,0.006008725151272539,0.018483405694013143,0.02842192822819294,,0.03233451759124291,,0.05694165751318882,0.01444342789227308,12.151604938271612,83.0,22.711111111111112,18.0,0.0,83.0,0.02447376938320058,0.03621217265444473,0.05694165751318882,0.08543019532462633,0.10264982090835739,15.776703379923115,2044.0,18.442620199001976
102,2011-05-11,STORE_2_681,6.0,0,0,-0.008080130409791785,-0.010086113107390396,0.020489388391611754,0.03233451759124291,,0.0,,0.010365515471833685,0.02842192822819294,12.218765432098763,83.0,22.622222222222224,18.0,0.0,83.0,0.02298305345656545,0.03621217265444473,0.05694165751318882,0.08543019532462633,0.10264982090835739,15.84870730047501,2036.0,18.444931019237696
103,2011-05-12,STORE_2_681,11.0,0,0,0.010076890165867103,0.018157020575658888,0.012409257981819969,0.030382628993720868,,0.03621217265444473,,0.012409257981819969,0.04196450154353602,12.302716049382727,83.0,22.511111111111113,17.5,0.0,83.0,0.022486148147687072,0.035244922765844885,0.05694165751318882,0.08543019532462633,0.10264982090835739,15.895193566825206,2026.0,18.44724183947341
104,2011-05-13,STORE_2_681,31.0,0,0,0.038120463451907116,0.028043573286040013,0.022486148147687072,0.038138093690483155,,0.030382628993720868,,0.018483405694013143,0.045757490560675115,12.413333333333323,83.0,22.6,17.5,0.0,83.0,0.022486148147687072,0.035244922765844885,0.05831891479318678,0.08543019532462633,0.10264982090835739,15.920307150783266,2034.0,18.449552659709124
105,2011-05-14,STORE_2_681,34.0,0,0,0.0054400855183564314,-0.032680377933550685,0.06060661159959419,0.022486148147687072,,0.018483405694013143,,0.02645233536528848,0.045757490560675115,12.565432098765434,83.0,22.72222222222222,17.5,0.0,83.0,0.022486148147687072,0.035244922765844885,0.060149458837992165,0.08543019532462633,0.10264982090835739,15.965572355046335,2045.0,18.451863479944837
106,2011-05-15,STORE_2_681,20.0,0,0,-0.025991185381745663,-0.031431270900102094,0.06604669711795062,0.030382628993720868,,0.03233451759124291,,0.022486148147687072,0.02447376938320058,12.498271604938271,83.0,22.81111111111111,18.0,0.0,83.0,0.022486148147687072,0.03621217265444473,0.060149458837992165,0.08543019532462633,0.10264982090835739,15.92742983734258,2053.0,18.454174300180558
107,2011-05-16,STORE_2_681,22.999999999999996,0,0,0.005701978824470155,0.03169316420621582,0.04005551173620496,0.038138093690483155,,0.02447376938320058,,0.018483405694013143,0.008312109840774906,12.339753086419737,83.0,23.022222222222222,18.0,0.0,83.0,0.02298305345656545,0.03621217265444473,0.060149458837992165,0.08543019532462633,0.10264982090835739,15.800709540160984,2072.0,18.45648512041627
108,2011-05-17,STORE_2_681,13.000000000000004,0,0,-0.019305155195386635,-0.02500713401985679,0.045757490560675115,0.05694165751318882,,0.020489388391611754,,0.020489388391611754,0.018483405694013143,12.308148148148137,83.0,23.066666666666666,18.0,0.0,83.0,0.02447376938320058,0.03621217265444473,0.060149458837992165,0.08543019532462633,0.10264982090835739,15.76641288565344,2076.0,18.458795940651985
109,2011-05-18,STORE_2_681,16.0,0,0,0.0058821822259544285,0.025187337421341063,0.02645233536528848,0.010365515471833685,,0.018483405694013143,,0.012409257981819969,0.02842192822819294,12.292345679012364,83.0,23.08888888888889,18.0,0.0,83.0,0.02447376938320058,0.03621217265444473,0.060149458837992165,0.08543019532462633,0.10264982090835739,15.754895400752087,2078.0,18.461106760887706
110,2011-05-19,STORE_2_681,15.0,0,0,-0.001951888597522041,-0.00783407082347647,0.03233451759124291,0.012409257981819969,,0.05138557556910121,,0.022486148147687072,0.03427767287724505,12.308148148148137,83.0,23.066666666666666,18.0,0.0,83.0,0.02447376938320058,0.03621217265444473,0.060149458837992165,0.08543019532462633,0.10264982090835739,15.764987518570196,2076.0,18.46341758112342
111,2011-05-20,STORE_2_681,22.0,0,0,0.013482507889249363,0.015434396486771404,0.030382628993720868,0.018483405694013143,,0.012409257981819969,,0.06060661159959419,0.02842192822819294,12.244938271604939,83.0,23.155555555555555,18.0,0.0,83.0,0.02447376938320058,0.03621217265444473,0.060149458837992165,0.08543019532462633,0.10264982090835739,15.735818377986215,2084.0,18.465728401359133
112,2011-05-21,STORE_2_681,16.0,0,0,-0.011530619291727322,-0.025013127180976685,0.04386513688297023,0.02645233536528848,,0.02447376938320058,,0.06604669711795062,0.038138093690483155,12.268641975308638,83.0,23.122222222222224,18.0,0.0,83.0,0.02447376938320058,0.03621217265444473,0.060149458837992165,0.08543019532462633,0.10264982090835739,15.747892869768418,2081.0,18.468039221594847
113,2011-05-22,STORE_2_681,12.0,0,0,-0.00786074820804233,0.003669871083684991,0.03233451759124291,0.022486148147687072,,0.030382628993720868,,0.04005551173620496,0.045757490560675115,12.355555555555556,83.0,23.0,18.0,0.0,83.0,0.02447376938320058,0.03621217265444473,0.060149458837992165,0.08543019532462633,0.10264982090835739,15.7914782878885,2070.0,18.470350041830567
114,2011-05-23,STORE_2_681,15.0,0,0,0.0059088596105202895,0.01376960781856262,0.02447376938320058,0.018483405694013143,,0.07141948088181166,,0.045757490560675115,0.030382628993720868,12.355555555555556,83.0,23.0,18.0,0.0,83.0,0.02447376938320058,0.03621217265444473,0.060149458837992165,0.08543019532462633,0.10264982090835739,15.7914782878885,2070.0,18.47266086206628
115,2011-05-24,STORE_2_681,18.0,0,0,0.005829543660723861,-7.931594979642895e-05,0.030382628993720868,0.020489388391611754,,0.06784502052351352,,0.02645233536528848,0.04386513688297023,12.389135802469143,83.0,22.955555555555556,18.0,0.0,83.0,0.02447376938320058,0.03621217265444473,0.060149458837992165,0.08543019532462633,0.10264982090835739,15.799951010527884,2066.0,18.474971682301994
116,2011-05-25,STORE_2_681,19.0,0,0,0.0019259210360384263,-0.0039036226246854343,0.03621217265444473,0.012409257981819969,,0.016468114458687573,,0.03233451759124291,0.02447376938320058,12.331851851851859,83.0,23.033333333333335,18.0,0.0,83.0,0.02447376938320058,0.03621217265444473,0.060149458837992165,0.08543019532462633,0.10264982090835739,15.76259973994765,2073.0,18.477282502537708
117,2011-05-26,STORE_2_681,2.0000000000000036,0,0,-0.033962153036346907,-0.03588807407238533,0.038138093690483155,0.022486148147687072,,0.02842192822819294,,0.030382628993720868,0.03621217265444473,12.464691358024682,83.0,22.855555555555554,18.0,0.0,83.0,0.02298305345656545,0.03621217265444473,0.060149458837992165,0.08543019532462633,0.10264982090835739,15.909548479889603,2057.0,18.47959332277343
118,2011-05-27,STORE_2_681,14.0,0,0,0.02424598757405669,0.058208140610403594,0.004175940654136249,0.06060661159959419,,0.03233451759124291,,0.04386513688297023,0.02842192822819294,12.464691358024682,83.0,22.855555555555554,18.0,0.0,83.0,0.02298305345656545,0.03621217265444473,0.060149458837992165,0.08543019532462633,0.10264982090835739,15.909548479889603,2057.0,18.481904143009142
119,2011-05-28,STORE_2_681,7.0,0,0,-0.01397850033591986,-0.038224487909976554,0.02842192822819294,0.06604669711795062,,0.030382628993720868,,0.03233451759124291,0.04005551173620496,12.57382716049383,83.0,22.711111111111112,17.5,0.0,83.0,0.022486148147687072,0.035244922765844885,0.060149458837992165,0.08543019532462633,0.10264982090835739,15.994552755631652,2044.0,18.484214963244856
120,2011-05-29,STORE_2_681,11.0,0,0,0.008042720255413992,0.02202122059133385,0.01444342789227308,0.04005551173620496,,0.038138093690483155,,0.02447376938320058,0.020489388391611754,12.565432098765443,83.0,22.72222222222222,17.5,0.0,83.0,0.022486148147687072,0.035244922765844885,0.060149458837992165,0.08543019532462633,0.10264982090835739,15.985968410374085,2045.0,18.486525783480577
121,2011-05-30,STORE_2_681,18.0,1,0,0.013726024506757657,0.005683304251343665,0.022486148147687072,0.045757490560675115,,0.022486148147687072,,0.030382628993720868,0.004175940654136249,12.431111111111111,83.0,22.9,18.0,0.0,83.0,0.02298305345656545,0.03621217265444473,0.060149458837992165,0.08543019532462633,0.10264982090835739,15.841241864835748,2061.0,18.48883660371629
122,2011-05-31,STORE_2_681,7.0,0,0,-0.02176874476217165,-0.035494769268929305,0.03621217265444473,0.02645233536528848,,0.030382628993720868,,0.03621217265444473,0.020489388391611754,12.456296296296301,83.0,22.866666666666667,18.0,0.0,83.0,0.02298305345656545,0.03621217265444473,0.060149458837992165,0.08543019532462633,0.10264982090835739,15.871818003668423,2058.0,18.491147423952004
123,2011-06-01,STORE_2_681,47.0,0,0,0.0744199432707472,0.09618868803291886,0.01444342789227308,0.03233451759124291,,0.038138093690483155,,0.038138093690483155,0.04386513688297023,12.782962962962971,83.0,23.144444444444446,18.0,0.0,83.0,0.02298305345656545,0.03621217265444473,0.06060661159959419,0.08577351290846576,0.10264982090835739,16.073959058061885,2083.0,18.493458244187718
124,2011-06-02,STORE_2_681,20.999999999999996,0,0,-0.046898869619484265,-0.12131881289023147,0.08886337116302029,0.030382628993720868,,0.05694165751318882,,0.004175940654136249,0.08022900163881858,12.533827160493823,83.0,22.91111111111111,18.0,0.0,83.0,0.02298305345656545,0.03621217265444473,0.060149458837992165,0.08577351290846576,0.10264982090835739,15.949107575642772,2062.0,18.49576906442344
125,2011-06-03,STORE_2_681,13.000000000000004,0,0,-0.015512166178247543,0.03138670344123672,0.04196450154353602,0.04386513688297023,,0.010365515471833685,,0.02842192822819294,0.09732941862433406,12.205185185185181,83.0,22.477777777777778,17.5,0.0,83.0,0.02298305345656545,0.035244922765844885,0.05831891479318678,0.08543019532462633,0.10264982090835739,15.67738497009703,2023.0,18.498079884659152
126,2011-06-04,STORE_2_681,11.0,0,0,-0.003966187217601409,0.011545978960646134,0.02645233536528848,0.03233451759124291,,0.012409257981819969,,0.01444342789227308,0.10727552847989008,11.788148148148156,83.0,21.955555555555556,16.5,0.0,83.0,0.022486148147687072,0.03330609523424398,0.05694165751318882,0.0807491210073994,0.09824988976359544,15.25801400120356,1976.0,18.500390704894865
127,2011-06-05,STORE_2_681,16.0,0,0,0.009848369443555837,0.013814556661157246,0.022486148147687072,0.02447376938320058,,0.018483405694013143,,0.022486148147687072,0.06963592814139444,11.634074074074077,83.0,21.733333333333334,16.0,0.0,83.0,0.022486148147687072,0.03233451759124291,0.05694165751318882,0.0807491210073994,0.09824988976359544,15.19668798925268,1956.0,18.502701525130586
128,2011-06-06,STORE_2_681,19.0,0,0,0.005803576099240246,-0.004044793344315591,0.03233451759124291,0.030382628993720868,,0.02645233536528848,,0.03621217265444473,0.08543019532462633,11.31604938271605,83.0,21.444444444444443,16.0,0.0,83.0,0.022486148147687072,0.03233451759124291,0.05694165751318882,0.07865610199625052,0.09824988976359544,14.99521355176948,1930.0,18.5050123453663
129,2011-06-07,STORE_2_681,14.0,0,0,-0.009716165462290215,-0.015519741561530461,0.038138093690483155,0.03621217265444473,,0.022486148147687072,,0.01444342789227308,0.07141948088181166,11.14074074074074,83.0,21.18888888888889,16.0,0.0,83.0,0.022486148147687072,0.03233451759124291,0.05648062233859624,0.07865610199625052,0.09824988976359544,14.922943984969148,1907.0,18.507323165602013
130,2011-06-08,STORE_2_681,14.0,0,0,0.0,0.009716165462290215,0.02842192822819294,0.038138093690483155,,0.018483405694013143,,0.08886337116302029,0.06963592814139444,10.971604938271607,83.0,20.944444444444443,16.0,0.0,83.0,0.022486148147687072,0.03233451759124291,0.054169531503389184,0.07865610199625052,0.09824988976359544,14.857647454766765,1885.0,18.509633985837727
131,2011-06-09,STORE_2_681,18.0,0,0,0.007790244426251789,0.007790244426251789,0.02842192822819294,0.004175940654136249,,0.020489388391611754,,0.04196450154353602,0.1056335814129133,10.459259259259268,83.0,20.511111111111113,16.0,0.0,83.0,0.022486148147687072,0.03233451759124291,0.05138557556910121,0.0721256663305604,0.09351969726674284,14.354457041414271,1846.0,18.511944806073448
132,2011-06-10,STORE_2_681,26.000000000000004,0,0,0.015173402914656485,0.007383158488404696,0.03621217265444473,0.02842192822819294,,0.012409257981819969,,0.02645233536528848,0.14642765244203831,9.617530864197539,66.0,19.877777777777776,16.0,0.0,66.0,0.022486148147687072,0.03233451759124291,0.05138557556910121,0.06981428341543618,0.087318442035743,12.732183213740866,1789.0,18.51425562630916
133,2011-06-11,STORE_2_681,3.552713678800501e-15,0,0,-0.05138557556910121,-0.06655897848375769,0.05138557556910121,0.01444342789227308,,0.022486148147687072,,0.022486148147687072,0.10727552847989008,9.200000000000003,66.0,19.233333333333334,16.0,0.0,66.0,0.022486148147687072,0.03233451759124291,0.050918591535321384,0.06802411128530163,0.08308965816601283,12.239235123343875,1731.0,18.516566446544875
134,2011-06-12,STORE_2_681,3.552713678800501e-15,0,0,0.0,0.05138557556910121,0.0,0.022486148147687072,,0.06060661159959419,,0.03233451759124291,0.0784813353692985,9.029629629629621,66.0,18.77777777777778,16.0,0.0,66.0,0.022486148147687072,0.03233451759124291,0.04857760221565521,0.06622652945850693,0.08308965816601283,12.18285568060018,1690.0,18.518877266780596
135,2011-06-13,STORE_2_681,3.552713678800501e-15,0,0,0.0,0.0,0.0,0.03621217265444473,,0.06604669711795062,,0.038138093690483155,0.06060661159959419,9.002962962962966,66.0,18.433333333333334,15.5,0.0,66.0,0.022486148147687072,0.03135857329248189,0.045757490560675115,0.06622652945850693,0.08308965816601283,12.271324022224617,1659.0,18.52118808701631
136,2011-06-14,STORE_2_681,20.0,0,0,0.04005551173620496,0.04005551173620496,0.0,0.01444342789227308,,0.04005551173620496,,0.02842192822819294,0.05694165751318882,8.874074074074068,66.0,18.333333333333332,15.5,0.0,66.0,0.022486148147687072,0.03135857329248189,0.045284402141248896,0.06622652945850693,0.08308965816601283,12.220814809444645,1650.0,18.523498907252023
137,2011-06-15,STORE_2_681,7.0,0,0,-0.02561208384393188,-0.06566759558013684,0.04005551173620496,0.08886337116302029,,0.045757490560675115,,0.02842192822819294,0.06604669711795062,8.732592592592601,66.0,18.033333333333335,15.0,0.0,66.0,0.022486148147687072,0.030382628993720868,0.04338997804811168,0.06622652945850693,0.08308965816601283,12.163169678550632,1623.0,18.525809727487736
138,2011-06-16,STORE_2_681,10.0,0,0,0.006045960499338674,0.031658044343270554,0.01444342789227308,0.04196450154353602,,0.02645233536528848,,0.03621217265444473,0.05694165751318882,8.65333333333333,66.0,17.822222222222223,15.0,0.0,66.0,0.020988578330630583,0.030382628993720868,0.04196450154353602,0.06622652945850693,0.08308965816601283,12.135543281476084,1604.0,18.528120547723457
139,2011-06-17,STORE_2_681,29.999999999999996,0,0,0.038288612161574344,0.032242651662235666,0.020489388391611754,0.02645233536528848,,0.03233451759124291,,0.05138557556910121,0.12019230158383826,8.173333333333332,53.0,17.42222222222222,15.0,0.0,53.0,0.020988578330630583,0.030382628993720868,0.04196450154353602,0.06115062015142988,0.07626471729816543,11.076828509898618,1568.0,18.53043136795917
140,2011-06-18,STORE_2_681,29.0,0,0,-0.0018363430399972805,-0.040124955201571624,0.0587780005531861,0.022486148147687072,,0.030382628993720868,,0.0,0.0587780005531861,8.159999999999995,53.0,17.41111111111111,15.0,0.0,53.0,0.020988578330630583,0.030382628993720868,0.04196450154353602,0.06115062015142988,0.07626471729816543,11.064564801978365,1567.0,18.532742188194884
141,2011-06-19,STORE_2_681,27.0,0,0,-0.00369614555996374,-0.0018598025199664595,0.05694165751318882,0.03233451759124291,,0.04386513688297023,,0.0,0.016468114458687573,8.1995061728395,53.0,17.622222222222224,15.0,0.0,53.0,0.022486148147687072,0.030382628993720868,0.04338997804811168,0.06115062015142988,0.07626471729816543,11.064243225467777,1586.0,18.535053008430605
142,2011-06-20,STORE_2_681,14.0,0,0,-0.024823583725032138,-0.0211274381650684,0.05324551195322508,0.038138093690483155,,0.03233451759124291,,0.0,0.020489388391611754,8.162962962962968,53.0,17.666666666666668,15.0,0.0,53.0,0.022486148147687072,0.030382628993720868,0.04338997804811168,0.06115062015142988,0.07626471729816543,11.041291245119412,1590.0,18.53736382866632
143,2011-06-21,STORE_2_681,20.0,0,0,0.01163358350801202,0.03645716723304416,0.02842192822819294,0.02842192822819294,,0.02447376938320058,,0.04005551173620496,0.03621217265444473,8.189135802469135,53.0,17.68888888888889,15.0,0.0,53.0,0.022486148147687072,0.030382628993720868,0.04338997804811168,0.06115062015142988,0.07626471729816543,11.043981984655863,1592.0,18.539674648902032
144,2011-06-22,STORE_2_681,3.0,0,0,-0.03380656245920345,-0.045440145967215476,0.04005551173620496,0.02842192822819294,,0.030382628993720868,,0.01444342789227308,0.045757490560675115,8.248888888888883,53.0,17.466666666666665,15.0,0.0,53.0,0.022486148147687072,0.030382628993720868,0.04196450154353602,0.06115062015142988,0.07626471729816543,11.136739482098646,1572.0,18.541985469137746
145,2011-06-23,STORE_2_681,15.0,0,0,0.024133679716719356,0.05794024217592281,0.006248949277001511,0.03621217265444473,,0.03621217265444473,,0.020489388391611754,0.08022900163881858,7.937037037037041,53.0,17.166666666666668,15.0,0.0,53.0,0.022486148147687072,0.030382628993720868,0.04148725409170326,0.05896086165782692,0.07061688214862391,10.827814785713128,1545.0,18.544296289373467
146,2011-06-24,STORE_2_681,16.0,0,0,0.001951888597522041,-0.022181791119197315,0.030382628993720868,0.05138557556910121,,0.038138093690483155,,0.0587780005531861,0.09900300251390022,7.456790123456785,52.0,16.755555555555556,15.0,0.0,52.0,0.022486148147687072,0.030382628993720868,0.04005551173620496,0.05712529181718856,0.06883001971334801,10.132061816539723,1508.0,18.54660710960918
147,2011-06-25,STORE_2_681,16.0,0,0,0.0,-0.001951888597522041,0.03233451759124291,0.0,,0.004175940654136249,,0.05694165751318882,0.06963592814139444,7.197037037037043,52.0,16.533333333333335,15.0,0.0,52.0,0.022486148147687072,0.030382628993720868,0.04005551173620496,0.05694165751318882,0.06703577499101021,9.922395506341687,1488.0,18.548917929844894
148,2011-06-26,STORE_2_681,20.999999999999996,0,0,0.009629983952293114,0.009629983952293114,0.03233451759124291,0.0,,0.02842192822819294,,0.05324551195322508,0.04951763943398191,7.141728395061725,52.0,16.488888888888887,15.0,0.0,52.0,0.022486148147687072,0.030382628993720868,0.04005551173620496,0.05694165751318882,0.06703577499101021,9.89296020778962,1484.0,18.551228750080615
149,2011-06-27,STORE_2_681,13.000000000000004,0,0,-0.015512166178247543,-0.025142150130540657,0.04196450154353602,0.0,,0.01444342789227308,,0.02842192822819294,0.02842192822819294,7.150123456790122,52.0,16.477777777777778,15.0,0.0,52.0,0.022486148147687072,0.030382628993720868,0.04005551173620496,0.05694165751318882,0.06703577499101021,9.896347956261984,1483.0,18.553539570316328
150,2011-06-28,STORE_2_681,4.0,0,0,-0.018140225524513574,-0.0026280593462660318,0.02645233536528848,0.04005551173620496,,0.022486148147687072,,0.04005551173620496,0.04196450154353602,7.188148148148149,52.0,16.288888888888888,15.0,0.0,52.0,0.020988578330630583,0.030382628993720868,0.039576157224774505,0.05694165751318882,0.06703577499101021,9.971019179134181,1466.0,18.55585039055204
151,2011-06-29,STORE_2_681,5.0,0,0,0.0020534056310587794,0.020193631155572354,0.008312109840774906,0.01444342789227308,,0.03621217265444473,,0.006248949277001511,0.05694165751318882,7.095308641975311,52.0,16.022222222222222,15.0,0.0,52.0,0.020489388391611754,0.030382628993720868,0.038138093690483155,0.05694165751318882,0.06703577499101021,9.94815524401641,1442.0,18.558161210787755
152,2011-06-30,STORE_2_681,7.0,0,0,0.004077912420439395,0.0020245067893806153,0.010365515471833685,0.020489388391611754,,0.01444342789227308,,0.030382628993720868,0.08543019532462633,6.813333333333335,52.0,15.6,15.0,0.0,52.0,0.020489388391611754,0.030382628993720868,0.038138093690483155,0.05528193088465556,0.06359865863469022,9.500798310632947,1404.0,18.560472031023476
153,2011-07-01,STORE_2_681,29.0,0,0,0.042498229620915734,0.03842031720047634,0.01444342789227308,0.0587780005531861,,0.08886337116302029,,0.03233451759124291,0.09732941862433406,6.523703703703703,47.0,15.344444444444445,15.0,0.0,47.0,0.020489388391611754,0.030382628993720868,0.038138093690483155,0.05528193088465556,0.059783736628710546,8.793717255577196,1381.0,18.56278285125919
154,2011-07-02,STORE_2_681,20.999999999999996,0,0,-0.014977155969652794,-0.05747538559056853,0.05694165751318882,0.05694165751318882,,0.04196450154353602,,0.03233451759124291,0.05138557556910121,6.460740740740741,47.0,15.28888888888889,15.0,0.0,47.0,0.020489388391611754,0.030382628993720868,0.038138093690483155,0.05528193088465556,0.059783736628710546,8.741280656494535,1376.0,18.565093671494903
155,2011-07-03,STORE_2_681,25.0,0,0,0.007553137890445885,0.02253029386009868,0.04196450154353602,0.05324551195322508,,0.02645233536528848,,0.04196450154353602,0.03427767287724505,6.561481481481481,47.0,15.377777777777778,15.0,0.0,47.0,0.020489388391611754,0.030382628993720868,0.038138093690483155,0.05528193088465556,0.059783736628710546,8.799358732735346,1384.0,18.567404491730624
156,2011-07-04,STORE_2_681,14.0,1,0,-0.02109571120578897,-0.028648849096234854,0.04951763943398191,0.02842192822819294,,0.022486148147687072,,0.02645233536528848,0.02645233536528848,6.551851851851855,47.0,15.38888888888889,15.0,0.0,47.0,0.020489388391611754,0.030382628993720868,0.038138093690483155,0.05528193088465556,0.059783736628710546,8.796953564160011,1385.0,18.569715311966338
157,2011-07-05,STORE_2_681,10.0,0,0,-0.007932539836581185,0.013163171369207784,0.02842192822819294,0.04005551173620496,,0.03233451759124291,,0.008312109840774906,0.016468114458687573,6.532592592592592,47.0,15.411111111111111,15.0,0.0,47.0,0.020489388391611754,0.030382628993720868,0.038138093690483155,0.05528193088465556,0.059783736628710546,8.780589476826105,1387.0,18.57202613220205
158,2011-07-06,STORE_2_681,11.0,0,0,0.0019967597560753177,0.009929299592656503,0.020489388391611754,0.006248949277001511,,0.038138093690483155,,0.010365515471833685,0.022486148147687072,6.532592592592591,47.0,15.411111111111111,15.0,0.0,47.0,0.020489388391611754,0.030382628993720868,0.038138093690483155,0.05528193088465556,0.059783736628710546,8.780589476826105,1387.0,18.574336952437765
159,2011-07-07,STORE_2_681,14.0,0,0,0.0059357800805058675,0.00393902032443055,0.022486148147687072,0.030382628993720868,,0.02842192822819294,,0.01444342789227308,0.03621217265444473,6.512592592592593,47.0,15.366666666666667,14.5,0.0,47.0,0.020489388391611754,0.029402278610956904,0.038138093690483155,0.05528193088465556,0.059783736628710546,8.777460921286925,1383.0,18.576647772673486
160,2011-07-08,STORE_2_681,24.0,0,0,0.019219706207033605,0.013283926126527738,0.02842192822819294,0.03233451759124291,,0.02842192822819294,,0.05694165751318882,0.05509751681481851,6.461234567901231,47.0,15.322222222222223,14.5,0.0,47.0,0.020489388391611754,0.029402278610956904,0.038138093690483155,0.053615126509221483,0.059783736628710546,8.722729932661696,1379.0,18.5789585929092
161,2011-07-09,STORE_2_681,17.0,0,0,-0.013363961557981495,-0.032583667765015104,0.047641634435226544,0.03233451759124291,,0.03621217265444473,,0.04196450154353602,0.03233451759124291,6.474074074074075,47.0,15.333333333333334,14.5,0.0,47.0,0.020489388391611754,0.029402278610956904,0.038138093690483155,0.053615126509221483,0.059783736628710546,8.724239769204065,1380.0,18.581269413144913
162,2011-07-10,STORE_2_681,29.999999999999996,0,0,0.02450032767594105,0.03786428923392254,0.03427767287724505,0.04196450154353602,,0.05138557556910121,,0.04951763943398191,0.0,6.511111111111111,47.0,15.666666666666666,15.0,0.0,47.0,0.020489388391611754,0.030382628993720868,0.039576157224774505,0.05694165751318882,0.059783736628710546,8.704899821300437,1410.0,18.583580233380633
163,2011-07-11,STORE_2_681,16.0,0,0,-0.02644348296194319,-0.05094381063788424,0.0587780005531861,0.02645233536528848,,0.0,,0.02842192822819294,0.03621217265444473,6.485925925925923,47.0,15.644444444444444,15.0,0.0,47.0,0.020489388391611754,0.030382628993720868,0.039576157224774505,0.05694165751318882,0.059783736628710546,8.701428413166608,1408.0,18.585891053616347
164,2011-07-12,STORE_2_681,14.0,0,0,-0.00391258936304997,0.02253089359889322,0.03233451759124291,0.008312109840774906,,0.0,,0.020489388391611754,0.030382628993720868,6.495555555555555,47.0,15.633333333333333,14.5,0.0,47.0,0.020489388391611754,0.029402278610956904,0.039576157224774505,0.05694165751318882,0.059783736628710546,8.702898910030052,1407.0,18.58820187385206
165,2011-07-13,STORE_2_681,14.0,0,0,0.0,0.00391258936304997,0.02842192822819294,0.010365515471833685,,0.0,,0.022486148147687072,0.018483405694013143,6.447407407407405,47.0,15.688888888888888,14.5,0.0,47.0,0.020988578330630583,0.029402278610956904,0.039576157224774505,0.05694165751318882,0.059783736628710546,8.67599613093045,1412.0,18.590512694087774
166,2011-07-14,STORE_2_681,22.0,0,0,0.015443208654777291,0.015443208654777291,0.02842192822819294,0.01444342789227308,,0.04005551173620496,,0.02842192822819294,0.03233451759124291,6.522962962962962,47.0,15.755555555555556,14.5,0.0,47.0,0.020988578330630583,0.029402278610956904,0.04005551173620496,0.05694165751318882,0.059783736628710546,8.701428413166608,1418.0,18.592823514323495
167,2011-07-15,STORE_2_681,17.0,0,0,-0.009587464005725181,-0.025030672660502472,0.04386513688297023,0.05694165751318882,,0.01444342789227308,,0.047641634435226544,0.02447376938320058,6.501234567901236,47.0,15.811111111111112,15.0,0.0,47.0,0.020988578330630583,0.030382628993720868,0.04005551173620496,0.05694165751318882,0.059783736628710546,8.6931387699098,1423.0,18.59513433455921
168,2011-07-16,STORE_2_681,27.0,0,0,0.018967839075980028,0.02855530308170521,0.03427767287724505,0.04196450154353602,,0.020489388391611754,,0.03427767287724505,0.020489388391611754,6.5777777777777775,47.0,16.0,15.0,0.0,47.0,0.022486148147687072,0.030382628993720868,0.04005551173620496,0.05694165751318882,0.059783736628710546,8.749959871497069,1440.0,18.597445154794922
169,2011-07-17,STORE_2_681,22.0,0,0,-0.009380375070254847,-0.028348214146234875,0.05324551195322508,0.04951763943398191,,0.0587780005531861,,0.0587780005531861,0.018483405694013143,6.598765432098763,47.0,16.144444444444446,15.0,0.0,47.0,0.022486148147687072,0.030382628993720868,0.04148725409170326,0.05694165751318882,0.059783736628710546,8.740402262502686,1453.0,18.599755975030643
170,2011-07-18,STORE_2_681,9.0,0,0,-0.025381731188957087,-0.01600135611870224,0.04386513688297023,0.02842192822819294,,0.05694165751318882,,0.03233451759124291,0.05138557556910121,6.5293827160493825,47.0,15.955555555555556,15.0,0.0,47.0,0.022486148147687072,0.030382628993720868,0.04005551173620496,0.05694165751318882,0.059783736628710546,8.708656562644572,1436.0,18.602066795266357
171,2011-07-19,STORE_2_681,19.0,0,0,0.01965468799647001,0.0450364191854271,0.018483405694013143,0.020489388391611754,,0.05324551195322508,,0.02842192822819294,0.012409257981819969,6.477777777777781,47.0,16.1,15.0,0.0,47.0,0.022486148147687072,0.030382628993720868,0.04005551173620496,0.05694165751318882,0.059783736628710546,8.64928392177934,1449.0,18.60437761550207
172,2011-07-20,STORE_2_681,15.0,0,0,-0.007755464696762287,-0.027410152693232298,0.038138093690483155,0.022486148147687072,,0.02842192822819294,,0.02842192822819294,0.02447376938320058,6.45185185185185,47.0,16.133333333333333,15.0,0.0,47.0,0.022486148147687072,0.030382628993720868,0.04005551173620496,0.05694165751318882,0.059783736628710546,8.639080267318306,1452.0,18.606688435737784
173,2011-07-21,STORE_2_681,40.0,0,0,0.04634397880902709,0.05409944350578938,0.030382628993720868,0.02842192822819294,,0.04005551173620496,,0.04386513688297023,0.030382628993720868,6.759999999999999,47.0,16.41111111111111,15.0,0.0,47.0,0.022486148147687072,0.030382628993720868,0.04148725409170326,0.05694165751318882,0.06359865863469022,8.996746533595509,1477.0,18.608999255973504
174,2011-07-22,STORE_2_681,13.000000000000004,0,0,-0.05027427243745947,-0.09661825124648657,0.07672660780274795,0.047641634435226544,,0.006248949277001511,,0.03427767287724505,0.07141948088181166,6.509876543209875,47.0,16.144444444444446,15.0,0.0,47.0,0.022486148147687072,0.030382628993720868,0.04005551173620496,0.05694165751318882,0.059783736628710546,8.731398990973643,1453.0,18.611310076209218
175,2011-07-23,STORE_2_681,22.999999999999996,0,0,0.019305155195386635,0.06957942763284611,0.02645233536528848,0.03427767287724505,,0.030382628993720868,,0.05324551195322508,0.06784502052351352,6.346913580246912,47.0,16.011111111111113,15.0,0.0,47.0,0.022486148147687072,0.030382628993720868,0.04005551173620496,0.053615126509221483,0.0587780005531861,8.529518400520573,1441.0,18.61362089644493
176,2011-07-24,STORE_2_681,10.0,0,0,-0.02526810216906336,-0.044573257364449996,0.045757490560675115,0.0587780005531861,,0.03233451759124291,,0.04386513688297023,0.016468114458687573,6.329629629629631,47.0,16.033333333333335,15.0,0.0,47.0,0.022486148147687072,0.030382628993720868,0.04005551173620496,0.053615126509221483,0.0587780005531861,8.510997512141884,1443.0,18.615931716680652
177,2011-07-25,STORE_2_681,5.0,0,0,-0.010123872919778069,0.015144229249285292,0.020489388391611754,0.03233451759124291,,0.03233451759124291,,0.018483405694013143,0.02842192822819294,6.417777777777776,47.0,15.933333333333334,15.0,0.0,47.0,0.022486148147687072,0.030382628993720868,0.04005551173620496,0.053615126509221483,0.0587780005531861,8.587683890708925,1434.0,18.618242536916366
178,2011-07-26,STORE_2_681,17.0,0,0,0.023912157405411364,0.03403603032518943,0.010365515471833685,0.02842192822819294,,0.04196450154353602,,0.038138093690483155,0.03233451759124291,6.4296296296296305,47.0,15.944444444444445,15.0,0.0,47.0,0.022486148147687072,0.030382628993720868,0.04005551173620496,0.053615126509221483,0.0587780005531861,8.588418005965565,1435.0,18.62055335715208
179,2011-07-27,STORE_2_681,15.0,0,0,-0.0038950438835241817,-0.027807201288935546,0.03427767287724505,0.02842192822819294,,0.02645233536528848,,0.030382628993720868,0.030382628993720868,6.4296296296296305,47.0,15.944444444444445,15.0,0.0,47.0,0.022486148147687072,0.030382628993720868,0.04005551173620496,0.053615126509221483,0.0587780005531861,8.588418005965565,1435.0,18.622864177387793
180,2011-07-28,STORE_2_681,24.0,0,0,0.017259005441505677,0.02115404932502986,0.030382628993720868,0.04386513688297023,0.02842192822819294,0.008312109840774906,,0.07672660780274795,0.038138093690483155,6.488888888888889,47.0,16.0,15.0,0.0,47.0,0.022486148147687072,0.030382628993720868,0.04148725409170326,0.053615126509221483,0.0587780005531861,8.62450128830126,1440.0,18.625174997623514
181,2011-07-29,STORE_2_681,9.0,0,0,-0.0291582287412134,-0.04641723418271908,0.047641634435226544,0.03427767287724505,0.020489388391611754,0.010365515471833685,,0.02645233536528848,0.022486148147687072,6.509629629629629,47.0,15.977777777777778,15.0,0.0,47.0,0.020988578330630583,0.030382628993720868,0.04148725409170326,0.053615126509221483,0.0587780005531861,8.640091782931368,1438.0,18.627485817859228
182,2011-07-30,STORE_2_681,35.00000000000001,0,0,0.04936161482950037,0.07851984357071377,0.018483405694013143,0.05324551195322508,0.018483405694013143,0.01444342789227308,,0.045757490560675115,0.030382628993720868,6.746666666666669,47.0,16.2,15.0,0.0,47.0,0.020988578330630583,0.030382628993720868,0.04196450154353602,0.05694165751318882,0.059783736628710546,8.868831928460528,1458.0,18.62979663809494
183,2011-07-31,STORE_2_681,28.0,0,0,-0.012747503708695006,-0.062109118538195375,0.06784502052351352,0.04386513688297023,0.010365515471833685,0.05694165751318882,,0.020489388391611754,0.038138093690483155,6.864444444444443,47.0,16.3,15.0,0.0,47.0,0.020988578330630583,0.030382628993720868,0.04196450154353602,0.05694165751318882,0.059783736628710546,8.951115679629684,1467.0,18.632107458330662
184,2011-08-01,STORE_2_681,3.552713678800501e-15,0,0,-0.05509751681481851,-0.042350013106123505,0.05509751681481851,0.018483405694013143,0.012409257981819969,0.04196450154353602,,0.010365515471833685,0.05694165751318882,6.842962962962962,47.0,15.977777777777778,15.0,0.0,47.0,0.020489388391611754,0.030382628993720868,0.04196450154353602,0.05528193088465556,0.059783736628710546,9.010577776157021,1438.0,18.634418278566375
185,2011-08-02,STORE_2_681,6.0,0,0,0.012409257981819969,0.06750677479663848,0.0,0.038138093690483155,0.01444342789227308,0.04951763943398191,,0.03427767287724505,0.010365515471833685,6.832592592592595,47.0,15.988888888888889,15.0,0.0,47.0,0.020489388391611754,0.030382628993720868,0.04196450154353602,0.05528193088465556,0.059783736628710546,8.997495836944312,1439.0,18.63672909880209
186,2011-08-03,STORE_2_681,20.999999999999996,0,0,0.029555243561716054,0.017145985579896085,0.012409257981819969,0.030382628993720868,0.03621217265444473,0.02842192822819294,,0.030382628993720868,0.012409257981819969,6.805432098765434,47.0,16.155555555555555,15.0,0.0,47.0,0.020988578330630583,0.030382628993720868,0.04196450154353602,0.05528193088465556,0.059783736628710546,8.949183769334967,1454.0,18.639039919037803
187,2011-08-04,STORE_2_681,15.0,0,0,-0.011581872549815155,-0.04113711611153121,0.04196450154353602,0.07672660780274795,0.038138093690483155,0.020489388391611754,,0.047641634435226544,0.018483405694013143,6.750617283950614,47.0,16.22222222222222,15.0,0.0,47.0,0.022486148147687072,0.030382628993720868,0.04196450154353602,0.05528193088465556,0.059783736628710546,8.917572322658096,1460.0,18.641350739273523
188,2011-08-05,STORE_2_681,28.0,0,0,0.024714887821097643,0.0362967603709128,0.030382628993720868,0.02645233536528848,0.05138557556910121,0.022486148147687072,,0.018483405694013143,0.02645233536528848,6.8716049382716085,47.0,16.38888888888889,15.0,0.0,47.0,0.022486148147687072,0.030382628993720868,0.04196450154353602,0.05528193088465556,0.059783736628710546,8.996496751944075,1475.0,18.643661559509237
189,2011-08-06,STORE_2_681,27.0,0,0,-0.0018520048615934329,-0.026566892682691075,0.05509751681481851,0.045757490560675115,0.030382628993720868,0.02842192822819294,,0.06784502052351352,0.022486148147687072,6.953333333333337,47.0,16.566666666666666,15.5,0.0,47.0,0.022486148147687072,0.03135857329248189,0.04338997804811168,0.05528193088465556,0.059783736628710546,9.046757442571293,1491.0,18.64597237974495
190,2011-08-07,STORE_2_681,24.0,0,0,-0.005603877517998533,-0.0037518726564051003,0.05324551195322508,0.020489388391611754,0.016468114458687573,0.047641634435226544,,0.05509751681481851,0.018483405694013143,6.970370370370372,47.0,16.733333333333334,16.0,0.0,47.0,0.022486148147687072,0.03233451759124291,0.04386513688297023,0.05528193088465556,0.059783736628710546,9.04396254011295,1506.0,18.64828319998067
191,2011-08-08,STORE_2_681,9.0,0,0,-0.0291582287412134,-0.023554351223214868,0.047641634435226544,0.010365515471833685,0.01444342789227308,0.03427767287724505,,0.0,0.020489388391611754,6.980246913580245,47.0,16.72222222222222,16.0,0.0,47.0,0.022486148147687072,0.03233451759124291,0.04386513688297023,0.05528193088465556,0.059783736628710546,9.052937666829514,1505.0,18.650594020216385
192,2011-08-09,STORE_2_681,14.0,0,0,0.009938522534179796,0.03909675127539319,0.018483405694013143,0.03427767287724505,0.02842192822819294,0.0587780005531861,,0.012409257981819969,0.012409257981819969,6.901234567901237,47.0,16.81111111111111,16.0,0.0,47.0,0.022486148147687072,0.03233451759124291,0.04386513688297023,0.05528193088465556,0.059783736628710546,8.98549948521236,1513.0,18.6529048404521
193,2011-08-10,STORE_2_681,24.0,0,0,0.019219706207033605,0.00928118367285381,0.02842192822819294,0.030382628993720868,0.04196450154353602,0.03233451759124291,,0.04196450154353602,0.022486148147687072,6.929382716049384,47.0,16.955555555555556,16.0,0.0,47.0,0.02298305345656545,0.03233451759124291,0.04386513688297023,0.05528193088465556,0.059783736628710546,8.995518373695074,1526.0,18.655215660687812
194,2011-08-11,STORE_2_681,15.0,0,0,-0.017259005441505677,-0.03647871164853928,0.047641634435226544,0.047641634435226544,0.045757490560675115,0.02842192822819294,,0.030382628993720868,0.06060661159959419,6.77530864197531,47.0,16.77777777777778,16.0,0.0,47.0,0.02298305345656545,0.03233451759124291,0.04386513688297023,0.05509751681481851,0.0587780005531861,8.872097123329567,1510.0,18.657526480923533
195,2011-08-12,STORE_2_681,33.0,0,0,0.0338582672609674,0.05111727270247307,0.030382628993720868,0.018483405694013143,0.045757490560675115,0.02842192822819294,,0.05509751681481851,0.06604669711795062,6.762962962962961,47.0,16.766666666666666,16.0,0.0,47.0,0.02298305345656545,0.03233451759124291,0.04386513688297023,0.05509751681481851,0.0587780005531861,8.850887088150602,1509.0,18.659837301159246
196,2011-08-13,STORE_2_681,32.0,0,0,-0.0018133407634683407,-0.03567160802443574,0.06424089625468826,0.06784502052351352,0.02447376938320058,0.04386513688297023,,0.05324551195322508,0.04005551173620496,6.911111111111109,47.0,16.9,16.0,0.0,47.0,0.02298305345656545,0.03233451759124291,0.04386513688297023,0.05528193088465556,0.06078525576910469,8.989444496716724,1521.0,18.66214812139496
197,2011-08-14,STORE_2_681,19.0,0,0,-0.024289461800736767,-0.022476121037268426,0.06242755549121992,0.05509751681481851,0.008312109840774906,0.03427767287724505,,0.047641634435226544,0.045757490560675115,6.861728395061732,47.0,16.855555555555554,16.0,0.0,47.0,0.02298305345656545,0.03233451759124291,0.04386513688297023,0.05528193088465556,0.06078525576910469,8.968811266304293,1517.0,18.66445894163068
198,2011-08-15,STORE_2_681,3.552713678800501e-15,0,0,-0.038138093690483155,-0.013848631889746388,0.038138093690483155,0.0,0.018483405694013143,0.05324551195322508,,0.018483405694013143,0.02645233536528848,6.990123456790124,47.0,16.711111111111112,16.0,0.0,47.0,0.022486148147687072,0.03233451759124291,0.04386513688297023,0.05528193088465556,0.06078525576910469,9.134752070022152,1504.0,18.666769761866394
199,2011-08-16,STORE_2_681,8.0,0,0,0.016468114458687573,0.05460620814917073,0.0,0.012409257981819969,0.02842192822819294,0.04386513688297023,,0.02842192822819294,0.03233451759124291,7.0691358024691375,47.0,16.622222222222224,15.5,0.0,47.0,0.022486148147687072,0.03135857329248189,0.04386513688297023,0.05528193088465556,0.06078525576910469,9.180558081709163,1496.0,18.669080582102108
200,2011-08-17,STORE_2_681,25.0,0,0,0.033049524975294335,0.016581410516606762,0.016468114458687573,0.04196450154353602,0.03427767287724505,0.018483405694013143,,0.047641634435226544,0.030382628993720868,7.154074074074075,47.0,16.733333333333334,16.0,0.0,47.0,0.022486148147687072,0.03233451759124291,0.04386513688297023,0.05528193088465556,0.06078525576910469,9.221128644756348,1506.0,18.67139140233782
201,2011-08-18,STORE_2_681,17.0,0,0,-0.015239966556736859,-0.048289491532031194,0.04951763943398191,0.030382628993720868,0.02842192822819294,0.038138093690483155,,0.030382628993720868,0.04386513688297023,7.093580246913584,47.0,16.677777777777777,16.0,0.0,47.0,0.022486148147687072,0.03233451759124291,0.04386513688297023,0.05528193088465556,0.06078525576910469,9.204087731073537,1501.0,18.673702222573542
202,2011-08-19,STORE_2_681,53.999999999999986,0,0,0.06639248900411814,0.081632455560855,0.03427767287724505,0.05509751681481851,0.038138093690483155,0.030382628993720868,,0.06424089625468826,0.03233451759124291,7.537777777777781,54.0,17.1,16.0,0.0,54.0,0.022486148147687072,0.03233451759124291,0.045284402141248896,0.05694165751318882,0.0634248929111275,10.00904085696549,1539.0,18.676013042809256
203,2011-08-20,STORE_2_681,34.0,0,0,-0.03462346476341256,-0.1010159537675307,0.10067016188136318,0.05324551195322508,0.045757490560675115,0.07672660780274795,,0.06242755549121992,0.02447376938320058,7.70148148148148,54.0,17.344444444444445,16.0,0.0,54.0,0.022486148147687072,0.03233451759124291,0.047170598466588685,0.05712529181718856,0.06523408672948255,10.15073043379517,1561.0,18.67832386304497
204,2011-08-21,STORE_2_681,13.000000000000004,0,0,-0.03959436175266214,-0.0049708969892495805,0.06604669711795062,0.047641634435226544,0.030382628993720868,0.02645233536528848,,0.038138093690483155,0.030382628993720868,7.720740740740737,54.0,17.322222222222223,16.0,0.0,54.0,0.022486148147687072,0.03233451759124291,0.047170598466588685,0.05712529181718856,0.06523408672948255,10.158107159981034,1559.0,18.68063468328069
205,2011-08-22,STORE_2_681,15.0,0,0,0.003930293628432387,0.043524655381094526,0.02645233536528848,0.018483405694013143,0.04386513688297023,0.045757490560675115,,0.0,0.03621217265444473,7.733827160493828,54.0,17.288888888888888,16.0,0.0,54.0,0.022486148147687072,0.03233451759124291,0.047170598466588685,0.05712529181718856,0.06523408672948255,10.160779900665245,1556.0,18.682945503516404
206,2011-08-23,STORE_2_681,10.0,0,0,-0.009893240602109114,-0.013823534230541501,0.030382628993720868,0.02842192822819294,0.02447376938320058,0.020489388391611754,,0.016468114458687573,0.038138093690483155,7.778024691358021,54.0,17.18888888888889,15.5,0.0,54.0,0.020988578330630583,0.03135857329248189,0.047170598466588685,0.05712529181718856,0.06523408672948255,10.188001804771751,1547.0,18.685256323752117
207,2011-08-24,STORE_2_681,14.0,0,0,0.007932539836581185,0.0178257804386903,0.020489388391611754,0.047641634435226544,0.03621217265444473,0.010365515471833685,,0.04951763943398191,0.004175940654136249,7.66839506172839,54.0,17.322222222222223,15.5,0.0,54.0,0.022486148147687072,0.03135857329248189,0.047170598466588685,0.05712529181718856,0.06523408672948255,10.064765303981,1559.0,18.68756714398783
208,2011-08-25,STORE_2_681,17.0,0,0,0.00585574464905211,-0.002076795187529075,0.02842192822819294,0.030382628993720868,0.02842192822819294,0.03427767287724505,,0.03427767287724505,0.02842192822819294,7.64098765432099,54.0,17.355555555555554,16.0,0.0,54.0,0.022486148147687072,0.03233451759124291,0.047170598466588685,0.05712529181718856,0.06523408672948255,10.058604803190477,1562.0,18.68987796422355
209,2011-08-26,STORE_2_681,36.000000000000014,0,0,0.03535825526414939,0.029502510615097278,0.03427767287724505,0.06424089625468826,0.04005551173620496,0.030382628993720868,,0.10067016188136318,0.01444342789227308,7.783209876543214,54.0,17.677777777777777,16.0,0.0,54.0,0.022486148147687072,0.03233451759124291,0.047641634435226544,0.0587780005531861,0.06703577499101021,10.186825351235745,1591.0,18.692188784459265
210,2011-08-27,STORE_2_681,32.0,0,0,-0.007208372650174516,-0.042566627914323904,0.06963592814139444,0.06242755549121992,0.020489388391611754,0.047641634435226544,,0.06604669711795062,0.022486148147687072,7.899259259259258,54.0,17.91111111111111,16.0,0.0,54.0,0.023477694952087423,0.03233451759124291,0.047641634435226544,0.05914295604698951,0.06703577499101021,10.272297692101612,1612.0,18.69449960469498
211,2011-08-28,STORE_2_681,5.0,0,0,-0.05206204001938623,-0.04485366736921172,0.06242755549121992,0.038138093690483155,0.004175940654136249,0.018483405694013143,,0.02645233536528848,0.03621217265444473,8.019259259259258,54.0,17.766666666666666,16.0,0.0,54.0,0.022486148147687072,0.03233451759124291,0.047641634435226544,0.05914295604698951,0.06703577499101021,10.36204179263718,1599.0,18.6968104249307
212,2011-08-29,STORE_2_681,15.0,0,0,0.020017113521887182,0.07207915354127342,0.010365515471833685,0.0,0.020489388391611754,0.06784502052351352,,0.030382628993720868,0.01444342789227308,7.944197530864201,54.0,17.855555555555554,16.0,0.0,54.0,0.023477694952087423,0.03233451759124291,0.047641634435226544,0.05914295604698951,0.06703577499101021,10.302788006123688,1607.0,18.699121245166413
213,2011-08-30,STORE_2_681,16.0,0,0,0.001951888597522041,-0.01806522492436514,0.030382628993720868,0.016468114458687573,0.04386513688297023,0.05509751681481851,,0.020489388391611754,0.08886337116302029,7.579753086419751,54.0,17.511111111111113,16.0,0.0,54.0,0.023477694952087423,0.03233451759124291,0.047641634435226544,0.0587780005531861,0.06523408672948255,9.824578722070852,1576.0,18.701432065402127
214,2011-08-31,STORE_2_681,20.0,0,0,0.007720994144962051,0.00576910554744001,0.03233451759124291,0.04951763943398191,0.08022900163881858,0.0,,0.02842192822819294,0.04196450154353602,7.566666666666666,54.0,17.5,16.0,0.0,54.0,0.023477694952087423,0.03233451759124291,0.047641634435226544,0.0587780005531861,0.06523408672948255,9.821153505560092,1575.0,18.70374288563784
215,2011-09-01,STORE_2_681,10.0,0,0,-0.019566123344593206,-0.027287117489555257,0.04005551173620496,0.03427767287724505,0.09732941862433406,0.012409257981819969,,0.03427767287724505,0.02645233536528848,7.594074074074074,54.0,17.466666666666665,16.0,0.0,54.0,0.022486148147687072,0.03233451759124291,0.047641634435226544,0.0587780005531861,0.06523408672948255,9.841667895549621,1572.0,18.70605370587356
216,2011-09-02,STORE_2_681,35.00000000000001,0,0,0.04735563213190176,0.06692175547649497,0.020489388391611754,0.10067016188136318,0.10727552847989008,0.04196450154353602,,0.06963592814139444,0.022486148147687072,7.758518518518519,54.0,17.733333333333334,16.0,0.0,54.0,0.023477694952087423,0.03233451759124291,0.047641634435226544,0.05914295604698951,0.06703577499101021,9.988532750952661,1596.0,18.708364526109275
217,2011-09-03,STORE_2_681,25.0,0,0,-0.018327381089531608,-0.06568301322143337,0.06784502052351352,0.06604669711795062,0.06963592814139444,0.030382628993720868,,0.06242755549121992,0.03233451759124291,7.833333333333335,54.0,17.833333333333332,16.0,0.0,54.0,0.023477694952087423,0.03233451759124291,0.047641634435226544,0.05914295604698951,0.06703577499101021,10.015998438453408,1605.0,18.71067534634499
218,2011-09-04,STORE_2_681,8.0,0,0,-0.033049524975294335,-0.014722143885762727,0.04951763943398191,0.02645233536528848,0.08543019532462633,0.05509751681481851,,0.010365515471833685,0.038138093690483155,7.910617283950617,54.0,17.711111111111112,16.0,0.0,54.0,0.020988578330630583,0.03233451759124291,0.047641634435226544,0.05914295604698951,0.06703577499101021,10.068578829727509,1594.0,18.71298616658071
219,2011-09-05,STORE_2_681,3.552713678800501e-15,1,0,-0.016468114458687573,0.016581410516606762,0.016468114458687573,0.030382628993720868,0.07141948088181166,0.05324551195322508,,0.030382628993720868,0.02842192822819294,8.041975308641973,54.0,17.555555555555557,16.0,0.0,54.0,0.020489388391611754,0.03233451759124291,0.047641634435226544,0.05914295604698951,0.06703577499101021,10.23335712278707,1580.0,18.715296986816423
220,2011-09-06,STORE_2_681,3.552713678800501e-15,0,0,0.0,0.016468114458687573,0.0,0.020489388391611754,0.06963592814139444,0.047641634435226544,,0.03233451759124291,0.02842192822819294,8.17333333333333,54.0,17.4,16.0,0.0,54.0,0.020489388391611754,0.03233451759124291,0.047641634435226544,0.05914295604698951,0.06703577499101021,10.393169753645418,1566.0,18.717607807052136
221,2011-09-07,STORE_2_681,19.0,0,0,0.038138093690483155,0.038138093690483155,0.0,0.02842192822819294,0.1056335814129133,0.018483405694013143,,0.04005551173620496,0.03621217265444473,8.186172839506174,54.0,17.41111111111111,16.0,0.0,54.0,0.020489388391611754,0.03233451759124291,0.047641634435226544,0.05914295604698951,0.06703577499101021,10.394352879581701,1567.0,18.71991862728785
222,2011-09-08,STORE_2_681,20.999999999999996,0,0,0.0038264078530528683,-0.034311685837430286,0.038138093690483155,0.03427767287724505,0.14642765244203831,0.02842192822819294,,0.020489388391611754,0.05138557556910121,8.121975308641979,54.0,17.355555555555554,16.0,0.0,54.0,0.020489388391611754,0.03233451759124291,0.047641634435226544,0.05914295604698951,0.06703577499101021,10.361240556403724,1562.0,18.72222944752357
223,2011-09-09,STORE_2_681,18.0,0,0,-0.005752328889091295,-0.009578736742144163,0.04196450154353602,0.06963592814139444,0.10727552847989008,0.047641634435226544,,0.06784502052351352,0.0,7.962962962962961,54.0,17.555555555555557,16.0,0.0,54.0,0.020489388391611754,0.03233451759124291,0.047641634435226544,0.05914295604698951,0.06703577499101021,10.194855621761608,1580.0,18.724540267759284
224,2011-09-10,STORE_2_681,16.0,0,0,-0.0038776550632018195,0.0018746738258894752,0.03621217265444473,0.06242755549121992,0.0784813353692985,0.030382628993720868,,0.04951763943398191,0.0,7.808888888888891,54.0,17.733333333333334,16.0,0.0,54.0,0.020988578330630583,0.03233451759124291,0.047641634435226544,0.05914295604698951,0.06703577499101021,10.023343540472766,1596.0,18.726851087994998
225,2011-09-11,STORE_2_681,12.0,0,0,-0.00786074820804233,-0.003983093144840511,0.03233451759124291,0.010365515471833685,0.06060661159959419,0.06424089625468826,,0.016468114458687573,0.0,7.693333333333334,54.0,17.866666666666667,16.0,0.0,54.0,0.02298305345656545,0.03233451759124291,0.047641634435226544,0.05914295604698951,0.06703577499101021,9.863335807850556,1608.0,18.72916190823072
226,2011-09-12,STORE_2_681,9.0,0,0,-0.005990363689187435,0.0018703845188548958,0.02447376938320058,0.030382628993720868,0.05694165751318882,0.06242755549121992,,0.0,0.04005551173620496,7.749135802469133,54.0,17.744444444444444,16.0,0.0,54.0,0.020988578330630583,0.03233451759124291,0.047641634435226544,0.05914295604698951,0.06703577499101021,9.904670457864885,1597.0,18.731472728466432
227,2011-09-13,STORE_2_681,22.0,0,0,0.025381731188957087,0.03137209487814452,0.018483405694013143,0.03233451759124291,0.06604669711795062,0.038138093690483155,,0.0,0.01444342789227308,7.699259259259261,54.0,17.91111111111111,16.0,0.0,54.0,0.02298305345656545,0.03233451759124291,0.047641634435226544,0.05914295604698951,0.06703577499101021,9.84788170280591,1612.0,18.733783548702146
228,2011-09-14,STORE_2_681,12.0,0,0,-0.019391367499769652,-0.04477309868872674,0.04386513688297023,0.04005551173620496,0.05694165751318882,0.0,,0.038138093690483155,0.020489388391611754,7.679999999999997,54.0,17.933333333333334,16.0,0.0,54.0,0.02447376938320058,0.03233451759124291,0.047641634435226544,0.05914295604698951,0.06703577499101021,9.832073175142073,1614.0,18.73609436893786
229,2011-09-15,STORE_2_681,24.0,0,0,0.023167865052025966,0.04255923255179562,0.02447376938320058,0.020489388391611754,0.12019230158383826,0.016468114458687573,,0.04196450154353602,0.0587780005531861,7.604444444444446,54.0,17.866666666666667,16.0,0.0,54.0,0.02447376938320058,0.03233451759124291,0.047641634435226544,0.05914295604698951,0.06703577499101021,9.76947780739654,1608.0,18.73840518917358
230,2011-09-16,STORE_2_681,17.0,0,0,-0.013363961557981495,-0.036531826610007465,0.047641634435226544,0.06784502052351352,0.0587780005531861,0.04951763943398191,,0.03621217265444473,0.05694165751318882,7.469629629629632,54.0,17.733333333333334,16.0,0.0,54.0,0.02447376938320058,0.03233451759124291,0.047641634435226544,0.05914295604698951,0.06703577499101021,9.697445510968455,1596.0,18.740716009409294
231,2011-09-17,STORE_2_681,35.00000000000001,0,0,0.03356734764626847,0.04693130920424996,0.03427767287724505,0.04951763943398191,0.016468114458687573,0.03427767287724505,,0.03233451759124291,0.05324551195322508,7.572345679012343,54.0,17.822222222222223,16.0,0.0,54.0,0.02447376938320058,0.03233451759124291,0.047641634435226544,0.06242755549121992,0.06784502052351352,9.819240202393955,1604.0,18.743026829645007
232,2011-09-18,STORE_2_681,51.0,0,0,0.027804339982798867,-0.005763007663469599,0.06784502052351352,0.016468114458687573,0.020489388391611754,0.10067016188136318,,0.02447376938320058,0.02842192822819294,7.958518518518521,54.0,18.233333333333334,16.5,0.0,54.0,0.02447376938320058,0.03330609523424398,0.047641634435226544,0.06260888956756677,0.06784502052351352,10.413959947961812,1641.0,18.745337649880728
233,2011-09-19,STORE_2_681,18.0,0,0,-0.059437187851867655,-0.08724152783466652,0.09564936050631238,0.0,0.03621217265444473,0.06604669711795062,,0.018483405694013143,0.04005551173620496,7.93753086419753,54.0,18.211111111111112,16.5,0.0,54.0,0.02447376938320058,0.03330609523424398,0.047641634435226544,0.06260888956756677,0.06784502052351352,10.412281473967825,1639.0,18.74764847011644
234,2011-09-20,STORE_2_681,22.0,0,0,0.007652964228525502,0.06709015208039315,0.03621217265444473,0.0,0.045757490560675115,0.02645233536528848,,0.04386513688297023,0.006248949277001511,7.843456790123456,54.0,18.42222222222222,17.0,0.0,54.0,0.024968410878722553,0.03427767287724505,0.047641634435226544,0.06260888956756677,0.06784502052351352,10.292331363392972,1658.0,18.749959290352155
235,2011-09-21,STORE_2_681,22.0,0,0,0.0,-0.007652964228525502,0.04386513688297023,0.038138093690483155,0.08022900163881858,0.030382628993720868,,0.02447376938320058,0.030382628993720868,7.855555555555555,54.0,18.5,17.0,0.0,54.0,0.024968410878722553,0.03427767287724505,0.047641634435226544,0.06260888956756677,0.06784502052351352,10.292628539260077,1665.0,18.75227011058787
236,2011-09-22,STORE_2_681,29.999999999999996,0,0,0.014912863670215867,0.014912863670215867,0.04386513688297023,0.04196450154353602,0.09900300251390022,0.020489388391611754,,0.047641634435226544,0.03233451759124291,7.972839506172841,54.0,18.655555555555555,17.0,0.0,54.0,0.024968410878722553,0.03427767287724505,0.047641634435226544,0.06260888956756677,0.06784502052351352,10.359993396283429,1679.0,18.75458093082359
237,2011-09-23,STORE_2_681,32.0,0,0,0.0036495549380338235,-0.011263308732182044,0.0587780005531861,0.03621217265444473,0.06963592814139444,0.02842192822819294,,0.03427767287724505,0.03233451759124291,8.107407407407411,54.0,18.833333333333332,17.0,0.0,54.0,0.024968410878722553,0.03427767287724505,0.047641634435226544,0.06260888956756677,0.06784502052351352,10.450794281947928,1695.0,18.756891751059303
238,2011-09-24,STORE_2_681,32.0,0,0,0.0,-0.0036495549380338235,0.06242755549121992,0.03233451759124291,0.04951763943398191,0.03427767287724505,,0.06784502052351352,0.04196450154353602,8.24049382716049,54.0,18.955555555555556,17.0,0.0,54.0,0.024968410878722553,0.03427767287724505,0.049048638184293065,0.06260888956756677,0.06784502052351352,10.540357019208814,1706.0,18.759202571295017
239,2011-09-25,STORE_2_681,3.552713678800501e-15,0,0,-0.06242755549121992,-0.06242755549121992,0.06242755549121992,0.02447376938320058,0.02842192822819294,0.06963592814139444,,0.09564936050631238,0.02645233536528848,8.372098765432101,54.0,18.81111111111111,17.0,0.0,54.0,0.02447376938320058,0.03427767287724505,0.049048638184293065,0.06260888956756677,0.06784502052351352,10.710589577079277,1693.0,18.761513391530737
240,2011-09-26,STORE_2_681,15.0,0,0,0.030382628993720868,0.09281018448494079,0.0,0.018483405694013143,0.04196450154353602,0.06242755549121992,,0.03621217265444473,0.008312109840774906,8.260740740740736,54.0,18.933333333333334,17.0,0.0,54.0,0.024968410878722553,0.03427767287724505,0.049048638184293065,0.06260888956756677,0.06784502052351352,10.601886624558857,1704.0,18.76382421176645
241,2011-09-27,STORE_2_681,12.0,0,0,-0.0059088596105202895,-0.036291488604241154,0.030382628993720868,0.04386513688297023,0.05694165751318882,0.010365515471833685,,0.04386513688297023,0.010365515471833685,8.190617283950616,54.0,19.011111111111113,17.0,0.0,54.0,0.024968410878722553,0.03427767287724505,0.049048638184293065,0.06260888956756677,0.06784502052351352,10.523910116720826,1711.0,18.766135032002165
242,2011-09-28,STORE_2_681,20.999999999999996,0,0,0.017490732160335445,0.023399591770855734,0.02447376938320058,0.02447376938320058,0.08543019532462633,0.030382628993720868,,0.04386513688297023,0.01444342789227308,8.099999999999998,54.0,19.166666666666668,17.0,0.0,54.0,0.02645233536528848,0.03427767287724505,0.049048638184293065,0.06260888956756677,0.06784502052351352,10.447568396199113,1725.0,18.76844585223788
243,2011-09-29,STORE_2_681,29.999999999999996,0,0,0.016813499009650075,-0.0006772331506853697,0.04196450154353602,0.047641634435226544,0.09732941862433406,0.03233451759124291,,0.0587780005531861,0.05694165751318882,8.112592592592597,54.0,19.177777777777777,17.0,0.0,54.0,0.02645233536528848,0.03427767287724505,0.049048638184293065,0.06260888956756677,0.06784502052351352,10.458669623194966,1726.0,18.7707566724736
244,2011-09-30,STORE_2_681,4.0,0,0,-0.05046589071241119,-0.06727938972206127,0.0587780005531861,0.03427767287724505,0.05138557556910121,0.04005551173620496,,0.06242755549121992,0.04196450154353602,8.232345679012349,54.0,18.988888888888887,17.0,0.0,54.0,0.024968410878722553,0.03427767287724505,0.049048638184293065,0.06260888956756677,0.06784502052351352,10.578220623552399,1709.0,18.773067492709313
245,2011-10-01,STORE_2_681,33.0,0,0,0.055928786413913356,0.10639467712632455,0.008312109840774906,0.06784502052351352,0.03427767287724505,0.020489388391611754,,0.06242755549121992,0.04951763943398191,8.334320987654321,54.0,19.07777777777778,17.0,0.0,54.0,0.024968410878722553,0.03427767287724505,0.049048638184293065,0.06424089625468826,0.06784502052351352,10.6625752921222,1717.0,18.775378312945026
246,2011-10-02,STORE_2_681,13.000000000000004,0,0,-0.03778856088939978,-0.09371734730331313,0.06424089625468826,0.09564936050631238,0.02645233536528848,0.06784502052351352,,0.0,0.02842192822819294,8.343703703703707,54.0,19.066666666666666,17.0,0.0,54.0,0.024968410878722553,0.03427767287724505,0.049048638184293065,0.06424089625468826,0.06784502052351352,10.668445544552338,1716.0,18.777689133180747
247,2011-10-03,STORE_2_681,16.0,0,0,0.0058821822259544285,0.04367074311535421,0.02645233536528848,0.03621217265444473,0.016468114458687573,0.04951763943398191,,0.030382628993720868,0.020489388391611754,8.287407407407406,54.0,19.133333333333333,17.0,0.0,54.0,0.02645233536528848,0.03427767287724505,0.049048638184293065,0.06424089625468826,0.06784502052351352,10.629828711083087,1722.0,18.77999995341646
248,2011-10-04,STORE_2_681,3.552713678800501e-15,0,0,-0.03233451759124291,-0.03821669981719734,0.03233451759124291,0.04386513688297023,0.022486148147687072,0.016468114458687573,,0.02447376938320058,0.022486148147687072,8.390617283950615,54.0,19.011111111111113,17.0,0.0,54.0,0.02645233536528848,0.03427767287724505,0.049048638184293065,0.06424089625468826,0.06784502052351352,10.786481806538983,1711.0,18.782310773652174
249,2011-10-05,STORE_2_681,3.552713678800501e-15,0,0,0.0,0.03233451759124291,0.0,0.04386513688297023,0.03621217265444473,0.0,,0.04196450154353602,0.02842192822819294,8.531604938271608,54.0,18.855555555555554,17.0,0.0,54.0,0.024968410878722553,0.03427767287724505,0.049048638184293065,0.06424089625468826,0.06784502052351352,10.959128472597692,1697.0,18.784621593887888
250,2011-10-06,STORE_2_681,15.0,0,0,0.030382628993720868,0.030382628993720868,0.0,0.0587780005531861,0.05509751681481851,0.0,,0.0587780005531861,0.047641634435226544,8.506172839506172,54.0,18.755555555555556,17.0,0.0,54.0,0.024968410878722553,0.03427767287724505,0.049048638184293065,0.06424089625468826,0.06784502052351352,10.952718723709612,1688.0,18.78693241412361
251,2011-10-07,STORE_2_681,3.0,0,0,-0.024133679716719356,-0.05451630871044022,0.030382628993720868,0.06242755549121992,0.03233451759124291,0.038138093690483155,,0.008312109840774906,0.03427767287724505,8.644444444444447,54.0,18.6,17.0,0.0,54.0,0.02447376938320058,0.03427767287724505,0.049048638184293065,0.06424089625468826,0.06784502052351352,11.076648176748261,1674.0,18.789243234359322
252,2011-10-08,STORE_2_681,31.0,0,0,0.05435766232259268,0.07849134203931205,0.006248949277001511,0.06242755549121992,0.0,0.04196450154353602,,0.06424089625468826,0.0587780005531861,8.656790123456787,54.0,18.61111111111111,17.0,0.0,54.0,0.02447376938320058,0.03427767287724505,0.049048638184293065,0.06424089625468826,0.06784502052351352,11.088707125623468,1675.0,18.791554054595036
253,2011-10-09,STORE_2_681,3.552713678800501e-15,0,0,-0.06060661159959419,-0.11496427392218687,0.06060661159959419,0.0,0.03621217265444473,0.03621217265444473,,0.02645233536528848,0.03233451759124291,8.814814814814813,54.0,18.433333333333334,17.0,0.0,54.0,0.02447376938320058,0.03427767287724505,0.049048638184293065,0.06424089625468826,0.06784502052351352,11.25800589044141,1659.0,18.793864874830756
254,2011-10-10,STORE_2_681,3.552713678800501e-15,1,0,0.0,0.06060661159959419,0.0,0.030382628993720868,0.030382628993720868,0.03233451759124291,,0.03233451759124291,0.02842192822819294,8.953086419753086,54.0,18.27777777777778,17.0,0.0,54.0,0.02148548363950896,0.03427767287724505,0.049048638184293065,0.06424089625468826,0.06784502052351352,11.415569673095527,1645.0,18.79617569506647
255,2011-10-11,STORE_2_681,10.0,0,0,0.020489388391611754,0.020489388391611754,0.0,0.02447376938320058,0.018483405694013143,0.02447376938320058,,0.0,0.02842192822819294,8.992592592592594,54.0,18.233333333333334,17.0,0.0,54.0,0.020489388391611754,0.03427767287724505,0.049048638184293065,0.06424089625468826,0.06784502052351352,11.44017168096212,1641.0,18.798486515302184
256,2011-10-12,STORE_2_681,7.0,0,0,-0.006045960499338674,-0.02653534889095043,0.020489388391611754,0.04196450154353602,0.03233451759124291,0.018483405694013143,,0.0,0.04386513688297023,9.053333333333335,54.0,18.066666666666666,17.0,0.0,54.0,0.020489388391611754,0.03427767287724505,0.049048638184293065,0.06424089625468826,0.06784502052351352,11.493818563407867,1626.0,18.800797335537897
257,2011-10-13,STORE_2_681,19.0,0,0,0.023694665798210075,0.02974062629754875,0.01444342789227308,0.0587780005531861,0.02447376938320058,0.04386513688297023,,0.030382628993720868,0.03427767287724505,9.054320987654322,54.0,18.08888888888889,17.0,0.0,54.0,0.020489388391611754,0.03427767287724505,0.049048638184293065,0.06424089625468826,0.06784502052351352,11.49366649673103,1628.0,18.803108155773618
258,2011-10-14,STORE_2_681,6.0,0,0,-0.025728835708663186,-0.04942350150687326,0.038138093690483155,0.008312109840774906,0.020489388391611754,0.02447376938320058,,0.006248949277001511,0.05324551195322508,9.064938271604937,54.0,17.855555555555554,16.5,0.0,54.0,0.020489388391611754,0.03330609523424398,0.047641634435226544,0.06424089625468826,0.06784502052351352,11.523850315427763,1607.0,18.80541897600933
259,2011-10-15,STORE_2_681,32.0,0,0,0.050018297509399956,0.07574713321806315,0.012409257981819969,0.06424089625468826,0.018483405694013143,0.047641634435226544,,0.06060661159959419,0.04386513688297023,9.185925925925925,54.0,17.966666666666665,16.5,0.0,54.0,0.020489388391611754,0.03330609523424398,0.049048638184293065,0.06424089625468826,0.06784502052351352,11.61213042614093,1617.0,18.807729796245045
260,2011-10-16,STORE_2_681,3.552713678800501e-15,0,0,-0.06242755549121992,-0.11244585300061988,0.06242755549121992,0.02645233536528848,0.05138557556910121,0.03427767287724505,,0.0,0.018483405694013143,9.277037037037038,54.0,17.866666666666667,16.5,0.0,54.0,0.020489388391611754,0.03330609523424398,0.049048638184293065,0.06424089625468826,0.06784502052351352,11.728386767999051,1608.0,18.810040616480766
261,2011-10-17,STORE_2_681,7.0,0,0,0.01444342789227308,0.076870983383493,0.0,0.03233451759124291,0.012409257981819969,0.06784502052351352,,0.0,0.038138093690483155,9.370370370370372,54.0,17.733333333333334,16.0,0.0,54.0,0.018984901368412795,0.03233451759124291,0.049048638184293065,0.06424089625468826,0.06784502052351352,11.783439150020984,1596.0,18.81235143671648
262,2011-10-18,STORE_2_681,15.0,0,0,0.015939201101447788,0.0014957732091747077,0.01444342789227308,0.0,0.02447376938320058,0.09564936050631238,,0.020489388391611754,0.030382628993720868,9.37037037037037,54.0,17.733333333333334,16.0,0.0,54.0,0.018984901368412795,0.03233451759124291,0.049048638184293065,0.06424089625468826,0.06784502052351352,11.783439150020984,1596.0,18.814662256952193
263,2011-10-19,STORE_2_681,15.0,0,0,0.0,-0.015939201101447788,0.030382628993720868,0.0,0.030382628993720868,0.03621217265444473,,0.01444342789227308,0.07672660780274795,9.116296296296293,54.0,17.455555555555556,16.0,0.0,54.0,0.018984901368412795,0.03233451759124291,0.047641634435226544,0.06260888956756677,0.06784502052351352,11.544891482851257,1571.0,18.816973077187907
264,2011-10-20,STORE_2_681,24.0,0,0,0.017259005441505677,0.017259005441505677,0.030382628993720868,0.030382628993720868,0.07141948088181166,0.04386513688297023,,0.038138093690483155,0.02645233536528848,9.153086419753087,54.0,17.57777777777778,16.0,0.0,54.0,0.018984901368412795,0.03233451759124291,0.047641634435226544,0.06260888956756677,0.06784502052351352,11.555413904826608,1582.0,18.819283897423627
