soundwave-77/time-series-mts-hse/models/STORE_2_085/train_data.csv
index,timestamp,segment,target,holiday,target_change_points,target_diff_1,target_diff_2,target_lag_1,target_lag_14,target_lag_180,target_lag_30,target_lag_365,target_lag_7,target_lag_90,target_mad,target_max,target_mean,target_median,target_min,target_minmax_diff,target_q_0.25,target_q_0.50,target_q_0.75,target_q_0.90,target_q_0.95,target_std,target_sum,target_trend
0,2011-01-29,STORE_2_085,3.000000000000001,0,0,,,,,,,,,,0.0,3.0,3.0,3.0,3.0,0.0,0.03571555226653452,0.03571555226653452,0.03571555226653452,0.03571555226653452,0.03571555226653452,0.0,3.0,4.0680251723104845
1,2011-01-30,STORE_2_085,8.0,0,0,0.05368485896277634,,0.03571555226653452,,,,,,,2.5,8.0,5.5,5.5,3.0,5.0,0.049136767007228604,0.0625579817479227,0.07597919648861677,0.08403192533303323,0.08671616828117204,3.5355339059327378,11.0,4.054895329423374
2,2011-01-31,STORE_2_085,0.0,0,0,-0.08940041122931086,-0.1430852701920872,0.08940041122931086,,,,,,,2.888888888888889,8.0,3.6666666666666665,3.0,0.0,8.0,0.01785777613326726,0.03571555226653452,0.0625579817479227,0.07866343943675559,0.08403192533303322,4.041451884327381,11.0,4.0417654865362636
3,2011-02-01,STORE_2_085,3.000000000000001,0,0,0.03571555226653452,0.1251159634958454,0.0,,,,,,,2.25,8.0,3.5,3.0,0.0,8.0,0.02678666419990089,0.03571555226653452,0.049136767007228604,0.07329495354047796,0.0813476823848944,3.3166247903554,14.0,4.028635643649153
4,2011-02-02,STORE_2_085,0.0,0,0,-0.03571555226653452,-0.07143110453306904,0.03571555226653452,,,,,,,2.2399999999999998,8.0,2.8,3.0,0.0,8.0,0.0,0.03571555226653452,0.03571555226653452,0.06792646764420032,0.07866343943675558,3.2710854467592254,14.0,4.0155058007620426
5,2011-02-03,STORE_2_085,7.0,0,0,0.0791812460476248,0.11489679831415933,0.0,,,,,,,2.6666666666666665,8.0,3.5,3.0,0.0,8.0,0.00892888806663363,0.03571555226653452,0.06831482260235223,0.08429082863846783,0.08684561993388934,3.391164991562634,21.0,4.002375957874932
6,2011-02-04,STORE_2_085,4.0,0,0,-0.03218468337140124,-0.11136592941902604,0.0791812460476248,,,,,,,2.3673469387755106,8.0,3.5714285714285716,3.0,0.0,8.0,0.01785777613326726,0.03571555226653452,0.06308890436192419,0.08326891212029923,0.08633466167480504,3.101458950082625,25.0,3.9892461149878216
7,2011-02-05,STORE_2_085,5.000000000000001,0,0,0.010995384301463192,0.04318006767286443,0.04699656267622356,,,,,0.03571555226653452,,2.25,8.0,3.75,3.5,0.0,8.0,0.02678666419990089,0.04135605747137904,0.06328927174517127,0.08224699560213061,0.08582370341572074,2.9154759474226504,30.0,3.976116272100711
8,2011-02-06,STORE_2_085,3.000000000000001,0,0,-0.022276394711152232,-0.033271779012615424,0.057991946977686754,,,,,0.08940041122931086,,2.0740740740740744,8.0,3.6666666666666665,3.0,0.0,8.0,0.03571555226653452,0.03571555226653452,0.057991946977686754,0.08122507908396202,0.08531274515663644,2.7386127875258306,33.0,3.9629864292136006
9,2011-02-07,STORE_2_085,7.0,0,0,0.04346569378109028,0.06574208849224251,0.03571555226653452,,,,,0.0,,2.2,8.0,4.0,3.5,0.0,8.0,0.03571555226653452,0.04135605747137904,0.07388392128014029,0.0802031625657934,0.08480178689755212,2.788866755113585,40.0,3.94985658632649
10,2011-02-08,STORE_2_085,4.0,0,0,-0.03218468337140124,-0.07565037715249152,0.0791812460476248,,,,,0.03571555226653452,,2.0,8.0,4.0,4.0,0.0,8.0,0.03571555226653452,0.04699656267622356,0.06858659651265578,0.0791812460476248,0.08429082863846783,2.6457513110645907,44.0,3.9367267434393796
11,2011-02-09,STORE_2_085,4.0,0,0,0.0,0.03218468337140124,0.04699656267622356,,,,,0.0,,1.8333333333333333,8.0,4.0,4.0,0.0,8.0,0.03571555226653452,0.04699656267622356,0.06328927174517127,0.0791812460476248,0.08377987037938352,2.522624895547565,48.0,3.923596900552269
12,2011-02-10,STORE_2_085,3.000000000000001,0,0,-0.01128101040968904,-0.01128101040968904,0.04699656267622356,,,,,0.0791812460476248,,1.7751479289940828,8.0,3.923076923076923,4.0,0.0,8.0,0.03571555226653452,0.04699656267622356,0.057991946977686754,0.0791812460476248,0.08326891212029922,2.431101892199586,51.0,3.9104670576651586
13,2011-02-11,STORE_2_085,7.0,0,0,0.04346569378109028,0.05474670419077932,0.03571555226653452,,,,,0.04699656267622356,,1.8979591836734693,8.0,4.142857142857143,4.0,0.0,8.0,0.03571555226653452,0.04699656267622356,0.07388392128014029,0.0791812460476248,0.08275795386121491,2.476260917566671,58.0,3.897337214778048
14,2011-02-12,STORE_2_085,2.0,0,0,-0.05504756633090545,-0.09851326011199574,0.0791812460476248,0.03571555226653452,,,,0.057991946977686754,,1.8666666666666667,8.0,4.0,4.0,0.0,8.0,0.03571555226653452,0.04699656267622356,0.06858659651265578,0.0791812460476248,0.08224699560213061,2.449489742783178,60.0,3.8842073718909376
15,2011-02-13,STORE_2_085,3.000000000000001,0,0,0.011581872549815166,0.06662943888072062,0.024133679716719356,0.08940041122931086,,,,0.03571555226653452,,1.8125,8.0,3.9375,3.5,0.0,8.0,0.03571555226653452,0.04135605747137904,0.06328927174517127,0.0791812460476248,0.08173603734304632,2.3796008068581584,63.0,3.871077529003827
16,2011-02-14,STORE_2_085,12.000000000000002,0,0,0.09231426131890727,0.08073238876909211,0.03571555226653452,0.0,,,,0.0791812460476248,,2.2975778546712804,12.0,4.411764705882353,4.0,0.0,12.0,0.03571555226653452,0.04699656267622356,0.0791812460476248,0.08326891212029923,0.09712629170053702,3.021978315801831,75.0,3.8579476861167166
17,2011-02-15,STORE_2_085,6.0,0,0,-0.05931400121598196,-0.15162826253488923,0.1280298135854418,0.03571555226653452,,,,0.04699656267622356,,2.2777777777777777,12.0,4.5,4.0,0.0,12.0,0.03571555226653452,0.04699656267622356,0.07656488762808356,0.08224699560213063,0.09519482158273045,2.955553098431334,81.0,3.844817843229606
18,2011-02-16,STORE_2_085,4.0,0,0,-0.021719249693236277,0.03759475152274568,0.06871581236945984,0.0,,,,0.04699656267622356,,2.1772853185595564,12.0,4.473684210526316,4.0,0.0,12.0,0.03571555226653452,0.04699656267622356,0.07394852920854232,0.08122507908396201,0.09326335146492387,2.8745709061939735,85.0,3.8316880003424956
19,2011-02-17,STORE_2_085,5.000000000000001,0,0,0.010995384301463192,0.03271463399469947,0.04699656267622356,0.0791812460476248,,,,0.03571555226653452,,2.1,12.0,4.5,4.0,0.0,12.0,0.03571555226653452,0.04699656267622356,0.07133217078900109,0.08020316256579342,0.09133188134711744,2.8003759146153744,90.0,3.818558157455385
20,2011-02-18,STORE_2_085,2.0,0,0,-0.0338582672609674,-0.04485365156243059,0.057991946977686754,0.04699656267622356,,,,0.0791812460476248,,2.090702947845805,12.0,4.380952380952381,4.0,0.0,12.0,0.03571555226653452,0.04699656267622356,0.06871581236945984,0.0791812460476248,0.08940041122931086,2.7834545168942584,92.0,3.8054283145682746
21,2011-02-19,STORE_2_085,4.0,0,0,0.022862882959504206,0.056721150220471604,0.024133679716719356,0.057991946977686754,,,,0.024133679716719356,,2.008264462809917,12.0,4.363636363636363,4.0,0.0,12.0,0.03571555226653452,0.04699656267622356,0.06603484602151657,0.0791812460476248,0.08888945297022655,2.7175874199888006,96.0,3.792298471681164
22,2011-02-20,STORE_2_085,3.000000000000001,0,0,-0.01128101040968904,-0.03414389336919325,0.04699656267622356,0.03571555226653452,,,,0.03571555226653452,,1.9621928166351603,12.0,4.304347826086956,4.0,0.0,12.0,0.03571555226653452,0.04699656267622356,0.0633538796735733,0.0791812460476248,0.08837849471114224,2.6702873970059278,99.0,3.7791686287940536
23,2011-02-21,STORE_2_085,3.000000000000001,1,0,0.0,0.01128101040968904,0.03571555226653452,0.0791812460476248,,,,0.1280298135854418,,1.9166666666666667,12.0,4.25,4.0,0.0,12.0,0.03571555226653452,0.04699656267622356,0.060672913325630025,0.0791812460476248,0.08786753645205793,2.625129396396697,102.0,3.766038785906943
24,2011-02-22,STORE_2_085,4.0,0,0,0.01128101040968904,0.01128101040968904,0.03571555226653452,0.04699656267622356,,,,0.06871581236945984,,1.8464000000000005,12.0,4.24,4.0,0.0,12.0,0.03571555226653452,0.04699656267622356,0.057991946977686754,0.0791812460476248,0.08735657819297363,2.5703436864876,106.0,3.7529089430198326
25,2011-02-23,STORE_2_085,4.0,0,0,0.0,-0.01128101040968904,0.04699656267622356,0.04699656267622356,,,,0.04699656267622356,,1.7810650887573967,12.0,4.230769230769231,4.0,0.0,12.0,0.03571555226653452,0.04699656267622356,0.057991946977686754,0.0791812460476248,0.08684561993388934,2.518851997362168,110.0,3.739779100132722
26,2011-02-24,STORE_2_085,0.0,0,0,-0.04699656267622356,-0.04699656267622356,0.04699656267622356,0.03571555226653452,,,,0.057991946977686754,,1.807956104252401,12.0,4.074074074074074,4.0,0.0,12.0,0.03571555226653452,0.04699656267622356,0.057991946977686754,0.0791812460476248,0.08633466167480504,2.60067928886527,110.0,3.7266492572456116
27,2011-02-25,STORE_2_085,9.0,0,0,0.09938463213591175,0.14638119481213532,0.0,0.0791812460476248,,,,0.024133679716719356,,1.9821428571428572,12.0,4.25,4.0,0.0,12.0,0.03571555226653452,0.04699656267622356,0.060672913325630025,0.08224699560213063,0.09589015481860143,2.716547372977256,119.0,3.713519414358501
28,2011-02-26,STORE_2_085,3.000000000000001,0,0,-0.06366907986937723,-0.16305371200528898,0.09938463213591175,0.024133679716719356,,,,0.04699656267622356,,1.9405469678953624,12.0,4.206896551724138,4.0,0.0,12.0,0.03571555226653452,0.04699656267622356,0.057991946977686754,0.08122507908396201,0.09539094377327137,2.6776763693389563,122.0,3.7003895714713906
29,2011-02-27,STORE_2_085,3.000000000000001,0,0,0.0,0.06366907986937723,0.03571555226653452,0.03571555226653452,,,,0.03571555226653452,,1.8999999999999997,12.0,4.166666666666667,4.0,0.0,12.0,0.03571555226653452,0.04699656267622356,0.057991946977686754,0.08020316256579342,0.09489173272794132,2.6403152023605236,125.0,3.6872597285843085
30,2011-02-28,STORE_2_085,1.0,0,0,-0.023481095849522897,-0.023481095849522897,0.03571555226653452,0.1280298135854418,,0.03571555226653452,,0.03571555226653452,,1.898022892819979,12.0,4.064516129032258,4.0,0.0,12.0,0.03571555226653452,0.04699656267622356,0.057991946977686754,0.0791812460476248,0.09439252168261131,2.657511164867958,126.0,3.674129885697198
31,2011-03-01,STORE_2_085,4.0,0,0,0.03476210625921194,0.058243202108734834,0.012234456417011626,0.06871581236945984,,0.08940041122931086,,0.04699656267622356,,1.83984375,12.0,4.0625,4.0,0.0,12.0,0.03571555226653452,0.04699656267622356,0.057991946977686754,0.0791812460476248,0.09389331063728126,2.614321598303246,130.0,3.6610000428100875
32,2011-03-02,STORE_2_085,6.0,0,0,0.021719249693236277,-0.01304285656597566,0.04699656267622356,0.04699656267622356,,0.0,,0.04699656267622356,,1.8659320477502301,12.0,4.121212121212121,4.0,0.0,12.0,0.03571555226653452,0.04699656267622356,0.057991946977686754,0.0791812460476248,0.0933940995919512,2.5951586627504075,136.0,3.647870199922977
33,2011-03-03,STORE_2_085,4.0,0,0,-0.021719249693236277,-0.043438499386472554,0.06871581236945984,0.057991946977686754,,0.03571555226653452,,0.0,,1.8131487889273354,12.0,4.117647058823529,4.0,0.0,12.0,0.03571555226653452,0.04699656267622356,0.057991946977686754,0.0791812460476248,0.09289488854662115,2.5556201392030427,140.0,3.6347403570358665
34,2011-03-04,STORE_2_085,3.000000000000001,0,0,-0.01128101040968904,0.010438239283547236,0.04699656267622356,0.024133679716719356,,0.0,,0.09938463213591175,,1.7795918367346946,12.0,4.085714285714285,4.0,0.0,12.0,0.03571555226653452,0.04699656267622356,0.057991946977686754,0.0791812460476248,0.0923956775012911,2.5248346314098242,143.0,3.621610514148756
35,2011-03-05,STORE_2_085,4.0,0,0,0.01128101040968904,0.02256202081937808,0.03571555226653452,0.04699656267622356,,0.0791812460476248,,0.03571555226653452,,1.7314814814814816,12.0,4.083333333333333,4.0,0.0,12.0,0.03571555226653452,0.04699656267622356,0.057991946977686754,0.0791812460476248,0.09189646645596108,2.48854518601876,147.0,3.6084806712616455
36,2011-03-06,STORE_2_085,6.0,0,0,0.021719249693236277,0.010438239283547236,0.04699656267622356,0.03571555226653452,,0.04699656267622356,,0.03571555226653452,,1.7574872169466769,12.0,4.135135135135135,4.0,0.0,12.0,0.03571555226653452,0.04699656267622356,0.057991946977686754,0.0791812460476248,0.091397255410631,2.4738876530918135,153.0,3.595350828374535
37,2011-03-07,STORE_2_085,2.0,0,0,-0.04458213265274048,-0.06630138234597677,0.06871581236945984,0.03571555226653452,,0.057991946977686754,,0.012234456417011626,,1.7437673130193907,12.0,4.078947368421052,4.0,0.0,12.0,0.03571555226653452,0.04699656267622356,0.057991946977686754,0.0791812460476248,0.09089804436530098,2.4646865811094516,155.0,3.5822209854874245
38,2011-03-08,STORE_2_085,1.0,0,0,-0.01189922329970773,0.03268290935303275,0.024133679716719356,0.04699656267622356,,0.03571555226653452,,0.04699656267622356,,1.7435897435897436,12.0,4.0,4.0,0.0,12.0,0.03571555226653452,0.04699656267622356,0.057991946977686754,0.0791812460476248,0.09039883331997096,2.481510575605533,156.0,3.569091142600314
39,2011-03-09,STORE_2_085,0.0,0,0,-0.012234456417011626,-0.0003352331173038965,0.012234456417011626,0.04699656267622356,,0.0791812460476248,,0.06871581236945984,,1.8050000000000002,12.0,3.9,4.0,0.0,12.0,0.03571555226653452,0.04699656267622356,0.057991946977686754,0.0791812460476248,0.08989962227464088,2.529822128134704,156.0,3.5559612997132035
40,2011-03-10,STORE_2_085,2.0,0,0,0.024133679716719356,0.03636813613373098,0.0,0.0,,0.04699656267622356,,0.04699656267622356,,1.808447352766211,12.0,3.8536585365853657,4.0,0.0,12.0,0.03571555226653452,0.04699656267622356,0.057991946977686754,0.0791812460476248,0.08940041122931086,2.515561325129603,158.0,3.542831456826093
41,2011-03-11,STORE_2_085,8.0,0,0,0.0652667315125915,0.04113305179587215,0.024133679716719356,0.09938463213591175,,0.04699656267622356,,0.03571555226653452,,1.8594104308390025,12.0,3.9523809523809526,4.0,0.0,12.0,0.03571555226653452,0.04699656267622356,0.057991946977686754,0.0791812460476248,0.08940041122931086,2.5657441363641222,166.0,3.5297016139389825
42,2011-03-12,STORE_2_085,5.000000000000001,0,0,-0.03140846425162411,-0.09667519576421561,0.08940041122931086,0.03571555226653452,,0.03571555226653452,,0.04699656267622356,,1.8388318009734999,12.0,3.9767441860465116,4.0,0.0,12.0,0.03571555226653452,0.04699656267622356,0.057991946977686754,0.0791812460476248,0.08940041122931086,2.5400447323866007,171.0,3.516571771051872
43,2011-03-13,STORE_2_085,1.0,0,0,-0.04575749056067513,-0.014349026309051022,0.057991946977686754,0.03571555226653452,,0.0791812460476248,,0.06871581236945984,,1.8677685950413225,12.0,3.909090909090909,4.0,0.0,12.0,0.03282008412908073,0.04699656267622356,0.057991946977686754,0.0791812460476248,0.08940041122931086,2.5501316137323764,172.0,3.5034419281647615
44,2011-03-14,STORE_2_085,2.0,0,0,0.01189922329970773,0.05765671386038286,0.012234456417011626,0.012234456417011626,,0.024133679716719356,,0.024133679716719356,,1.869629629629629,12.0,3.8666666666666667,4.0,0.0,12.0,0.024133679716719356,0.04699656267622356,0.057991946977686754,0.0791812460476248,0.08940041122931086,2.536998942917327,174.0,3.490312085277651
45,2011-03-15,STORE_2_085,0.0,0,0,-0.024133679716719356,-0.03603290301642709,0.024133679716719356,0.04699656267622356,,0.03571555226653452,,0.012234456417011626,,1.9130434782608696,12.0,3.782608695652174,3.5,0.0,12.0,0.024133679716719356,0.04135605747137904,0.057991946977686754,0.0791812460476248,0.08940041122931086,2.5726168560286444,174.0,3.4771822423905405
46,2011-03-16,STORE_2_085,1.0,0,0,0.012234456417011626,0.03636813613373098,0.0,0.06871581236945984,,0.1280298135854418,,0.0,,1.9302851969216839,12.0,3.723404255319149,3.0,0.0,12.0,0.024133679716719356,0.03571555226653452,0.057991946977686754,0.0791812460476248,0.08940041122931086,2.5766689623854733,175.0,3.46405239950343
47,2011-03-17,STORE_2_085,4.0,0,0,0.03476210625921194,0.022527649842200313,0.012234456417011626,0.04699656267622356,,0.06871581236945984,,0.024133679716719356,,1.8958333333333333,12.0,3.7291666666666665,3.5,0.0,12.0,0.024133679716719356,0.04135605747137904,0.057991946977686754,0.0791812460476248,0.08940041122931086,2.5494228244033303,179.0,3.4509225566163195
48,2011-03-18,STORE_2_085,0.0,0,0,-0.04699656267622356,-0.0817586689354355,0.04699656267622356,0.03571555226653452,,0.04699656267622356,,0.08940041122931086,,1.931695127030404,12.0,3.6530612244897958,3.0,0.0,12.0,0.024133679716719356,0.03571555226653452,0.057991946977686754,0.0791812460476248,0.08940041122931086,2.578363663968578,179.0,3.437792713729209
49,2011-03-19,STORE_2_085,5.000000000000001,0,0,0.057991946977686754,0.10498850965391032,0.0,0.04699656267622356,,0.057991946977686754,,0.057991946977686754,,1.92,12.0,3.68,3.5,0.0,12.0,0.024133679716719356,0.04135605747137904,0.057991946977686754,0.0791812460476248,0.08940041122931086,2.5590176686712085,184.0,3.4246628708420985
50,2011-03-20,STORE_2_085,4.0,0,0,-0.010995384301463192,-0.06898733127914994,0.057991946977686754,0.06871581236945984,,0.024133679716719356,,0.012234456417011626,,1.8885044213763937,12.0,3.6862745098039214,4.0,0.0,12.0,0.024133679716719356,0.04699656267622356,0.057991946977686754,0.0791812460476248,0.08940041122931086,2.533694504698081,188.0,3.411533027954988
51,2011-03-21,STORE_2_085,4.0,0,0,0.0,0.010995384301463192,0.04699656267622356,0.024133679716719356,,0.04699656267622356,,0.024133679716719356,,1.8579881656804733,12.0,3.6923076923076925,4.0,0.0,12.0,0.024133679716719356,0.04699656267622356,0.057991946977686754,0.0791812460476248,0.08940041122931086,2.5091085952355208,192.0,3.3984031850678775
52,2011-03-22,STORE_2_085,4.0,0,0,0.0,0.0,0.04699656267622356,0.012234456417011626,,0.03571555226653452,,0.0,,1.8284086863652547,12.0,3.69811320754717,4.0,0.0,12.0,0.024133679716719356,0.04699656267622356,0.057991946977686754,0.0791812460476248,0.08940041122931086,2.485224844033056,196.0,3.385273342180767
53,2011-03-23,STORE_2_085,1.0,0,0,-0.03476210625921194,-0.03476210625921194,0.04699656267622356,0.0,,0.03571555226653452,,0.012234456417011626,,1.8463648834019206,12.0,3.6481481481481484,4.0,0.0,12.0,0.024133679716719356,0.04699656267622356,0.05524310090232096,0.0791812460476248,0.08940041122931086,2.488899183866099,197.0,3.3721434992936565
54,2011-03-24,STORE_2_085,7.0,0,0,0.06694678963061318,0.10170889588982512,0.012234456417011626,0.024133679716719356,,0.04699656267622356,,0.04699656267622356,,1.870413223140496,12.0,3.709090909090909,4.0,0.0,12.0,0.024133679716719356,0.04699656267622356,0.057991946977686754,0.0791812460476248,0.08940041122931086,2.5068256988021886,204.0,3.359013656406546
55,2011-03-25,STORE_2_085,1.0,0,0,-0.06694678963061318,-0.13389357926122636,0.0791812460476248,0.08940041122931086,,0.04699656267622356,,0.0,,1.8871173469387752,12.0,3.6607142857142856,4.0,0.0,12.0,0.024133679716719356,0.04699656267622356,0.057991946977686754,0.0791812460476248,0.08940041122931086,2.5101741027215674,205.0,3.3458838135194355
56,2011-03-26,STORE_2_085,2.0,0,0,0.01189922329970773,0.07884601293032091,0.012234456417011626,0.057991946977686754,,0.0,,0.057991946977686754,,1.8836565096952909,12.0,3.6315789473684212,4.0,0.0,12.0,0.024133679716719356,0.04699656267622356,0.057991946977686754,0.0791812460476248,0.08940041122931086,2.4973670345512207,207.0,3.332753970632325
57,2011-03-27,STORE_2_085,2.0,0,0,0.0,-0.01189922329970773,0.024133679716719356,0.012234456417011626,,0.09938463213591175,,0.04699656267622356,,1.8793103448275865,12.0,3.603448275862069,3.5,0.0,12.0,0.024133679716719356,0.04135605747137904,0.05524310090232096,0.0791812460476248,0.08940041122931086,2.4846169189876703,209.0,3.3196241277452145
58,2011-03-28,STORE_2_085,0.0,0,0,-0.024133679716719356,-0.024133679716719356,0.024133679716719356,0.024133679716719356,,0.03571555226653452,,0.04699656267622356,,1.9074978454467109,12.0,3.542372881355932,3.0,0.0,12.0,0.024133679716719356,0.03571555226653452,0.05249425482695516,0.0791812460476248,0.08940041122931086,2.5073824371540243,209.0,3.306494284858104
59,2011-03-29,STORE_2_085,15.0,0,0,0.15490195998574313,0.1790356397024625,0.0,0.0,,0.03571555226653452,,0.04699656267622356,,2.066666666666667,15.0,3.7333333333333334,3.5,0.0,15.0,0.024133679716719356,0.04135605747137904,0.057991946977686754,0.0791812460476248,0.08989962227464088,2.8928120543721643,224.0,3.2933644419709935
60,2011-03-30,STORE_2_085,0.0,0,0,-0.15490195998574313,-0.30980391997148626,0.15490195998574313,0.012234456417011626,,0.012234456417011626,,0.012234456417011626,,2.092985756517065,15.0,3.6721311475409837,3.0,0.0,15.0,0.024133679716719356,0.03571555226653452,0.057991946977686754,0.0791812460476248,0.08940041122931086,2.9081569849614946,224.0,3.280234599083883
61,2011-03-31,STORE_2_085,0.0,0,0,0.0,0.15490195998574313,0.0,0.04699656267622356,,0.04699656267622356,,0.0791812460476248,,2.1165452653485954,15.0,3.6129032258064515,3.0,0.0,15.0,0.024133679716719356,0.03571555226653452,0.05524310090232096,0.0791812460476248,0.08940041122931086,2.9216817451579877,224.0,3.2671047561967725
62,2011-04-01,STORE_2_085,2.0,0,0,0.024133679716719356,0.024133679716719356,0.0,0.0,,0.06871581236945984,,0.012234456417011626,,2.1073318216175365,15.0,3.5873015873015874,3.0,0.0,15.0,0.024133679716719356,0.03571555226653452,0.05249425482695516,0.0791812460476248,0.08940041122931086,2.905139609298247,226.0,3.253974913309662
63,2011-04-02,STORE_2_085,2.0,0,0,0.0,-0.024133679716719356,0.024133679716719356,0.057991946977686754,,0.04699656267622356,,0.024133679716719356,,2.09765625,15.0,3.5625,3.0,0.0,15.0,0.024133679716719356,0.03571555226653452,0.04974540875158936,0.0791812460476248,0.08940041122931086,2.8888125753046174,228.0,3.2408450704225515
64,2011-04-03,STORE_2_085,4.0,0,0,0.022862882959504206,0.022862882959504206,0.024133679716719356,0.04699656267622356,,0.03571555226653452,,0.024133679716719356,,2.0724260355029585,15.0,3.5692307692307694,3.0,0.0,15.0,0.024133679716719356,0.03571555226653452,0.04699656267622356,0.0791812460476248,0.08940041122931086,2.866668530112692,232.0,3.227715227535441
65,2011-04-04,STORE_2_085,3.000000000000001,0,0,-0.01128101040968904,-0.03414389336919325,0.04699656267622356,0.04699656267622356,,0.04699656267622356,,0.0,,2.0491276400367306,15.0,3.5606060606060606,3.0,0.0,15.0,0.024133679716719356,0.03571555226653452,0.04699656267622356,0.0791812460476248,0.08940041122931086,2.8453945941240564,235.0,3.2145853846483305
66,2011-04-05,STORE_2_085,2.0,0,0,-0.011581872549815166,-0.00030086214012612494,0.03571555226653452,0.04699656267622356,,0.06871581236945984,,0.15490195998574313,,2.0400980173758074,15.0,3.537313432835821,3.0,0.0,15.0,0.024133679716719356,0.03571555226653452,0.04699656267622356,0.0791812460476248,0.08940041122931086,2.830185550234511,237.0,3.20145554176122
67,2011-04-06,STORE_2_085,3.000000000000001,0,0,0.011581872549815166,0.02316374509963033,0.024133679716719356,0.012234456417011626,,0.024133679716719356,,0.0,,2.0173010380622833,15.0,3.5294117647058822,3.0,0.0,15.0,0.024133679716719356,0.03571555226653452,0.04699656267622356,0.0791812460476248,0.08940041122931086,2.809740988940822,240.0,3.1883256988741095
68,2011-04-07,STORE_2_085,6.0,0,0,0.03300026010292532,0.021418387553110152,0.03571555226653452,0.0791812460476248,,0.012234456417011626,,0.0,,2.0264650283553878,15.0,3.5652173913043477,3.0,0.0,15.0,0.024133679716719356,0.03571555226653452,0.04699656267622356,0.0791812460476248,0.08940041122931086,2.8048186523613734,246.0,3.175195855986999
69,2011-04-08,STORE_2_085,2.0,0,0,-0.04458213265274048,-0.07758239275566581,0.06871581236945984,0.012234456417011626,,0.0,,0.024133679716719356,,2.0179591836734696,15.0,3.5428571428571427,3.0,0.0,15.0,0.024133679716719356,0.03571555226653452,0.04699656267622356,0.0791812460476248,0.08940041122931086,2.790697353427366,248.0,3.1620660130998886
70,2011-04-09,STORE_2_085,3.000000000000001,0,0,0.011581872549815166,0.05616400520255565,0.024133679716719356,0.024133679716719356,,0.024133679716719356,,0.024133679716719356,,1.9964292799047807,15.0,3.535211267605634,3.0,0.0,15.0,0.024133679716719356,0.03571555226653452,0.04699656267622356,0.0791812460476248,0.08940041122931086,2.7714410172095016,251.0,3.148936170212778
71,2011-04-10,STORE_2_085,1.0,0,0,-0.023481095849522897,-0.03506296839933806,0.03571555226653452,0.024133679716719356,,0.08940041122931086,,0.04699656267622356,,2.0,15.0,3.5,3.0,0.0,15.0,0.024133679716719356,0.03571555226653452,0.04699656267622356,0.0791812460476248,0.08940041122931086,2.768026703445239,252.0,3.1358063273256676
72,2011-04-11,STORE_2_085,1.0,0,0,0.0,0.023481095849522897,0.012234456417011626,0.0,,0.057991946977686754,,0.03571555226653452,,2.0026271345468194,15.0,3.4657534246575343,3.0,0.0,15.0,0.024133679716719356,0.03571555226653452,0.04699656267622356,0.0791812460476248,0.08940041122931086,2.7642669903451296,253.0,3.122676484438557
73,2011-04-12,STORE_2_085,3.000000000000001,0,0,0.023481095849522897,0.023481095849522897,0.012234456417011626,0.15490195998574313,,0.012234456417011626,,0.024133679716719356,,1.9810080350620893,15.0,3.4594594594594597,3.0,0.0,15.0,0.024133679716719356,0.03571555226653452,0.04699656267622356,0.0791812460476248,0.08940041122931086,2.7458022217194933,256.0,3.1095466415514466
74,2011-04-13,STORE_2_085,4.0,0,0,0.01128101040968904,-0.012200085439833856,0.03571555226653452,0.0,,0.024133679716719356,,0.03571555226653452,,1.962666666666667,15.0,3.466666666666667,3.0,0.0,15.0,0.024133679716719356,0.03571555226653452,0.04699656267622356,0.0791812460476248,0.08940041122931086,2.72790055563641,260.0,3.096416798664336
75,2011-04-14,STORE_2_085,6.0,0,0,0.021719249693236277,0.010438239283547236,0.04699656267622356,0.0,,0.0,,0.06871581236945984,,1.9736842105263157,15.0,3.5,3.0,0.0,15.0,0.024133679716719356,0.03571555226653452,0.04699656267622356,0.0791812460476248,0.08940041122931086,2.7251911247959595,266.0,3.0832869557772256
76,2011-04-15,STORE_2_085,4.0,0,0,-0.021719249693236277,-0.043438499386472554,0.06871581236945984,0.024133679716719356,,0.012234456417011626,,0.024133679716719356,,1.9551357733175914,15.0,3.5064935064935066,3.0,0.0,15.0,0.024133679716719356,0.03571555226653452,0.04699656267622356,0.0791812460476248,0.08940041122931086,2.7078024524820505,270.0,3.0701571128901435
77,2011-04-16,STORE_2_085,3.000000000000001,0,0,-0.01128101040968904,0.010438239283547236,0.04699656267622356,0.024133679716719356,,0.04699656267622356,,0.03571555226653452,,1.935897435897436,15.0,3.5,3.0,0.0,15.0,0.024133679716719356,0.03571555226653452,0.04699656267622356,0.0791812460476248,0.08940041122931086,2.690773074835509,273.0,3.057027270003033
78,2011-04-17,STORE_2_085,5.000000000000001,0,0,0.022276394711152232,0.03355740512084127,0.03571555226653452,0.04699656267622356,,0.0,,0.012234456417011626,,1.9320621695241145,15.0,3.518987341772152,3.0,0.0,15.0,0.024133679716719356,0.03571555226653452,0.04699656267622356,0.0791812460476248,0.08940041122931086,2.678790195236298,278.0,3.0438974271159225
79,2011-04-18,STORE_2_085,1.0,0,0,-0.04575749056067513,-0.06803388527182735,0.057991946977686754,0.03571555226653452,,0.057991946977686754,,0.012234456417011626,,1.9362499999999998,15.0,3.4875,3.0,0.0,15.0,0.024133679716719356,0.03571555226653452,0.04699656267622356,0.0791812460476248,0.08940041122931086,2.676639447922939,279.0,3.030767584228812
80,2011-04-19,STORE_2_085,3.000000000000001,0,0,0.023481095849522897,0.06923858641019803,0.012234456417011626,0.024133679716719356,,0.04699656267622356,,0.03571555226653452,,1.917695473251029,15.0,3.4814814814814814,3.0,0.0,15.0,0.024133679716719356,0.03571555226653452,0.04699656267622356,0.0791812460476248,0.08940041122931086,2.6604093252313223,282.0,3.0176377413417015
81,2011-04-20,STORE_2_085,4.0,0,0,0.01128101040968904,-0.012200085439833856,0.03571555226653452,0.03571555226653452,,0.04699656267622356,,0.04699656267622356,,1.9012492563950028,15.0,3.4878048780487805,3.0,0.0,15.0,0.024133679716719356,0.03571555226653452,0.04699656267622356,0.07813470267980836,0.08888945297022659,2.644556031441326,286.0,3.004507898454591
82,2011-04-21,STORE_2_085,5.000000000000001,0,0,0.010995384301463192,-0.00028562610822584905,0.04699656267622356,0.06871581236945984,,0.04699656267622356,,0.06871581236945984,,1.8980984177674554,15.0,3.5060240963855422,3.0,0.0,15.0,0.024133679716719356,0.03571555226653452,0.04699656267622356,0.07708815931199178,0.08837849471114217,2.6336170711515865,291.0,2.9913780555674805
83,2011-04-22,STORE_2_085,3.000000000000001,0,0,-0.022276394711152232,-0.033271779012615424,0.057991946977686754,0.024133679716719356,,0.012234456417011626,,0.04699656267622356,,1.880952380952381,15.0,3.5,3.0,0.0,15.0,0.024133679716719356,0.03571555226653452,0.04699656267622356,0.07604161594417534,0.0878675364520579,2.618286020805784,294.0,2.97824821268037
84,2011-04-23,STORE_2_085,2.0,0,0,-0.011581872549815166,0.010694522161337067,0.03571555226653452,0.03571555226653452,,0.0791812460476248,,0.03571555226653452,,1.8746020761245679,15.0,3.4823529411764707,3.0,0.0,15.0,0.024133679716719356,0.03571555226653452,0.04699656267622356,0.0749950725763589,0.08735657819297363,2.607734670560795,296.0,2.9651183697932595
85,2011-04-24,STORE_2_085,8.0,0,0,0.0652667315125915,0.07684860406240668,0.024133679716719356,0.012234456417011626,,0.012234456417011626,,0.057991946977686754,,1.910221741481882,15.0,3.5348837209302326,3.0,0.0,15.0,0.024133679716719356,0.03571555226653452,0.04699656267622356,0.0791812460476248,0.08940041122931086,2.6377248414611576,304.0,2.951988526906149
86,2011-04-25,STORE_2_085,6.0,0,0,-0.020684598859851022,-0.08595133037244253,0.08940041122931086,0.012234456417011626,,0.024133679716719356,,0.012234456417011626,,1.9188796406394506,15.0,3.5632183908045976,3.0,0.0,15.0,0.024133679716719356,0.03571555226653452,0.05249425482695516,0.0791812460476248,0.08940041122931086,2.635628645831505,310.0,2.9388586840190385
87,2011-04-26,STORE_2_085,2.0,0,0,-0.04458213265274048,-0.02389753379288946,0.06871581236945984,0.03571555226653452,,0.024133679716719356,,0.03571555226653452,,1.9132231404958686,15.0,3.5454545454545454,3.0,0.0,15.0,0.024133679716719356,0.03571555226653452,0.04974540875158936,0.0791812460476248,0.08940041122931086,2.6257307287646805,312.0,2.925728841131928
88,2011-04-27,STORE_2_085,2.0,0,0,0.0,0.04458213265274048,0.024133679716719356,0.04699656267622356,,0.0,,0.04699656267622356,,1.9073349324580229,15.0,3.5280898876404496,3.0,0.0,15.0,0.024133679716719356,0.03571555226653452,0.04699656267622356,0.0791812460476248,0.08940041122931086,2.6159036663891886,314.0,2.9125989982448175
89,2011-04-28,STORE_2_085,1.0,0,0,-0.01189922329970773,-0.01189922329970773,0.024133679716719356,0.06871581236945984,,0.15490195998574313,,0.057991946977686754,,1.9111111111111112,15.0,3.5,3.0,0.0,15.0,0.024133679716719356,0.03571555226653452,0.04699656267622356,0.0791812460476248,0.08940041122931086,2.614780803754952,315.0,2.899469155357707
90,2011-04-29,STORE_2_085,3.000000000000001,0,0,0.023481095849522897,0.03538031914923063,0.012234456417011626,0.04699656267622356,,0.0,,0.03571555226653452,0.03571555226653452,1.9111111111111112,15.0,3.5,3.0,0.0,15.0,0.024133679716719356,0.03571555226653452,0.04699656267622356,0.0791812460476248,0.08940041122931086,2.614780803754952,315.0,2.8863393124705965
91,2011-04-30,STORE_2_085,1.0,0,0,-0.023481095849522897,-0.046962191699045794,0.03571555226653452,0.03571555226653452,,0.0,,0.024133679716719356,0.08940041122931086,1.8785185185185185,15.0,3.422222222222222,3.0,0.0,15.0,0.024133679716719356,0.03571555226653452,0.04699656267622356,0.06976235573727642,0.0848017868975521,2.5833423945715195,308.0,2.873209469583486
92,2011-05-01,STORE_2_085,4.0,0,0,0.03476210625921194,0.058243202108734834,0.012234456417011626,0.057991946977686754,,0.024133679716719356,,0.08940041122931086,0.0,1.8518518518518516,15.0,3.466666666666667,3.0,0.0,15.0,0.024133679716719356,0.03571555226653452,0.04699656267622356,0.06976235573727642,0.0848017868975521,2.5580891745048877,312.0,2.8600796266963755
93,2011-05-02,STORE_2_085,1.0,0,0,-0.03476210625921194,-0.06952421251842388,0.04699656267622356,0.012234456417011626,,0.024133679716719356,,0.06871581236945984,0.03571555226653452,1.8716049382716038,15.0,3.4444444444444446,3.0,0.0,15.0,0.024133679716719356,0.03571555226653452,0.04699656267622356,0.06976235573727642,0.0848017868975521,2.5708439182367884,310.0,2.846949783809265
94,2011-05-03,STORE_2_085,2.0,0,0,0.01189922329970773,0.04666132955891967,0.012234456417011626,0.03571555226653452,,0.04699656267622356,,0.024133679716719356,0.0,1.851851851851852,15.0,3.466666666666667,3.0,0.0,15.0,0.024133679716719356,0.03571555226653452,0.04699656267622356,0.06976235573727642,0.0848017868975521,2.549289392064851,312.0,2.8338199409221545
95,2011-05-04,STORE_2_085,6.0,0,0,0.04458213265274048,0.03268290935303275,0.024133679716719356,0.04699656267622356,,0.03571555226653452,,0.024133679716719356,0.0791812460476248,1.8395061728395063,15.0,3.4555555555555557,3.0,0.0,15.0,0.024133679716719356,0.03571555226653452,0.04699656267622356,0.06871581236945984,0.0848017868975521,2.535860163049576,311.0,2.820690098035044
96,2011-05-05,STORE_2_085,2.0,0,0,-0.04458213265274048,-0.08916426530548097,0.06871581236945984,0.057991946977686754,,0.024133679716719356,,0.012234456417011626,0.04699656267622356,1.8466666666666665,15.0,3.433333333333333,3.0,0.0,15.0,0.024133679716719356,0.03571555226653452,0.04699656267622356,0.06871581236945984,0.0848017868975521,2.5397956212563266,309.0,2.8075602551479335
97,2011-05-06,STORE_2_085,2.0,0,0,0.0,0.04458213265274048,0.024133679716719356,0.03571555226653452,,0.03571555226653452,,0.03571555226653452,0.057991946977686754,1.8399999999999999,15.0,3.4,3.0,0.0,15.0,0.024133679716719356,0.03571555226653452,0.04699656267622356,0.06871581236945984,0.0848017868975521,2.5386893902611876,306.0,2.794430412260823
98,2011-05-07,STORE_2_085,3.000000000000001,0,0,0.011581872549815166,0.011581872549815166,0.024133679716719356,0.024133679716719356,,0.06871581236945984,,0.012234456417011626,0.03571555226653452,1.8399999999999996,15.0,3.4,3.0,0.0,15.0,0.024133679716719356,0.03571555226653452,0.04699656267622356,0.06871581236945984,0.0848017868975521,2.5386893902611876,306.0,2.7813005693737125
99,2011-05-08,STORE_2_085,7.0,0,0,0.04346569378109028,0.03188382123127512,0.03571555226653452,0.08940041122931086,,0.024133679716719356,,0.04699656267622356,0.0791812460476248,1.8399999999999999,15.0,3.4,3.0,0.0,15.0,0.024133679716719356,0.03571555226653452,0.04699656267622356,0.06871581236945984,0.0848017868975521,2.5386893902611876,306.0,2.768170726486602
100,2011-05-09,STORE_2_085,2.0,0,0,-0.05504756633090545,-0.09851326011199574,0.0791812460476248,0.06871581236945984,,0.03571555226653452,,0.012234456417011626,0.04699656267622356,1.8449382716049387,15.0,3.3777777777777778,3.0,0.0,15.0,0.024133679716719356,0.03571555226653452,0.04699656267622356,0.06871581236945984,0.0848017868975521,2.5421294169523176,304.0,2.7550408835994915
101,2011-05-10,STORE_2_085,3.000000000000001,0,0,0.011581872549815166,0.06662943888072062,0.024133679716719356,0.024133679716719356,,0.012234456417011626,,0.024133679716719356,0.04699656267622356,1.8399999999999996,15.0,3.3666666666666667,3.0,0.0,15.0,0.024133679716719356,0.03571555226653452,0.04699656267622356,0.06871581236945984,0.0848017868975521,2.5415645893421144,303.0,2.741911040712381
102,2011-05-11,STORE_2_085,1.0,0,0,-0.023481095849522897,-0.03506296839933806,0.03571555226653452,0.024133679716719356,,0.012234456417011626,,0.06871581236945984,0.03571555226653452,1.857777777777778,15.0,3.3444444444444446,3.0,0.0,15.0,0.024133679716719356,0.03571555226653452,0.04699656267622356,0.06871581236945984,0.0848017868975521,2.553521961329344,301.0,2.7287811978252705
103,2011-05-12,STORE_2_085,6.0,0,0,0.056481355952448214,0.07996245180197112,0.012234456417011626,0.012234456417011626,,0.03571555226653452,,0.024133679716719356,0.0791812460476248,1.844444444444444,15.0,3.3333333333333335,3.0,0.0,15.0,0.024133679716719356,0.03571555226653452,0.04699656267622356,0.06871581236945984,0.0848017868975521,2.5395744136069704,300.0,2.71565135493816
104,2011-05-13,STORE_2_085,0.0,0,0,-0.06871581236945984,-0.12519716832190805,0.06871581236945984,0.03571555226653452,,0.04699656267622356,,0.024133679716719356,0.024133679716719356,1.862222222222223,15.0,3.311111111111111,3.0,0.0,15.0,0.024133679716719356,0.03571555226653452,0.04699656267622356,0.06871581236945984,0.0848017868975521,2.560040573960615,298.0,2.7025215120510495
105,2011-05-14,STORE_2_085,7.0,0,0,0.0791812460476248,0.14789705841708464,0.0,0.012234456417011626,,0.06871581236945984,,0.03571555226653452,0.03571555226653452,1.9076543209876542,15.0,3.3555555555555556,3.0,0.0,15.0,0.024133679716719356,0.03571555226653452,0.04699656267622356,0.06871581236945984,0.0848017868975521,2.589135082302001,302.0,2.689391669163939
106,2011-05-15,STORE_2_085,1.0,0,0,-0.06694678963061318,-0.14612803567823798,0.0791812460476248,0.04699656267622356,,0.04699656267622356,,0.0791812460476248,0.1280298135854418,1.813333333333334,15.0,3.2333333333333334,3.0,0.0,15.0,0.024133679716719356,0.03571555226653452,0.04699656267622356,0.06871581236945984,0.0791812460476248,2.431303344927609,291.0,2.6762618262768285
107,2011-05-16,STORE_2_085,3.000000000000001,0,0,0.023481095849522897,0.09042788548013608,0.012234456417011626,0.012234456417011626,,0.03571555226653452,,0.024133679716719356,0.06871581236945984,1.7777777777777781,15.0,3.2,3.0,0.0,15.0,0.024133679716719356,0.03571555226653452,0.04699656267622356,0.06871581236945984,0.0791812460476248,2.4134454833543666,288.0,2.663131983389718
108,2011-05-17,STORE_2_085,1.0,0,0,-0.023481095849522897,-0.046962191699045794,0.03571555226653452,0.024133679716719356,,0.057991946977686754,,0.03571555226653452,0.04699656267622356,1.7851851851851854,15.0,3.1666666666666665,3.0,0.0,15.0,0.015209262241938559,0.03571555226653452,0.04699656267622356,0.06871581236945984,0.0791812460476248,2.4229705976040927,285.0,2.6500021405026075
109,2011-05-18,STORE_2_085,1.0,0,0,0.0,0.023481095849522897,0.012234456417011626,0.06871581236945984,,0.012234456417011626,,0.012234456417011626,0.057991946977686754,1.777037037037037,15.0,3.1222222222222222,3.0,0.0,15.0,0.012234456417011626,0.03571555226653452,0.04699656267622356,0.06871581236945984,0.0791812460476248,2.425648426120545,281.0,2.636872297615497
110,2011-05-19,STORE_2_085,0.0,0,0,-0.012234456417011626,-0.012234456417011626,0.012234456417011626,0.024133679716719356,,0.03571555226653452,,0.06871581236945984,0.024133679716719356,1.7933333333333328,15.0,3.1,3.0,0.0,15.0,0.012234456417011626,0.03571555226653452,0.04699656267622356,0.06871581236945984,0.0791812460476248,2.4451281531636044,279.0,2.6237424547283865
111,2011-05-20,STORE_2_085,1.0,0,0,0.012234456417011626,0.024468912834023252,0.0,0.024133679716719356,,0.04699656267622356,,0.0,0.04699656267622356,1.7970370370370365,15.0,3.066666666666667,3.0,0.0,15.0,0.012234456417011626,0.03571555226653452,0.04699656267622356,0.06871581236945984,0.0791812460476248,2.4531566456485994,276.0,2.610612611841276
112,2011-05-21,STORE_2_085,2.0,0,0,0.01189922329970773,-0.0003352331173038965,0.012234456417011626,0.03571555226653452,,0.057991946977686754,,0.0791812460476248,0.03571555226653452,1.8049382716049385,15.0,3.0555555555555554,3.0,0.0,15.0,0.012234456417011626,0.03571555226653452,0.04699656267622356,0.06871581236945984,0.0791812460476248,2.455725303559383,275.0,2.5974827689541655
113,2011-05-22,STORE_2_085,1.0,0,0,-0.01189922329970773,-0.02379844659941546,0.024133679716719356,0.0791812460476248,,0.03571555226653452,,0.012234456417011626,0.03571555226653452,1.82074074074074,15.0,3.033333333333333,3.0,0.0,15.0,0.012234456417011626,0.03571555226653452,0.04699656267622356,0.06871581236945984,0.0791812460476248,2.4652643042659026,273.0,2.584352926067055
114,2011-05-23,STORE_2_085,5.000000000000001,0,0,0.04575749056067513,0.05765671386038286,0.012234456417011626,0.024133679716719356,,0.024133679716719356,,0.03571555226653452,0.04699656267622356,1.8350617283950625,15.0,3.0444444444444443,3.0,0.0,15.0,0.012234456417011626,0.03571555226653452,0.04699656267622356,0.06871581236945984,0.0791812460476248,2.471914652135203,274.0,2.5712230831799445
115,2011-05-24,STORE_2_085,2.0,0,0,-0.0338582672609674,-0.07961575782164253,0.057991946977686754,0.03571555226653452,,0.08940041122931086,,0.012234456417011626,0.04699656267622356,1.8291358024691362,15.0,3.022222222222222,2.5,0.0,15.0,0.012234456417011626,0.02992461599162694,0.04699656267622356,0.06871581236945984,0.0791812460476248,2.4722176633099124,272.0,2.558093240292834
116,2011-05-25,STORE_2_085,2.0,0,0,0.0,0.0338582672609674,0.024133679716719356,0.012234456417011626,,0.06871581236945984,,0.012234456417011626,0.0,1.813827160493828,15.0,3.0444444444444443,2.5,0.0,15.0,0.012234456417011626,0.02992461599162694,0.04699656267622356,0.06871581236945984,0.0791812460476248,2.453665504299896,274.0,2.5449633974057235
117,2011-05-26,STORE_2_085,1.0,0,0,-0.01189922329970773,-0.01189922329970773,0.024133679716719356,0.06871581236945984,,0.024133679716719356,,0.0,0.09938463213591175,1.7545679012345683,15.0,2.9555555555555557,2.0,0.0,15.0,0.012234456417011626,0.024133679716719356,0.04699656267622356,0.06871581236945984,0.0791812460476248,2.379269603301297,266.0,2.531833554518613
118,2011-05-27,STORE_2_085,8.0,0,0,0.07716595481229924,0.08906517811200697,0.012234456417011626,0.0,,0.024133679716719356,,0.012234456417011626,0.03571555226653452,1.8145679012345681,15.0,3.011111111111111,2.0,0.0,15.0,0.012234456417011626,0.024133679716719356,0.04699656267622356,0.06871581236945984,0.0791812460476248,2.4379695200666545,271.0,2.5187037116315025
119,2011-05-28,STORE_2_085,4.0,0,0,-0.0424038485530873,-0.11956980336538653,0.08940041122931086,0.0791812460476248,,0.012234456417011626,,0.024133679716719356,0.03571555226653452,1.8286419753086423,15.0,3.022222222222222,2.0,0.0,15.0,0.012234456417011626,0.024133679716719356,0.04699656267622356,0.06871581236945984,0.0791812460476248,2.4401960585155873,272.0,2.505573868744392
120,2011-05-29,STORE_2_085,0.0,0,0,-0.04699656267622356,-0.004592714123136263,0.04699656267622356,0.012234456417011626,,0.03571555226653452,,0.012234456417011626,0.012234456417011626,1.8365432098765428,15.0,3.011111111111111,2.0,0.0,15.0,0.012234456417011626,0.024133679716719356,0.04699656267622356,0.06871581236945984,0.0791812460476248,2.4517567397911058,271.0,2.4924440258572815
121,2011-05-30,STORE_2_085,1.0,1,0,0.012234456417011626,0.059231019093235186,0.0,0.03571555226653452,,0.012234456417011626,,0.057991946977686754,0.04699656267622356,1.8434567901234566,15.0,2.977777777777778,2.0,0.0,15.0,0.012234456417011626,0.024133679716719356,0.04699656267622356,0.06871581236945984,0.0791812460476248,2.458545188611437,268.0,2.479314182970171
122,2011-05-31,STORE_2_085,0.0,0,0,-0.012234456417011626,-0.024468912834023252,0.012234456417011626,0.012234456417011626,,0.04699656267622356,,0.024133679716719356,0.06871581236945984,1.8385185185185182,15.0,2.911111111111111,2.0,0.0,15.0,0.012234456417011626,0.024133679716719356,0.04699656267622356,0.06871581236945984,0.0791812460476248,2.457021328303913,262.0,2.4661843400830605
123,2011-06-01,STORE_2_085,0.0,0,0,0.0,0.012234456417011626,0.0,0.012234456417011626,,0.012234456417011626,,0.024133679716719356,0.04699656267622356,1.854814814814815,15.0,2.8666666666666667,2.0,0.0,15.0,0.012234456417011626,0.024133679716719356,0.04699656267622356,0.06871581236945984,0.0791812460476248,2.473227432442125,258.0,2.4530544971959785
124,2011-06-02,STORE_2_085,1.0,0,0,0.012234456417011626,0.012234456417011626,0.0,0.0,,0.024133679716719356,,0.012234456417011626,0.03571555226653452,1.8716049382716047,15.0,2.8444444444444446,2.0,0.0,15.0,0.012234456417011626,0.024133679716719356,0.04699656267622356,0.06871581236945984,0.0791812460476248,2.4809888890652894,256.0,2.439924654308868
125,2011-06-03,STORE_2_085,6.0,0,0,0.056481355952448214,0.04424689953543659,0.012234456417011626,0.012234456417011626,,0.06871581236945984,,0.08940041122931086,0.04699656267622356,1.8962962962962968,15.0,2.8666666666666667,2.0,0.0,15.0,0.012234456417011626,0.024133679716719356,0.04699656267622356,0.06871581236945984,0.0791812460476248,2.500337055930345,258.0,2.4267948114217575
126,2011-06-04,STORE_2_085,3.000000000000001,0,0,-0.03300026010292532,-0.08948161605537353,0.06871581236945984,0.024133679716719356,,0.024133679716719356,,0.04699656267622356,0.06871581236945984,1.85925925925926,15.0,2.8333333333333335,2.0,0.0,15.0,0.012234456417011626,0.024133679716719356,0.04699656267622356,0.06871581236945984,0.0791812460476248,2.4779930262618266,255.0,2.413664968534647
127,2011-06-05,STORE_2_085,3.000000000000001,0,0,0.0,0.03300026010292532,0.03571555226653452,0.012234456417011626,,0.024133679716719356,,0.0,0.024133679716719356,1.8528395061728387,15.0,2.8444444444444446,2.0,0.0,15.0,0.012234456417011626,0.024133679716719356,0.04699656267622356,0.06871581236945984,0.0791812460476248,2.476455926834366,256.0,2.4005351256475365
128,2011-06-06,STORE_2_085,2.0,0,0,-0.011581872549815166,-0.011581872549815166,0.03571555226653452,0.057991946977686754,,0.03571555226653452,,0.012234456417011626,0.012234456417011626,1.842716049382716,15.0,2.8555555555555556,2.0,0.0,15.0,0.012234456417011626,0.024133679716719356,0.04699656267622356,0.06871581236945984,0.0791812460476248,2.4703232336885335,257.0,2.387405282760426
129,2011-06-07,STORE_2_085,1.0,0,0,-0.01189922329970773,-0.00031735074989256394,0.024133679716719356,0.024133679716719356,,0.0791812460476248,,0.0,0.0,1.8325925925925932,15.0,2.8666666666666667,2.0,0.0,15.0,0.012234456417011626,0.024133679716719356,0.04699656267622356,0.06871581236945984,0.0791812460476248,2.4595605709653072,258.0,2.3742754398733155
130,2011-06-08,STORE_2_085,0.0,0,0,-0.012234456417011626,-0.0003352331173038965,0.012234456417011626,0.024133679716719356,,0.024133679716719356,,0.0,0.024133679716719356,1.8528395061728389,15.0,2.8444444444444446,2.0,0.0,15.0,0.012234456417011626,0.024133679716719356,0.04699656267622356,0.06871581236945984,0.0791812460476248,2.4764559268343658,256.0,2.361145596986205
131,2011-06-09,STORE_2_085,0.0,0,0,0.0,0.012234456417011626,0.0,0.012234456417011626,,0.03571555226653452,,0.012234456417011626,0.08940041122931086,1.8172839506172838,15.0,2.7555555555555555,2.0,0.0,15.0,0.012234456417011626,0.024133679716719356,0.04699656267622356,0.06871581236945984,0.0791812460476248,2.432509736974224,248.0,2.3480157540990945
132,2011-06-10,STORE_2_085,0.0,0,0,0.0,0.0,0.0,0.08940041122931086,,0.012234456417011626,,0.06871581236945984,0.057991946977686754,1.8155555555555554,15.0,2.7,2.0,0.0,15.0,0.012234456417011626,0.024133679716719356,0.04699656267622356,0.06871581236945984,0.0791812460476248,2.4377646788017673,243.0,2.334885911211984
133,2011-06-11,STORE_2_085,8.0,0,0,0.08940041122931086,0.08940041122931086,0.0,0.04699656267622356,,0.06871581236945984,,0.03571555226653452,0.012234456417011626,1.8641975308641978,15.0,2.7777777777777777,2.0,0.0,15.0,0.012234456417011626,0.024133679716719356,0.04699656267622356,0.06871581236945984,0.0791812460476248,2.4939377184125617,250.0,2.3217560683248735
134,2011-06-12,STORE_2_085,3.000000000000001,0,0,-0.05368485896277634,-0.1430852701920872,0.08940041122931086,0.0,,0.0,,0.03571555226653452,0.024133679716719356,1.8590123456790122,15.0,2.7888888888888888,2.0,0.0,15.0,0.012234456417011626,0.024133679716719356,0.04699656267622356,0.06871581236945984,0.0791812460476248,2.49266088791122,251.0,2.308626225437763
135,2011-06-13,STORE_2_085,7.0,0,0,0.04346569378109028,0.09715055274386662,0.03571555226653452,0.012234456417011626,,0.0791812460476248,,0.024133679716719356,0.0,1.8800000000000006,15.0,2.8666666666666667,2.0,0.0,15.0,0.012234456417011626,0.024133679716719356,0.04699656267622356,0.06871581236945984,0.0791812460476248,2.513782234720324,258.0,2.2954963825506525
136,2011-06-14,STORE_2_085,1.0,0,0,-0.06694678963061318,-0.11041248341170345,0.0791812460476248,0.0,,0.012234456417011626,,0.012234456417011626,0.012234456417011626,1.8800000000000006,15.0,2.8666666666666667,2.0,0.0,15.0,0.012234456417011626,0.024133679716719356,0.04699656267622356,0.06871581236945984,0.0791812460476248,2.513782234720324,258.0,2.282366539663542
137,2011-06-15,STORE_2_085,1.0,0,0,0.0,0.06694678963061318,0.012234456417011626,0.0,,0.03571555226653452,,0.0,0.04699656267622356,1.885185185185186,15.0,2.8333333333333335,2.0,0.0,15.0,0.012234456417011626,0.024133679716719356,0.04699656267622356,0.06871581236945984,0.0791812460476248,2.5184710896124023,255.0,2.2692366967764315
138,2011-06-16,STORE_2_085,2.0,0,0,0.01189922329970773,0.01189922329970773,0.012234456417011626,0.012234456417011626,,0.012234456417011626,,0.0,0.0,1.864938271604938,15.0,2.8555555555555556,2.0,0.0,15.0,0.012234456417011626,0.024133679716719356,0.04699656267622356,0.06871581236945984,0.0791812460476248,2.501959282180244,257.0,2.256106853889321
139,2011-06-17,STORE_2_085,3.000000000000001,0,0,0.011581872549815166,-0.00031735074989256394,0.024133679716719356,0.06871581236945984,,0.012234456417011626,,0.0,0.057991946977686754,1.8407407407407412,15.0,2.8333333333333335,2.0,0.0,15.0,0.012234456417011626,0.024133679716719356,0.04699656267622356,0.06871581236945984,0.0791812460476248,2.4915587828785664,255.0,2.2429770110022105
140,2011-06-18,STORE_2_085,5.000000000000001,0,1,0.022276394711152232,0.010694522161337067,0.03571555226653452,0.03571555226653452,,0.0,,0.08940041122931086,0.04699656267622356,1.8528395061728387,15.0,2.8444444444444446,2.0,0.0,15.0,0.012234456417011626,0.024133679716719356,0.04699656267622356,0.06871581236945984,0.0791812460476248,2.4990385167329556,256.0,7.5282582592328176
141,2011-06-19,STORE_2_085,5.000000000000001,0,1,0.0,-0.022276394711152232,0.057991946977686754,0.03571555226653452,,0.012234456417011626,,0.03571555226653452,0.04699656267622356,1.864938271604938,15.0,2.8555555555555556,2.0,0.0,15.0,0.012234456417011626,0.024133679716719356,0.04699656267622356,0.06871581236945984,0.0791812460476248,2.506446121463663,257.0,7.529928053167492
142,2011-06-20,STORE_2_085,2.0,0,1,-0.0338582672609674,-0.0338582672609674,0.057991946977686754,0.024133679716719356,,0.024133679716719356,,0.0791812460476248,0.04699656267622356,1.85925925925926,15.0,2.8333333333333335,2.0,0.0,15.0,0.012234456417011626,0.024133679716719356,0.04699656267622356,0.06871581236945984,0.0791812460476248,2.5050510770993077,255.0,7.531597847102162
143,2011-06-21,STORE_2_085,4.0,0,1,0.022862882959504206,0.056721150220471604,0.024133679716719356,0.012234456417011626,,0.012234456417011626,,0.012234456417011626,0.012234456417011626,1.8548148148148156,15.0,2.8666666666666667,2.0,0.0,15.0,0.012234456417011626,0.024133679716719356,0.04699656267622356,0.06871581236945984,0.0791812460476248,2.500337055930345,258.0,7.533267641036836
144,2011-06-22,STORE_2_085,7.0,0,1,0.03218468337140124,0.009321800411897035,0.04699656267622356,0.0,,0.057991946977686754,,0.012234456417011626,0.0791812460476248,1.8548148148148151,15.0,2.8666666666666667,2.0,0.0,15.0,0.012234456417011626,0.024133679716719356,0.04699656267622356,0.06871581236945984,0.0791812460476248,2.500337055930345,258.0,7.534937434971511
145,2011-06-23,STORE_2_085,4.0,0,1,-0.03218468337140124,-0.06436936674280248,0.0791812460476248,0.0,,0.024133679716719356,,0.024133679716719356,0.012234456417011626,1.848888888888889,15.0,2.9,2.0,0.0,15.0,0.012234456417011626,0.024133679716719356,0.04699656267622356,0.06871581236945984,0.0791812460476248,2.495163861679071,261.0,7.536607228906185
146,2011-06-24,STORE_2_085,9.999999999999998,0,1,0.06214790674884444,0.09433259012024568,0.04699656267622356,0.0,,0.024133679716719356,,0.03571555226653452,0.024133679716719356,1.9217283950617292,15.0,2.988888888888889,2.0,0.0,15.0,0.012234456417011626,0.024133679716719356,0.04699656267622356,0.06976235573727642,0.0848017868975521,2.6029129941147353,269.0,7.538277022840859
147,2011-06-25,STORE_2_085,6.0,0,1,-0.040428657055608164,-0.1025765638044526,0.109144469425068,0.08940041122931086,,0.012234456417011626,,0.057991946977686754,0.024133679716719356,1.9562962962962953,15.0,3.033333333333333,2.0,0.0,15.0,0.012234456417011626,0.024133679716719356,0.04699656267622356,0.06976235573727642,0.0848017868975521,2.6199322403108503,273.0,7.539946816775533
148,2011-06-26,STORE_2_085,3.000000000000001,0,1,-0.03300026010292532,0.007428396952682846,0.06871581236945984,0.03571555226653452,,0.08940041122931086,,0.057991946977686754,0.0,1.934814814814814,15.0,3.066666666666667,2.5,0.0,15.0,0.012234456417011626,0.02992461599162694,0.04699656267622356,0.06976235573727642,0.0848017868975521,2.599913568139863,276.0,7.541616610710204
149,2011-06-27,STORE_2_085,3.000000000000001,0,1,0.0,0.03300026010292532,0.03571555226653452,0.0791812460476248,,0.04699656267622356,,0.024133679716719356,0.15490195998574313,1.7777777777777777,10.0,2.933333333333333,2.5,0.0,10.0,0.012234456417011626,0.02992461599162694,0.04699656267622356,0.06871581236945984,0.0791812460476248,2.267503700924844,264.0,7.543286404644878
150,2011-06-28,STORE_2_085,8.0,0,1,0.05368485896277634,0.05368485896277634,0.03571555226653452,0.012234456417011626,,0.0,,0.04699656267622356,0.0,1.8079012345679015,10.0,3.022222222222222,3.0,0.0,10.0,0.012234456417011626,0.03571555226653452,0.04699656267622356,0.06976235573727642,0.0848017868975521,2.3076705399274267,272.0,7.544956198579552
151,2011-06-29,STORE_2_085,19.0,0,1,0.09892530424338195,0.045240445280605605,0.08940041122931086,0.012234456417011626,,0.012234456417011626,,0.0791812460476248,0.0,2.022222222222221,19.0,3.2333333333333334,3.0,0.0,19.0,0.012234456417011626,0.03571555226653452,0.04699656267622356,0.0791812460476248,0.08940041122931086,2.83655908024676,291.0,7.546625992514226
152,2011-06-30,STORE_2_085,13.000000000000004,0,1,-0.05115252244738125,-0.1500778266907632,0.1883257154726928,0.024133679716719356,,0.0,,0.04699656267622356,0.024133679716719356,2.155061728395061,19.0,3.3555555555555556,3.0,0.0,19.0,0.012234456417011626,0.03571555226653452,0.05524310090232096,0.0791812460476248,0.08940041122931086,3.014240027986677,302.0,7.5482957864489
153,2011-07-01,STORE_2_085,13.000000000000004,0,1,0.0,0.05115252244738125,0.13717319302531156,0.03571555226653452,,0.0,,0.109144469425068,0.024133679716719356,2.2824691358024705,19.0,3.477777777777778,3.0,0.0,19.0,0.012234456417011626,0.03571555226653452,0.057991946977686754,0.0791812460476248,0.08940041122931086,3.1772639553863393,313.0,7.549965580383574
154,2011-07-02,STORE_2_085,15.0,0,1,0.017728766960431575,0.017728766960431575,0.13717319302531156,0.057991946977686754,,0.012234456417011626,,0.06871581236945984,0.04699656267622356,2.439999999999998,19.0,3.6,3.0,0.0,19.0,0.012234456417011626,0.03571555226653452,0.057991946977686754,0.08020316256579349,0.10025964323697723,3.401255551387265,324.0,7.551635374318245
155,2011-07-03,STORE_2_085,14.0,0,1,-0.008773924307505149,-0.026502691267936723,0.15490195998574313,0.057991946977686754,,0.06871581236945984,,0.03571555226653452,0.03571555226653452,2.5814814814814833,19.0,3.7222222222222223,3.0,0.0,19.0,0.012234456417011626,0.03571555226653452,0.057991946977686754,0.08940041122931086,0.12456026740520187,3.57276771754694,335.0,7.553305168252919
156,2011-07-04,STORE_2_085,4.0,1,1,-0.09913147300201441,-0.09035754869450927,0.14612803567823798,0.024133679716719356,,0.03571555226653452,,0.03571555226653452,0.024133679716719356,2.570864197530863,19.0,3.7444444444444445,3.0,0.0,19.0,0.012234456417011626,0.03571555226653452,0.057991946977686754,0.08940041122931086,0.12456026740520187,3.5681522335863747,337.0,7.554974962187593
157,2011-07-05,STORE_2_085,5.000000000000001,0,1,0.010995384301463192,0.1101268573034776,0.04699656267622356,0.04699656267622356,,0.03571555226653452,,0.08940041122931086,0.03571555226653452,2.581481481481484,19.0,3.7666666666666666,3.0,0.0,19.0,0.012234456417011626,0.03571555226653452,0.057991946977686754,0.08940041122931086,0.12456026740520187,3.569691391312909,339.0,7.556644756122267
158,2011-07-06,STORE_2_085,5.000000000000001,0,1,0.0,-0.010995384301463192,0.057991946977686754,0.0791812460476248,,0.024133679716719356,,0.1883257154726928,0.06871581236945984,2.5679012345679024,19.0,3.7555555555555555,3.0,0.0,19.0,0.012234456417011626,0.03571555226653452,0.057991946977686754,0.08940041122931086,0.12456026740520187,3.564213864852528,338.0,7.5583145500569415
159,2011-07-07,STORE_2_085,9.0,0,1,0.041392685158225,0.041392685158225,0.057991946977686754,0.04699656267622356,,0.012234456417011626,,0.13717319302531156,0.024133679716719356,2.622222222222224,19.0,3.8333333333333335,3.0,0.0,19.0,0.012234456417011626,0.03571555226653452,0.057991946977686754,0.08940041122931086,0.12456026740520187,3.601653802402384,345.0,7.559984343991612
160,2011-07-08,STORE_2_085,17.0,0,1,0.07255066714861172,0.03115798199038672,0.09938463213591175,0.109144469425068,,0.0,,0.13717319302531156,0.03571555226653452,2.786913580246911,19.0,3.988888888888889,3.0,0.0,19.0,0.012234456417011626,0.03571555226653452,0.057991946977686754,0.08940041122931086,0.13717319302531156,3.8584343464018063,359.0,7.561654137926286
161,2011-07-09,STORE_2_085,15.999999999999998,0,1,-0.008433167536862796,-0.08098383468547452,0.17193529928452347,0.06871581236945984,,0.0,,0.15490195998574313,0.012234456417011626,2.9407407407407447,19.0,4.155555555555556,3.0,0.0,19.0,0.012234456417011626,0.03571555226653452,0.06603484602151657,0.09039883331997103,0.14209835648442107,4.047224353651402,374.0,7.56332393186096
162,2011-07-10,STORE_2_085,8.0,0,1,-0.07410172051834982,-0.06566855298148702,0.16350213174766068,0.03571555226653452,,0.0,,0.14612803567823798,0.012234456417011626,2.9725925925925885,19.0,4.233333333333333,3.0,0.0,19.0,0.012234456417011626,0.03571555226653452,0.06871581236945984,0.09039883331997103,0.14209835648442107,4.053158014146554,381.0,7.564993725795635
163,2011-07-11,STORE_2_085,5.000000000000001,0,1,-0.03140846425162411,0.04269325626672571,0.08940041122931086,0.03571555226653452,,0.08940041122931086,,0.04699656267622356,0.03571555226653452,2.973827160493827,19.0,4.2555555555555555,3.0,0.0,19.0,0.012234456417011626,0.03571555226653452,0.06871581236945984,0.09039883331997103,0.14209835648442107,4.051802514989398,383.0,7.566663519730309
164,2011-07-12,STORE_2_085,20.000000000000007,0,1,0.13830269816628143,0.16971116241790554,0.057991946977686754,0.08940041122931086,,0.03571555226653452,,0.057991946977686754,0.04699656267622356,3.1933333333333342,20.0,4.433333333333334,3.0,0.0,20.0,0.012234456417011626,0.03571555226653452,0.06871581236945984,0.10036061586482746,0.15095369404736578,4.378317361880965,399.0,7.568333313664983
165,2011-07-13,STORE_2_085,9.999999999999998,0,1,-0.08715017571890019,-0.22545287388518162,0.1962946451439682,0.1883257154726928,,0.0791812460476248,,0.057991946977686754,0.06871581236945984,3.249629629629631,20.0,4.477777777777778,3.0,0.0,20.0,0.012234456417011626,0.03571555226653452,0.06871581236945984,0.109144469425068,0.15095369404736578,4.414551468627762,403.0,7.5700031075996534
166,2011-07-14,STORE_2_085,1.0,0,1,-0.09691001300805638,-0.009759837289156192,0.109144469425068,0.13717319302531156,,0.012234456417011626,,0.09938463213591175,0.04699656267622356,3.2740740740740795,20.0,4.444444444444445,3.0,0.0,20.0,0.012234456417011626,0.03571555226653452,0.06871581236945984,0.109144469425068,0.15095369404736578,4.429500469239309,400.0,7.571672901534328
167,2011-07-15,STORE_2_085,6.0,0,1,0.056481355952448214,0.1533913689605046,0.012234456417011626,0.13717319302531156,,0.012234456417011626,,0.17193529928452347,0.03571555226653452,3.2834567901234584,20.0,4.477777777777778,3.0,0.0,20.0,0.012234456417011626,0.03571555226653452,0.06871581236945984,0.109144469425068,0.15095369404736578,4.429796398237474,403.0,7.573342695469002
168,2011-07-16,STORE_2_085,14.0,0,1,0.07741222330877814,0.02093086735632993,0.06871581236945984,0.15490195998574313,,0.024133679716719356,,0.16350213174766068,0.057991946977686754,3.407901234567903,20.0,4.5777777777777775,3.0,0.0,20.0,0.012234456417011626,0.03571555226653452,0.06871581236945984,0.1119473417850926,0.15095369404736578,4.541884422501942,412.0,7.575012489403676
169,2011-07-17,STORE_2_085,9.999999999999998,0,1,-0.03698356625316998,-0.11439578956194812,0.14612803567823798,0.14612803567823798,,0.03571555226653452,,0.08940041122931086,0.012234456417011626,3.450617283950621,20.0,4.677777777777778,3.0,0.0,20.0,0.012234456417011626,0.03571555226653452,0.06871581236945984,0.1119473417850926,0.15095369404736578,4.561262829715891,421.0,7.57668228333835
170,2011-07-18,STORE_2_085,3.000000000000001,0,1,-0.07342891715853347,-0.036445350905363494,0.109144469425068,0.04699656267622356,,0.057991946977686754,,0.057991946977686754,0.03571555226653452,3.450617283950621,20.0,4.677777777777778,3.0,0.0,20.0,0.012234456417011626,0.03571555226653452,0.06871581236945984,0.1119473417850926,0.15095369404736578,4.561262829715891,421.0,7.578352077273024
171,2011-07-19,STORE_2_085,4.0,0,1,0.01128101040968904,0.08470992756822252,0.03571555226653452,0.057991946977686754,,0.057991946977686754,,0.1962946451439682,0.04699656267622356,3.45061728395062,20.0,4.677777777777778,3.0,0.0,20.0,0.012234456417011626,0.03571555226653452,0.06871581236945984,0.1119473417850926,0.15095369404736578,4.561262829715891,421.0,7.580021871207695
172,2011-07-20,STORE_2_085,5.000000000000001,0,1,0.010995384301463192,-0.00028562610822584905,0.04699656267622356,0.057991946977686754,,0.024133679716719356,,0.109144469425068,0.057991946977686754,3.450617283950621,20.0,4.677777777777778,3.0,0.0,20.0,0.012234456417011626,0.03571555226653452,0.06871581236945984,0.1119473417850926,0.15095369404736578,4.561262829715891,421.0,7.581691665142369
173,2011-07-21,STORE_2_085,9.0,0,1,0.041392685158225,0.03039730085676181,0.057991946977686754,0.09938463213591175,,0.04699656267622356,,0.012234456417011626,0.03571555226653452,3.4933333333333354,20.0,4.7444444444444445,3.0,0.0,20.0,0.012234456417011626,0.03571555226653452,0.07656488762808356,0.1119473417850926,0.15095369404736578,4.580273067545582,427.0,7.583361459077043
174,2011-07-22,STORE_2_085,6.0,0,1,-0.030668819766451916,-0.07206150492467692,0.09938463213591175,0.17193529928452347,,0.0791812460476248,,0.06871581236945984,0.024133679716719356,3.484691358024692,20.0,4.788888888888889,3.0,0.0,20.0,0.012234456417011626,0.03571555226653452,0.07656488762808356,0.1119473417850926,0.15095369404736578,4.5727439809818256,431.0,7.585031253011717
175,2011-07-23,STORE_2_085,11.0,0,1,0.04997397496183857,0.08064279472829049,0.06871581236945984,0.16350213174766068,,0.04699656267622356,,0.14612803567823798,0.08940041122931086,3.5239506172839463,20.0,4.822222222222222,3.0,0.0,20.0,0.012234456417011626,0.03571555226653452,0.07656488762808356,0.12053812790069988,0.15095369404736578,4.607219000259762,434.0,7.586701046946391
176,2011-07-24,STORE_2_085,5.000000000000001,0,1,-0.06069784035361166,-0.11067181531545023,0.11868978733129841,0.08940041122931086,,0.109144469425068,,0.109144469425068,0.06871581236945984,3.510864197530866,20.0,4.811111111111111,3.0,0.0,20.0,0.012234456417011626,0.03571555226653452,0.07656488762808356,0.12053812790069988,0.15095369404736578,4.605552204797067,433.0,7.5883708408810655
177,2011-07-25,STORE_2_085,8.0,0,1,0.03140846425162411,0.09210630460523576,0.057991946977686754,0.057991946977686754,,0.06871581236945984,,0.03571555226653452,0.024133679716719356,3.5254320987654313,20.0,4.877777777777778,3.0,0.0,20.0,0.012234456417011626,0.03571555226653452,0.0791812460476248,0.12053812790069988,0.15095369404736578,4.607828652834503,439.0,7.590040634815736
178,2011-07-26,STORE_2_085,5.000000000000001,0,1,-0.03140846425162411,-0.06281692850324821,0.08940041122931086,0.1962946451439682,,0.03571555226653452,,0.04699656267622356,0.024133679716719356,3.4992592592592544,20.0,4.911111111111111,3.5,0.0,20.0,0.012234456417011626,0.04135605747137904,0.0791812460476248,0.12053812790069988,0.15095369404736578,4.597616491536233,442.0,7.59171042875041
179,2011-07-27,STORE_2_085,7.0,0,1,0.02118929906993805,0.05259776332156216,0.057991946977686754,0.109144469425068,,0.03571555226653452,,0.057991946977686754,0.012234456417011626,3.4864197530864196,20.0,4.977777777777778,4.0,0.0,20.0,0.015209262241938559,0.04699656267622356,0.0791812460476248,0.12053812790069988,0.15095369404736578,4.5837470021016555,448.0,7.593380222685084
180,2011-07-28,STORE_2_085,2.0,0,1,-0.05504756633090545,-0.0762368654008435,0.0791812460476248,0.012234456417011626,0.03571555226653452,0.08940041122931086,,0.09938463213591175,0.03571555226653452,3.496296296296293,20.0,4.966666666666667,4.0,0.0,20.0,0.015209262241938559,0.04699656267622356,0.0791812460476248,0.12053812790069988,0.15095369404736578,4.589803060571494,447.0,7.5950500166197585
181,2011-07-29,STORE_2_085,4.0,0,1,0.022862882959504206,0.07791044929040966,0.024133679716719356,0.06871581236945984,0.08940041122931086,0.1883257154726928,,0.06871581236945984,0.012234456417011626,3.466666666666667,20.0,5.0,4.0,0.0,20.0,0.024133679716719356,0.04699656267622356,0.0791812460476248,0.12053812790069988,0.15095369404736578,4.571528891355099,450.0,7.596719810554433
182,2011-07-30,STORE_2_085,3.000000000000001,0,1,-0.01128101040968904,-0.03414389336919325,0.04699656267622356,0.14612803567823798,0.0,0.13717319302531156,,0.11868978733129841,0.04699656267622356,3.4765432098765405,20.0,4.988888888888889,4.0,0.0,20.0,0.024133679716719356,0.04699656267622356,0.0791812460476248,0.12053812790069988,0.15095369404736578,4.575200479292446,449.0,7.598389604489107
183,2011-07-31,STORE_2_085,0.0,0,1,-0.03571555226653452,-0.02443454185684548,0.03571555226653452,0.109144469425068,0.03571555226653452,0.13717319302531156,,0.057991946977686754,0.012234456417011626,3.4864197530864196,20.0,4.977777777777778,4.0,0.0,20.0,0.024133679716719356,0.04699656267622356,0.0791812460476248,0.12053812790069988,0.15095369404736578,4.586197606883973,448.0,7.600059398423777
184,2011-08-01,STORE_2_085,0.0,0,1,0.0,0.03571555226653452,0.0,0.03571555226653452,0.0,0.15490195998574313,,0.08940041122931086,0.024133679716719356,3.506172839506175,20.0,4.955555555555556,4.0,0.0,20.0,0.015209262241938559,0.04699656267622356,0.0791812460476248,0.12053812790069988,0.15095369404736578,4.60559286552191,446.0,7.601729192358452
185,2011-08-02,STORE_2_085,0.0,0,1,0.0,0.0,0.0,0.04699656267622356,0.0791812460476248,0.14612803567823798,,0.057991946977686754,0.06871581236945984,3.5407407407407447,20.0,4.888888888888889,3.5,0.0,20.0,0.012234456417011626,0.04135605747137904,0.0791812460476248,0.12053812790069988,0.15095369404736578,4.633644534587097,440.0,7.603398986293126
186,2011-08-03,STORE_2_085,0.0,0,1,0.0,0.0,0.0,0.057991946977686754,0.04699656267622356,0.04699656267622356,,0.0791812460476248,0.024133679716719356,3.5600000000000023,20.0,4.866666666666666,3.5,0.0,20.0,0.012234456417011626,0.04135605747137904,0.0791812460476248,0.12053812790069988,0.15095369404736578,4.652412688081822,438.0,7.6050687802278
187,2011-08-04,STORE_2_085,0.0,0,1,0.0,0.0,0.0,0.09938463213591175,0.057991946977686754,0.057991946977686754,,0.024133679716719356,0.024133679716719356,3.5792592592592567,20.0,4.844444444444444,3.5,0.0,20.0,0.012234456417011626,0.04135605747137904,0.0791812460476248,0.12053812790069988,0.15095369404736578,4.670998524510582,436.0,7.606738574162474
188,2011-08-05,STORE_2_085,0.0,0,1,0.0,0.0,0.0,0.06871581236945984,0.03571555226653452,0.057991946977686754,,0.04699656267622356,0.03571555226653452,3.60814814814815,20.0,4.811111111111111,3.5,0.0,20.0,0.012234456417011626,0.04135605747137904,0.0791812460476248,0.12053812790069988,0.15095369404736578,4.694951734072292,433.0,7.608408368097145
189,2011-08-06,STORE_2_085,0.0,0,1,0.0,0.0,0.0,0.11868978733129841,0.0791812460476248,0.09938463213591175,,0.03571555226653452,0.0791812460476248,3.6251851851851855,20.0,4.733333333333333,3.0,0.0,20.0,0.012234456417011626,0.03571555226653452,0.0791812460476248,0.12053812790069988,0.15095369404736578,4.716216346735323,426.0,7.610078162031819
190,2011-08-07,STORE_2_085,6.0,0,1,0.06871581236945984,0.06871581236945984,0.0,0.057991946977686754,0.04699656267622356,0.17193529928452347,,0.0,0.024133679716719356,3.614814814814814,20.0,4.777777777777778,3.5,0.0,20.0,0.012234456417011626,0.04135605747137904,0.0791812460476248,0.12053812790069988,0.15095369404736578,4.709010673495667,430.0,7.611747955966493
191,2011-08-08,STORE_2_085,3.000000000000001,0,1,-0.03300026010292532,-0.10171607247238515,0.06871581236945984,0.08940041122931086,0.04699656267622356,0.16350213174766068,,0.0,0.03571555226653452,3.614814814814814,20.0,4.777777777777778,3.5,0.0,20.0,0.012234456417011626,0.04135605747137904,0.0791812460476248,0.12053812790069988,0.15095369404736578,4.709010673495667,430.0,7.613417749901167
192,2011-08-09,STORE_2_085,5.000000000000001,0,1,0.022276394711152232,0.05527665481407755,0.03571555226653452,0.057991946977686754,0.03571555226653452,0.08940041122931086,,0.0,0.012234456417011626,3.5802469135802433,20.0,4.822222222222222,4.0,0.0,20.0,0.012234456417011626,0.04699656267622356,0.0791812460476248,0.12053812790069988,0.15095369404736578,4.691799630236477,434.0,7.615087543835841
193,2011-08-10,STORE_2_085,14.0,0,1,0.08813608870055123,0.065859693989399,0.057991946977686754,0.0791812460476248,0.0791812460476248,0.057991946977686754,,0.0,0.06871581236945984,3.6790123456790096,20.0,4.911111111111111,4.0,0.0,20.0,0.012234456417011626,0.04699656267622356,0.0791812460476248,0.13717319302531156,0.15095369404736578,4.789136687570601,442.0,7.616757337770515
194,2011-08-11,STORE_2_085,13.000000000000004,0,1,-0.008954842652926426,-0.09709093135347766,0.14612803567823798,0.024133679716719356,0.024133679716719356,0.1962946451439682,,0.0,0.0,3.7395061728395027,20.0,5.055555555555555,4.0,0.0,20.0,0.012234456417011626,0.04699656267622356,0.0791812460476248,0.13717319302531156,0.15095369404736578,4.835173355039443,455.0,7.618427131705186
195,2011-08-12,STORE_2_085,9.999999999999998,0,1,-0.028028723600243555,-0.01907388094731713,0.13717319302531156,0.04699656267622356,0.03571555226653452,0.109144469425068,,0.0,0.0791812460476248,3.7832098765432134,20.0,5.088888888888889,4.0,0.0,20.0,0.012234456417011626,0.04699656267622356,0.08684561993388934,0.13717319302531156,0.15095369404736578,4.859010960638544,458.0,7.62009692563986
196,2011-08-13,STORE_2_085,18.000000000000004,0,1,0.07106335582544537,0.09909207942568893,0.109144469425068,0.03571555226653452,0.1280298135854418,0.012234456417011626,,0.0,0.012234456417011626,3.9358024691358007,20.0,5.277777777777778,4.0,0.0,20.0,0.012234456417011626,0.04699656267622356,0.08940041122931086,0.13806867729060426,0.15963205445479775,5.025838356534906,475.0,7.621766719574534
197,2011-08-14,STORE_2_085,13.000000000000004,0,1,-0.04303463222520182,-0.11409798805064719,0.18020782525051338,0.0,0.06871581236945984,0.06871581236945984,,0.06871581236945984,0.03571555226653452,4.0259259259259315,20.0,5.388888888888889,4.0,0.0,20.0,0.012234456417011626,0.04699656267622356,0.08940041122931086,0.13806867729060426,0.15963205445479775,5.085105910632253,485.0,7.623436513509208
198,2011-08-15,STORE_2_085,15.0,0,1,0.017728766960431575,0.06076339918563339,0.13717319302531156,0.0,0.04699656267622356,0.14612803567823798,,0.03571555226653452,0.012234456417011626,4.12197530864197,20.0,5.544444444444444,4.0,0.0,20.0,0.012234456417011626,0.04699656267622356,0.08940041122931086,0.14612803567823798,0.15963205445479775,5.162877673126239,499.0,7.6251063074438825
199,2011-08-16,STORE_2_085,11.0,0,1,-0.03621217265444472,-0.053940939614876296,0.15490195998574313,0.0,0.057991946977686754,0.109144469425068,,0.057991946977686754,0.012234456417011626,4.156790123456791,20.0,5.655555555555556,4.5,0.0,20.0,0.015209262241938559,0.05249425482695516,0.08940041122931086,0.14612803567823798,0.15963205445479775,5.171575534410653,509.0,7.626776101378557
200,2011-08-17,STORE_2_085,1.0,0,1,-0.10645533091428679,-0.07024315825984206,0.11868978733129841,0.0,0.024133679716719356,0.03571555226653452,,0.14612803567823798,0.0,4.148148148148155,20.0,5.666666666666667,4.5,0.0,20.0,0.015209262241938559,0.05249425482695516,0.08940041122931086,0.14612803567823798,0.15963205445479775,5.160350131836605,510.0,7.628445895313227
201,2011-08-18,STORE_2_085,4.0,0,1,0.03476210625921194,0.14121743717349872,0.012234456417011626,0.0,0.04699656267622356,0.04699656267622356,,0.13717319302531156,0.012234456417011626,4.12222222222222,20.0,5.7,4.5,0.0,20.0,0.024133679716719356,0.05249425482695516,0.08940041122931086,0.14612803567823798,0.15963205445479775,5.139514251519596,513.0,7.630115689247901
202,2011-08-19,STORE_2_085,6.0,0,1,0.021719249693236277,-0.01304285656597566,0.04699656267622356,0.0,0.03571555226653452,0.057991946977686754,,0.109144469425068,0.024133679716719356,4.093333333333339,20.0,5.7444444444444445,5.0,0.0,20.0,0.024133679716719356,0.057991946977686754,0.08940041122931086,0.14612803567823798,0.15963205445479775,5.124431700168115,517.0,7.6317854831825755
203,2011-08-20,STORE_2_085,12.000000000000002,0,1,0.05931400121598196,0.03759475152274568,0.06871581236945984,0.0,0.03571555226653452,0.09938463213591175,,0.18020782525051338,0.012234456417011626,4.131851851851852,20.0,5.866666666666666,5.0,0.0,20.0,0.024133679716719356,0.057991946977686754,0.09688857690926153,0.14612803567823798,0.15963205445479775,5.14115363261567,528.0,7.63345527711725
204,2011-08-21,STORE_2_085,17.0,0,1,0.043905485699081676,-0.015408515516900284,0.1280298135854418,0.06871581236945984,0.04699656267622356,0.06871581236945984,,0.13717319302531156,0.057991946977686754,4.266666666666667,20.0,6.0,5.0,0.0,20.0,0.024133679716719356,0.057991946977686754,0.09938463213591175,0.14612803567823798,0.16814037389293518,5.272357424244753,540.0,7.635125071051924
205,2011-08-22,STORE_2_085,9.0,0,1,-0.07255066714861172,-0.1164561528476934,0.17193529928452347,0.03571555226653452,0.04699656267622356,0.11868978733129841,,0.15490195998574313,0.024133679716719356,4.276296296296298,20.0,6.0777777777777775,5.0,0.0,20.0,0.024133679716719356,0.057991946977686754,0.09938463213591175,0.14612803567823798,0.16814037389293518,5.264312278948422,547.0,7.636794864986598
206,2011-08-23,STORE_2_085,14.0,0,1,0.04674340354232623,0.11929407069093795,0.09938463213591175,0.057991946977686754,0.0,0.057991946977686754,,0.11868978733129841,0.024133679716719356,4.351604938271604,20.0,6.211111111111111,5.0,0.0,20.0,0.024133679716719356,0.057991946977686754,0.10670451010277894,0.14612803567823798,0.16814037389293518,5.31162482693595,559.0,7.638464658921269
207,2011-08-24,STORE_2_085,5.000000000000001,0,1,-0.08813608870055123,-0.13487949224287746,0.14612803567823798,0.14612803567823798,0.09938463213591175,0.08940041122931086,,0.012234456417011626,0.012234456417011626,4.31802469135802,20.0,6.2555555555555555,5.0,0.0,20.0,0.024133679716719356,0.057991946977686754,0.10670451010277894,0.14612803567823798,0.16814037389293518,5.284195454182451,563.0,7.640134452855943
208,2011-08-25,STORE_2_085,3.000000000000001,0,1,-0.022276394711152232,0.065859693989399,0.057991946977686754,0.13717319302531156,0.03571555226653452,0.057991946977686754,,0.04699656267622356,0.08940041122931086,4.319999999999997,20.0,6.2,5.0,0.0,20.0,0.024133679716719356,0.057991946977686754,0.10670451010277894,0.14612803567823798,0.16814037389293518,5.291927284272004,558.0,7.641804246790617
209,2011-08-26,STORE_2_085,5.000000000000001,0,1,0.022276394711152232,0.044552789422304465,0.03571555226653452,0.109144469425068,0.03571555226653452,0.0791812460476248,,0.06871581236945984,0.04699656267622356,4.311851851851851,20.0,6.211111111111111,5.0,0.0,20.0,0.024133679716719356,0.057991946977686754,0.10670451010277894,0.14612803567823798,0.16814037389293518,5.288304765318126,559.0,7.643474040725291
210,2011-08-27,STORE_2_085,3.000000000000001,0,1,-0.022276394711152232,-0.044552789422304465,0.057991946977686754,0.18020782525051338,0.012234456417011626,0.024133679716719356,,0.1280298135854418,0.0,4.287407407407412,20.0,6.2444444444444445,5.0,0.0,20.0,0.027029147854173145,0.057991946977686754,0.10670451010277894,0.14612803567823798,0.16814037389293518,5.258083367456824,562.0,7.645143834659965
211,2011-08-28,STORE_2_085,8.0,0,1,0.05368485896277634,0.07596125367392857,0.03571555226653452,0.13717319302531156,0.04699656267622356,0.04699656267622356,,0.17193529928452347,0.012234456417011626,4.267654320987649,20.0,6.322222222222222,5.0,0.0,20.0,0.03571555226653452,0.057991946977686754,0.10670451010277894,0.14612803567823798,0.16814037389293518,5.2313398240371285,569.0,7.646813628594639
212,2011-08-29,STORE_2_085,8.0,0,1,0.0,-0.05368485896277634,0.08940041122931086,0.15490195998574313,0.06871581236945984,0.03571555226653452,,0.09938463213591175,0.0,4.2358024691358,20.0,6.411111111111111,5.0,0.0,20.0,0.03571555226653452,0.057991946977686754,0.10670451010277894,0.14612803567823798,0.16814037389293518,5.19051521428873,577.0,7.64848342252931
213,2011-08-30,STORE_2_085,9.999999999999998,0,1,0.01974405819575714,0.01974405819575714,0.08940041122931086,0.11868978733129841,0.04699656267622356,0.0,,0.14612803567823798,0.0,4.226666666666669,20.0,6.522222222222222,5.0,0.0,20.0,0.03571555226653452,0.057991946977686754,0.109144469425068,0.14612803567823798,0.16814037389293518,5.158668449782513,587.0,7.650153216463984
214,2011-08-31,STORE_2_085,8.0,0,1,-0.01974405819575714,-0.03948811639151428,0.109144469425068,0.012234456417011626,0.03571555226653452,0.0,,0.057991946977686754,0.012234456417011626,4.195555555555559,20.0,6.6,5.0,0.0,20.0,0.03571555226653452,0.057991946977686754,0.109144469425068,0.14612803567823798,0.16814037389293518,5.127147398840625,594.0,7.651823010398658
215,2011-09-01,STORE_2_085,8.0,0,1,0.0,0.01974405819575714,0.08940041122931086,0.04699656267622356,0.04699656267622356,0.0,,0.03571555226653452,0.06871581236945984,4.2079012345679,20.0,6.622222222222222,5.0,0.0,20.0,0.03571555226653452,0.057991946977686754,0.109144469425068,0.14612803567823798,0.16814037389293518,5.128851587026847,596.0,7.653492804333332
216,2011-09-02,STORE_2_085,7.0,0,1,-0.010219165181686057,-0.010219165181686057,0.08940041122931086,0.06871581236945984,0.06871581236945984,0.0,,0.057991946977686754,0.03571555226653452,4.177777777777779,20.0,6.666666666666667,5.0,0.0,20.0,0.03571555226653452,0.057991946977686754,0.109144469425068,0.14612803567823798,0.16814037389293518,5.114421117857477,600.0,7.6551625982680065
217,2011-09-03,STORE_2_085,15.0,0,1,0.07572071393811833,0.08593987911980439,0.0791812460476248,0.1280298135854418,0.024133679716719356,0.0,,0.03571555226653452,0.03571555226653452,4.244444444444446,20.0,6.8,5.5,0.0,20.0,0.03571555226653452,0.0633538796735733,0.109144469425068,0.14700542810898856,0.16814037389293518,5.173832170243125,612.0,7.656832392202677
218,2011-09-04,STORE_2_085,15.999999999999998,0,1,0.008600171761917547,-0.06712054217620078,0.15490195998574313,0.17193529928452347,0.012234456417011626,0.0,,0.08940041122931086,0.024133679716719356,4.307160493827163,20.0,6.955555555555556,6.0,0.0,20.0,0.03571555226653452,0.06871581236945984,0.109144469425068,0.15490195998574313,0.16814037389293518,5.237958070094674,626.0,7.658502186137351
219,2011-09-05,STORE_2_085,8.0,1,1,-0.07410172051834982,-0.08270189228026736,0.16350213174766068,0.09938463213591175,0.0,0.0,,0.08940041122931086,0.012234456417011626,4.2607407407407445,20.0,7.033333333333333,6.0,0.0,20.0,0.03571555226653452,0.06871581236945984,0.109144469425068,0.15490195998574313,0.16814037389293518,5.200367316326712,633.0,7.660171980072025
220,2011-09-06,STORE_2_085,15.999999999999998,0,1,0.07410172051834982,0.14820344103669963,0.08940041122931086,0.14612803567823798,0.024133679716719356,0.06871581236945984,,0.109144469425068,0.0,4.305925925925925,20.0,7.211111111111111,6.0,0.0,20.0,0.03571555226653452,0.06871581236945984,0.109144469425068,0.15490195998574313,0.16814037389293518,5.230623836393962,649.0,7.6618417740066995
221,2011-09-07,STORE_2_085,4.0,0,1,-0.11650556907143711,-0.19060728958978693,0.16350213174766068,0.057991946977686754,0.08940041122931086,0.03571555226653452,,0.08940041122931086,0.0,4.267407407407405,20.0,7.2555555555555555,6.0,0.0,20.0,0.03571555226653452,0.06871581236945984,0.109144469425068,0.15490195998574313,0.16814037389293518,5.185461766596486,653.0,7.663511567941374
222,2011-09-08,STORE_2_085,11.0,0,1,0.07169322465507486,0.18819879372651196,0.04699656267622356,0.03571555226653452,0.057991946977686754,0.057991946977686754,,0.08940041122931086,0.0,4.241975308641974,20.0,7.377777777777778,6.0,0.0,20.0,0.03853580486895678,0.06871581236945984,0.1163034578547408,0.15490195998574313,0.16814037389293518,5.141979197004008,664.0,7.665181361876048
223,2011-09-09,STORE_2_085,15.999999999999998,0,1,0.04481234441636227,-0.026880880238712587,0.11868978733129841,0.057991946977686754,0.012234456417011626,0.14612803567823798,,0.0791812460476248,0.08940041122931086,4.340740740740739,20.0,7.466666666666667,6.0,0.0,20.0,0.03853580486895678,0.06871581236945984,0.11868978733129841,0.15576197716193496,0.16814037389293518,5.221390748480198,672.0,7.666851155810718
224,2011-09-10,STORE_2_085,8.0,0,1,-0.07410172051834982,-0.11891406493471209,0.16350213174766068,0.03571555226653452,0.024133679716719356,0.13717319302531156,,0.15490195998574313,0.03571555226653452,4.301975308641975,20.0,7.522222222222222,6.5,0.0,20.0,0.04699656267622356,0.07394852920854232,0.11868978733129841,0.15576197716193496,0.16814037389293518,5.199887159056085,677.0,7.668520949745393
225,2011-09-11,STORE_2_085,9.0,0,1,0.009984220906600894,0.08408594142495071,0.08940041122931086,0.08940041122931086,0.0,0.109144469425068,,0.16350213174766068,0.0791812460476248,4.314074074074073,20.0,7.544444444444444,6.5,0.0,20.0,0.04699656267622356,0.07394852920854232,0.11868978733129841,0.15576197716193496,0.16814037389293518,5.201903521758922,679.0,7.670190743680067
226,2011-09-12,STORE_2_085,5.000000000000001,0,1,-0.041392685158225,-0.051376906064825895,0.09938463213591175,0.08940041122931086,0.012234456417011626,0.18020782525051338,,0.08940041122931086,0.012234456417011626,4.272592592592596,20.0,7.588888888888889,6.5,0.0,20.0,0.04699656267622356,0.07394852920854232,0.11868978733129841,0.15576197716193496,0.16814037389293518,5.162297294645294,683.0,7.671860537614741
227,2011-09-13,STORE_2_085,6.0,0,1,0.010723865391773085,0.052116550549998086,0.057991946977686754,0.109144469425068,0.04699656267622356,0.13717319302531156,,0.16350213174766068,0.012234456417011626,4.220740740740741,20.0,7.644444444444445,6.5,0.0,20.0,0.04699656267622356,0.07394852920854232,0.11868978733129841,0.15576197716193496,0.16814037389293518,5.1173007085594175,688.0,7.673530331549415
228,2011-09-14,STORE_2_085,4.0,0,1,-0.021719249693236277,-0.03244311508500936,0.06871581236945984,0.08940041122931086,0.0,0.15490195998574313,,0.04699656267622356,0.024133679716719356,4.199999999999998,20.0,7.666666666666667,6.5,0.0,20.0,0.04699656267622356,0.07394852920854232,0.11868978733129841,0.15576197716193496,0.16814037389293518,5.096815485171858,690.0,7.675200125484089
229,2011-09-15,STORE_2_085,9.999999999999998,0,1,0.06214790674884444,0.08386715644208072,0.04699656267622356,0.08940041122931086,0.057991946977686754,0.11868978733129841,,0.11868978733129841,0.03571555226653452,4.17753086419753,20.0,7.7444444444444445,7.0,0.0,20.0,0.04699656267622356,0.0791812460476248,0.11868978733129841,0.15576197716193496,0.16814037389293518,5.07817783632361,697.0,7.67686991941876
230,2011-09-16,STORE_2_085,9.0,0,1,-0.009759837289156248,-0.07190774403800068,0.109144469425068,0.0791812460476248,0.04699656267622356,0.012234456417011626,,0.16350213174766068,0.057991946977686754,4.161975308641975,20.0,7.788888888888889,7.0,0.0,20.0,0.04699656267622356,0.0791812460476248,0.11868978733129841,0.15576197716193496,0.16814037389293518,5.071388003264042,701.0,7.678539713353434
231,2011-09-17,STORE_2_085,9.0,0,1,0.0,0.009759837289156248,0.09938463213591175,0.15490195998574313,0.04699656267622356,0.04699656267622356,,0.08940041122931086,0.057991946977686754,4.144444444444446,20.0,7.833333333333333,7.5,0.0,20.0,0.04699656267622356,0.08429082863846783,0.11868978733129841,0.15576197716193496,0.16814037389293518,5.064194646311527,705.0,7.680209507288108
232,2011-09-18,STORE_2_085,11.0,0,1,0.019305155195386656,0.019305155195386656,0.09938463213591175,0.16350213174766068,0.04699656267622356,0.06871581236945984,,0.09938463213591175,0.024133679716719356,4.112592592592593,20.0,7.933333333333334,8.0,0.0,20.0,0.04699656267622356,0.08940041122931086,0.11868978733129841,0.15576197716193496,0.16814037389293518,5.03649601755342,714.0,7.681879301222782
233,2011-09-19,STORE_2_085,6.0,0,1,-0.04997397496183857,-0.06927913015722523,0.11868978733129841,0.08940041122931086,0.012234456417011626,0.1280298135854418,,0.057991946977686754,0.04699656267622356,4.089876543209876,20.0,7.955555555555556,8.0,0.0,20.0,0.04699656267622356,0.08940041122931086,0.11868978733129841,0.15576197716193496,0.16814037389293518,5.023341273799609,716.0,7.683549095157456
234,2011-09-20,STORE_2_085,8.0,0,1,0.020684598859851022,0.0706585738216896,0.06871581236945984,0.16350213174766068,0.0791812460476248,0.17193529928452347,,0.06871581236945984,0.0791812460476248,4.079259259259261,20.0,7.966666666666667,8.0,0.0,20.0,0.04699656267622356,0.08940041122931086,0.11868978733129841,0.15576197716193496,0.16814037389293518,5.022309777942613,717.0,7.6852188890921305
235,2011-09-21,STORE_2_085,4.0,0,1,-0.0424038485530873,-0.06308844741293831,0.08940041122931086,0.04699656267622356,0.012234456417011626,0.09938463213591175,,0.04699656267622356,0.04699656267622356,4.079259259259261,20.0,7.966666666666667,8.0,0.0,20.0,0.04699656267622356,0.08940041122931086,0.11868978733129841,0.15576197716193496,0.16814037389293518,5.022309777942613,717.0,7.686888683026801
236,2011-09-22,STORE_2_085,8.0,0,1,0.0424038485530873,0.0848076971061746,0.04699656267622356,0.11868978733129841,0.024133679716719356,0.14612803567823798,,0.109144469425068,0.109144469425068,4.058024691358026,20.0,7.944444444444445,8.0,0.0,20.0,0.04699656267622356,0.08940041122931086,0.11868978733129841,0.15576197716193496,0.16814037389293518,5.017634321298451,715.0,7.688558476961475
237,2011-09-23,STORE_2_085,5.000000000000001,0,1,-0.03140846425162411,-0.0738123128047114,0.08940041122931086,0.16350213174766068,0.024133679716719356,0.057991946977686754,,0.09938463213591175,0.06871581236945984,4.069629629629629,20.0,7.933333333333334,8.0,0.0,20.0,0.04699656267622356,0.08940041122931086,0.11868978733129841,0.15576197716193496,0.16814037389293518,5.023092739951881,714.0,7.690228270896149
238,2011-09-24,STORE_2_085,20.000000000000007,0,1,0.13830269816628143,0.16971116241790554,0.057991946977686754,0.08940041122931086,0.0,0.03571555226653452,,0.09938463213591175,0.03571555226653452,4.166172839506174,20.0,8.122222222222222,8.0,0.0,20.0,0.04974540875158936,0.08940041122931086,0.11868978733129841,0.16350213174766068,0.17193529928452347,5.15343842405358,731.0,7.6918980648308235
239,2011-09-25,STORE_2_085,4.0,0,1,-0.14929808246774462,-0.28760078063402605,0.1962946451439682,0.09938463213591175,0.15490195998574313,0.057991946977686754,,0.11868978733129841,0.03571555226653452,4.157037037037036,20.0,8.133333333333333,8.0,0.0,20.0,0.04974540875158936,0.08940041122931086,0.11868978733129841,0.16350213174766068,0.17193529928452347,5.143338661246182,732.0,7.693567858765498
240,2011-09-26,STORE_2_085,8.0,0,1,0.0424038485530873,0.1917019310208319,0.04699656267622356,0.057991946977686754,0.0,0.03571555226653452,,0.06871581236945984,0.08940041122931086,4.157037037037036,20.0,8.133333333333333,8.0,0.0,20.0,0.04974540875158936,0.08940041122931086,0.11868978733129841,0.16350213174766068,0.17193529928452347,5.143338661246182,732.0,7.695237652700172
241,2011-09-27,STORE_2_085,5.000000000000001,0,1,-0.03140846425162411,-0.0738123128047114,0.08940041122931086,0.06871581236945984,0.0,0.08940041122931086,,0.08940041122931086,0.1883257154726928,4.045432098765434,20.0,7.977777777777778,8.0,0.0,20.0,0.04974540875158936,0.08940041122931086,0.11868978733129841,0.15576197716193496,0.16814037389293518,5.021253207147311,718.0,7.696907446634842
242,2011-09-28,STORE_2_085,0.0,0,1,-0.057991946977686754,-0.026583482726062646,0.057991946977686754,0.04699656267622356,0.024133679716719356,0.08940041122931086,,0.04699656267622356,0.13717319302531156,4.081481481481482,20.0,7.833333333333333,8.0,0.0,20.0,0.04699656267622356,0.08940041122931086,0.11868978733129841,0.15576197716193496,0.16814037389293518,5.061975454861272,705.0,7.6985772405695165
243,2011-09-29,STORE_2_085,3.000000000000001,0,1,0.03571555226653452,0.09370749924422128,0.0,0.109144469425068,0.024133679716719356,0.109144469425068,,0.08940041122931086,0.13717319302531156,4.0777777777777775,20.0,7.722222222222222,7.5,0.0,20.0,0.04699656267622356,0.08429082863846783,0.1163034578547408,0.15576197716193496,0.16814037389293518,5.05704043167449,695.0,7.700247034504191
244,2011-09-30,STORE_2_085,3.000000000000001,0,1,0.0,-0.03571555226653452,0.03571555226653452,0.09938463213591175,0.04699656267622356,0.08940041122931086,,0.057991946977686754,0.15490195998574313,4.046419753086421,20.0,7.588888888888889,7.0,0.0,20.0,0.04699656267622356,0.0791812460476248,0.109144469425068,0.15576197716193496,0.16814037389293518,5.021066730398144,683.0,7.701916828438865
245,2011-10-01,STORE_2_085,8.0,0,1,0.05368485896277634,0.05368485896277634,0.03571555226653452,0.09938463213591175,0.03571555226653452,0.08940041122931086,,0.1962946451439682,0.14612803567823798,3.978271604938272,20.0,7.522222222222222,7.0,0.0,20.0,0.04699656267622356,0.0791812460476248,0.109144469425068,0.15576197716193496,0.16814037389293518,4.974604671273457,677.0,7.703586622373539
246,2011-10-02,STORE_2_085,6.0,0,1,-0.020684598859851022,-0.07436945782262736,0.08940041122931086,0.11868978733129841,0.024133679716719356,0.0791812460476248,,0.04699656267622356,0.04699656267622356,3.9565432098765423,20.0,7.544444444444444,7.0,0.0,20.0,0.04699656267622356,0.0791812460476248,0.109144469425068,0.15576197716193496,0.16814037389293518,4.963147585711416,679.0,7.70525641630821
247,2011-10-03,STORE_2_085,6.0,0,1,0.0,0.020684598859851022,0.06871581236945984,0.06871581236945984,0.03571555226653452,0.15490195998574313,,0.08940041122931086,0.057991946977686754,3.945679012345678,20.0,7.555555555555555,7.0,0.0,20.0,0.04699656267622356,0.0791812460476248,0.109144469425068,0.15576197716193496,0.16814037389293518,4.9585044662501545,680.0,7.706926210242884
248,2011-10-04,STORE_2_085,5.000000000000001,0,1,-0.010723865391773085,-0.010723865391773085,0.06871581236945984,0.08940041122931086,0.06871581236945984,0.16350213174766068,,0.057991946977686754,0.057991946977686754,3.945679012345678,20.0,7.555555555555555,7.0,0.0,20.0,0.04699656267622356,0.0791812460476248,0.109144469425068,0.15576197716193496,0.16814037389293518,4.9585044662501545,680.0,7.708596004177558
249,2011-10-05,STORE_2_085,15.999999999999998,0,1,0.10551018476997392,0.11623405016174701,0.057991946977686754,0.04699656267622356,0.024133679716719356,0.08940041122931086,,0.0,0.09938463213591175,4.025185185185184,20.0,7.633333333333334,7.0,0.0,20.0,0.04699656267622356,0.0791812460476248,0.109144469425068,0.16350213174766068,0.16814037389293518,5.035715139510191,687.0,7.710265798112232
250,2011-10-06,STORE_2_085,14.0,0,1,-0.017374096069422695,-0.12288428083939662,0.16350213174766068,0.08940041122931086,0.03571555226653452,0.16350213174766068,,0.03571555226653452,0.17193529928452347,3.9911111111111137,20.0,7.6,7.0,0.0,20.0,0.04699656267622356,0.0791812460476248,0.109144469425068,0.15576197716193496,0.16350213174766068,4.9826665844841385,684.0,7.711935592046906
251,2011-10-07,STORE_2_085,9.999999999999998,0,1,-0.03698356625316998,-0.019609470183747285,0.14612803567823798,0.057991946977686754,0.012234456417011626,0.04699656267622356,,0.03571555226653452,0.16350213174766068,3.9229629629629654,20.0,7.533333333333333,7.0,0.0,20.0,0.04699656267622356,0.0791812460476248,0.109144469425068,0.15490195998574313,0.16350213174766068,4.90860285849975,678.0,7.71360538598158
252,2011-10-08,STORE_2_085,11.0,0,1,0.009545317906230408,0.04652888415940039,0.109144469425068,0.1962946451439682,0.012234456417011626,0.11868978733129841,,0.08940041122931086,0.08940041122931086,3.957037037037037,20.0,7.566666666666666,7.0,0.0,20.0,0.04699656267622356,0.0791812460476248,0.109144469425068,0.15490195998574313,0.16350213174766068,4.921975487203204,681.0,7.715275179916251
253,2011-10-09,STORE_2_085,3.000000000000001,0,1,-0.0829742350647639,-0.0925195529709943,0.11868978733129841,0.04699656267622356,0.03571555226653452,0.16350213174766068,,0.06871581236945984,0.057991946977686754,3.978765432098762,20.0,7.544444444444444,7.0,0.0,20.0,0.04699656267622356,0.0791812460476248,0.109144469425068,0.15490195998574313,0.16350213174766068,4.93818214997352,679.0,7.716944973850925
254,2011-10-10,STORE_2_085,5.000000000000001,1,1,0.022276394711152232,0.10525062977591612,0.03571555226653452,0.08940041122931086,0.04699656267622356,0.08940041122931086,,0.06871581236945984,0.1962946451439682,3.861234567901237,20.0,7.377777777777778,6.5,0.0,20.0,0.04699656267622356,0.07394852920854232,0.109144469425068,0.14700542810898856,0.16350213174766068,4.763102043170809,664.0,7.718614767785599
255,2011-10-11,STORE_2_085,4.0,0,1,-0.010995384301463192,-0.033271779012615424,0.057991946977686754,0.057991946977686754,0.06871581236945984,0.09938463213591175,,0.057991946977686754,0.109144469425068,3.8651851851851884,20.0,7.311111111111111,6.0,0.0,20.0,0.04699656267622356,0.06871581236945984,0.109144469425068,0.14700542810898856,0.16350213174766068,4.767974729507642,658.0,7.720284561720273
256,2011-10-12,STORE_2_085,5.000000000000001,0,1,0.010995384301463192,0.021990768602926383,0.04699656267622356,0.0,0.04699656267622356,0.057991946977686754,,0.16350213174766068,0.012234456417011626,3.823703703703704,20.0,7.355555555555555,6.0,0.0,20.0,0.04699656267622356,0.06871581236945984,0.109144469425068,0.14700542810898856,0.16350213174766068,4.726951439628849,662.0,7.7219543556549475
257,2011-10-13,STORE_2_085,4.0,0,1,-0.010995384301463192,-0.021990768602926383,0.057991946977686754,0.03571555226653452,0.03571555226653452,0.06871581236945984,,0.14612803567823798,0.06871581236945984,3.8444444444444414,20.0,7.333333333333333,6.0,0.0,20.0,0.04699656267622356,0.06871581236945984,0.109144469425068,0.14700542810898856,0.16350213174766068,4.73808381123078,660.0,7.723624149589622
258,2011-10-14,STORE_2_085,13.000000000000004,0,1,0.09017663034908799,0.10117201465055117,0.04699656267622356,0.03571555226653452,0.057991946977686754,0.04699656267622356,,0.109144469425068,0.14612803567823798,3.8325925925925888,20.0,7.322222222222222,6.0,0.0,20.0,0.04699656267622356,0.06871581236945984,0.109144469425068,0.14700542810898856,0.16350213174766068,4.723424242991084,659.0,7.725293943524292
259,2011-10-15,STORE_2_085,7.0,0,1,-0.057991946977686754,-0.14816857732677474,0.13717319302531156,0.08940041122931086,0.012234456417011626,0.109144469425068,,0.11868978733129841,0.109144469425068,3.803456790123457,20.0,7.288888888888889,6.0,0.0,20.0,0.04699656267622356,0.06871581236945984,0.109144469425068,0.14700542810898856,0.16350213174766068,4.714892600548459,656.0,7.726963737458966
260,2011-10-16,STORE_2_085,9.0,0,1,0.02020338608828695,0.0781953330659737,0.0791812460476248,0.06871581236945984,0.03571555226653452,0.09938463213591175,,0.03571555226653452,0.03571555226653452,3.779259259259259,20.0,7.355555555555555,6.5,0.0,20.0,0.04699656267622356,0.07394852920854232,0.109144469425068,0.14700542810898856,0.16350213174766068,4.695948794562029,662.0,7.7286335313936405
261,2011-10-17,STORE_2_085,5.000000000000001,0,1,-0.041392685158225,-0.06159607124651195,0.09938463213591175,0.06871581236945984,0.04699656267622356,0.09938463213591175,,0.057991946977686754,0.04699656267622356,3.7688888888888887,20.0,7.366666666666666,6.5,0.0,20.0,0.04699656267622356,0.07394852920854232,0.109144469425068,0.14700542810898856,0.16350213174766068,4.6890980422079265,663.0,7.730303325328315
262,2011-10-18,STORE_2_085,3.000000000000001,0,1,-0.022276394711152232,0.01911629044707277,0.057991946977686754,0.057991946977686754,0.057991946977686754,0.11868978733129841,,0.04699656267622356,0.057991946977686754,3.789629629629629,20.0,7.344444444444444,6.5,0.0,20.0,0.04699656267622356,0.07394852920854232,0.109144469425068,0.14700542810898856,0.16350213174766068,4.70515163784135,661.0,7.731973119262989
263,2011-10-19,STORE_2_085,8.0,0,1,0.05368485896277634,0.07596125367392857,0.03571555226653452,0.16350213174766068,0.03571555226653452,0.06871581236945984,,0.057991946977686754,0.09938463213591175,3.7777777777777732,20.0,7.333333333333333,6.5,0.0,20.0,0.04699656267622356,0.07394852920854232,0.109144469425068,0.14700542810898856,0.16350213174766068,4.70237807397085,660.0,7.733642913197663
264,2011-10-20,STORE_2_085,7.0,0,1,-0.010219165181686057,-0.06390402414446239,0.08940041122931086,0.14612803567823798,0.024133679716719356,0.08940041122931086,,0.04699656267622356,0.06871581236945984,3.767407407407407,20.0,7.344444444444444,7.0,0.0,20.0,0.04699656267622356,0.0791812460476248,0.109144469425068,0.14700542810898856,0.16350213174766068,4.700373188892178,661.0,7.7353127071323335
265,2011-10-21,STORE_2_085,5.000000000000001,0,1,-0.02118929906993805,-0.010970133888251993,0.0791812460476248,0.109144469425068,0.08940041122931086,0.04699656267622356,,0.13717319302531156,0.11868978733129841,3.746913580246913,20.0,7.277777777777778,6.5,0.0,20.0,0.04699656267622356,0.07394852920854232,0.109144469425068,0.14700542810898856,0.16350213174766068,4.690482301397728,655.0,7.736982501067008
266,2011-10-22,STORE_2_085,9.0,0,1,0.041392685158225,0.06258198422816305,0.057991946977686754,0.11868978733129841,0.06871581236945984,0.08940041122931086,,0.0791812460476248,0.057991946977686754,3.7437037037036993,20.0,7.322222222222222,7.0,0.0,20.0,0.04699656267622356,0.0791812460476248,0.109144469425068,0.14700542810898856,0.16350213174766068,4.687606844391976,659.0,7.738652295001682
267,2011-10-23,STORE_2_085,5.000000000000001,0,1,-0.041392685158225,-0.08278537031645,0.09938463213591175,0.03571555226653452,0.024133679716719356,0.057991946977686754,,0.09938463213591175,0.08940041122931086,3.7590123456790128,20.0,7.288888888888889,6.5,0.0,20.0,0.04699656267622356,0.07394852920854232,0.109144469425068,0.14700542810898856,0.16350213174766068,4.693395896756993,656.0,7.740322088936356
268,2011-10-24,STORE_2_085,3.000000000000001,0,1,-0.022276394711152232,0.01911629044707277,0.057991946977686754,0.057991946977686754,0.024133679716719356,0.1962946451439682,,0.057991946977686754,0.057991946977686754,3.7792592592592555,20.0,7.266666666666667,6.5,0.0,20.0,0.04699656267622356,0.07394852920854232,0.109144469425068,0.14700542810898856,0.16350213174766068,4.70906369662552,654.0,7.74199188287103
269,2011-10-25,STORE_2_085,9.999999999999998,0,1,0.07342891715853347,0.0957053118696857,0.03571555226653452,0.04699656267622356,0.012234456417011626,0.04699656267622356,,0.03571555226653452,0.0791812460476248,3.808888888888889,20.0,7.3,6.5,0.0,20.0,0.04699656267622356,0.07394852920854232,0.109144469425068,0.14700542810898856,0.16350213174766068,4.717764658266297,657.0,7.743661676805704
270,2011-10-26,STORE_2_085,9.999999999999998,0,1,0.0,-0.07342891715853347,0.109144469425068,0.057991946977686754,0.03571555226653452,0.08940041122931086,,0.08940041122931086,0.024133679716719356,3.7839506172839537,20.0,7.388888888888889,7.0,0.0,20.0,0.04699656267622356,0.0791812460476248,0.109144469425068,0.14700542810898856,0.16350213174766068,4.692079016079502,665.0,7.745331470740375
271,2011-10-27,STORE_2_085,5.000000000000001,0,1,-0.05115252244738125,-0.05115252244738125,0.109144469425068,0.04699656267622356,0.012234456417011626,0.057991946977686754,,0.0791812460476248,0.04699656267622356,3.773333333333331,20.0,7.4,7.0,0.0,20.0,0.04699656267622356,0.0791812460476248,0.109144469425068,0.14700542810898856,0.16350213174766068,4.685142665677621,666.0,7.747001264675049
272,2011-10-28,STORE_2_085,4.0,0,1,-0.010995384301463192,0.04015713814591806,0.057991946977686754,0.13717319302531156,0.04699656267622356,0.0,,0.057991946977686754,0.03571555226653452,3.7627160493827168,20.0,7.411111111111111,7.0,0.0,20.0,0.04699656267622356,0.0791812460476248,0.109144469425068,0.14700542810898856,0.16350213174766068,4.67576694290568,667.0,7.748671058609723
